/JOB
//NAME aruba_cylinder_program
//POS
///NPOS 60,0,60,1,0,1
///TOOL 0
///POSTYPE BASE
///RECTAN
///RCONF 0,0,0,0,0,0,0,0,0,0,0,0,0,0,0,0,0,0,0,0,0,0,0,0
C00000=2295.071,-1910.671,73.977,175.0000,-89.9999,5.0000
C00001=2295.071,-1910.671,73.977,175.0000,-89.9999,5.0000
C00002=2094.157,-1738.356,73.977,-90.0000,-90.0000,5.0000
C00003=1887.369,-1908.592,73.977,0.0000,-89.9999,5.0000
C00004=1887.925,-1920.965,116.355,0.0000,-89.9999,5.0000
C00005=1887.925,-1920.965,116.355,0.0000,-89.9999,5.0000
C00006=2073.302,-1741.536,116.355,-90.0000,-90.0000,5.0000
C00007=2297.771,-1915.110,116.355,175.0000,-89.9999,5.0000
C00008=2302.261,-1938.240,166.355,175.0000,-89.9999,5.0000
C00009=2302.261,-1938.240,166.355,175.0000,-89.9999,5.0000
C00010=2074.842,-1744.807,166.355,-90.0000,-90.0000,5.0000
C00011=1887.602,-1940.475,166.355,0.0000,-89.9999,5.0000
C00012=1889.361,-1936.929,216.355,0.0000,-89.9999,5.0000
C00013=1889.361,-1936.929,216.355,0.0000,-89.9999,5.0000
C00014=2083.607,-1748.964,216.355,-90.0000,-90.0000,5.0000
C00015=2304.799,-1950.615,216.355,175.0000,-89.9999,5.0000
C00016=2306.311,-1947.955,266.355,175.0000,-89.9999,5.0000
C00017=2306.311,-1947.955,266.355,175.0000,-89.9999,5.0000
C00018=2086.316,-1752.373,266.355,-90.0000,-90.0000,5.0000
C00019=1889.865,-1955.282,266.355,0.0000,-89.9999,5.0000
C00020=1891.250,-1953.235,316.355,0.0000,-89.9999,5.0000
C00021=1891.250,-1953.235,316.355,0.0000,-89.9999,5.0000
C00022=2083.414,-1755.770,316.355,-90.0000,-90.0000,5.0000
C00023=2308.003,-1950.138,316.355,175.0000,-89.9999,5.0000
C00024=2310.556,-1953.141,366.665,175.0000,-89.9999,5.0000
C00025=2310.556,-1953.141,366.665,175.0000,-89.9999,5.0000
C00026=2101.195,-1758.877,366.665,-90.0000,-90.0000,5.0000
C00027=1892.980,-1957.672,366.665,0.0000,-89.9999,5.0000
C00028=1892.980,-1957.672,366.665,0.0000,-89.9999,5.0000
C00029=1892.980,-1957.672,366.665,0.0000,-89.9999,5.0000
C00030=-27.725,-288.116,73.581,90.0000,-90.0000,5.0000
C00031=-27.725,-288.116,73.581,90.0000,-90.0000,5.0000
C00032=-214.406,-89.084,73.581,5.0000,-89.9999,5.0000
C00033=-27.075,123.082,73.581,-90.0000,-90.0000,5.0000
C00034=-23.426,123.107,116.355,-90.0000,-90.0000,5.0000
C00035=-23.426,123.107,116.355,-90.0000,-90.0000,5.0000
C00036=-218.165,-70.020,116.355,5.0000,-89.9999,5.0000
C00037=-31.534,-290.372,116.355,90.0000,-90.0000,5.0000
C00038=-32.485,-292.483,166.355,90.0000,-90.0000,5.0000
C00039=-32.485,-292.483,166.355,90.0000,-90.0000,5.0000
C00040=-221.735,-90.451,166.355,5.0000,-89.9999,5.0000
C00041=-23.648,122.179,166.355,-90.0000,-90.0000,5.0000
C00042=-33.976,120.484,216.355,-90.0000,-90.0000,5.0000
C00043=-33.976,120.484,216.355,-90.0000,-90.0000,5.0000
C00044=-224.921,-82.574,216.355,5.0000,-89.9999,5.0000
C00045=-33.203,-294.442,216.355,90.0000,-90.0000,5.0000
C00046=-32.549,-296.547,266.355,90.0000,-90.0000,5.0000
C00047=-32.549,-296.547,266.355,90.0000,-90.0000,5.0000
C00048=-230.164,-96.352,266.355,5.0000,-89.9999,5.0000
C00049=-37.748,119.250,266.355,-90.0000,-90.0000,5.0000
C00050=-36.165,118.346,316.355,-90.0000,-90.0000,5.0000
C00051=-36.165,118.346,316.355,-90.0000,-90.0000,5.0000
C00052=-231.046,-88.838,316.355,5.0000,-89.9999,5.0000
C00053=-31.962,-298.354,316.355,90.0000,-90.0000,5.0000
C00054=-30.317,-299.811,364.950,90.0000,-90.0000,5.0000
C00055=-30.317,-299.811,364.950,90.0000,-90.0000,5.0000
C00056=-233.334,-74.228,364.950,5.0000,-89.9999,5.0000
C00057=-61.733,115.641,364.950,-90.0000,-90.0000,5.0000
C00058=-61.733,115.641,364.950,-90.0000,-90.0000,5.0000
C00059=-61.733,115.641,364.950,-90.0000,-90.0000,5.0000
///POSTYPE PULSE
///PULSE
EC00000=0
EC00001=0
EC00002=0
EC00003=0
EC00004=0
EC00005=0
EC00006=0
EC00007=0
EC00008=0
EC00009=0
EC00010=0
EC00011=0
EC00012=0
EC00013=0
EC00014=0
EC00015=0
EC00016=0
EC00017=0
EC00018=0
EC00019=0
EC00020=0
EC00021=0
EC00022=0
EC00023=0
EC00024=0
EC00025=0
EC00026=0
EC00027=0
EC00028=184320
EC00029=368640
EC00030=368640
EC00031=368640
EC00032=368640
EC00033=368640
EC00034=368640
EC00035=368640
EC00036=368640
EC00037=368640
EC00038=368640
EC00039=368640
EC00040=368640
EC00041=368640
EC00042=368640
EC00043=368640
EC00044=368640
EC00045=368640
EC00046=368640
EC00047=368640
EC00048=368640
EC00049=368640
EC00050=368640
EC00051=368640
EC00052=368640
EC00053=368640
EC00054=368640
EC00055=368640
EC00056=368640
EC00057=368640
EC00058=552960
EC00059=737280
///POSTYPE BASE
///RECTAN
///RCONF 1,0,0,0,0,0,0,0,0,0,0,0,0,0,0,0,0,0,0,0,0,0,0,0
P00009=1350.000,-150.000,200.000,-180.0000,-45.0000,0.0000
///POSTYPE PULSE
///PULSE
EX00000=0
//INST
///DATE 2023/05/08 09:33
///ATTR SC,RW,RJ
////FRAME BASE
///GROUP1 RB1,ST1
NOP
MOVJ P009 EX000 VJ=15.00
MOVJ P009 VJ=15.00
MOVJ C00000 EC00000 VJ=15.00
MOVC C00001 EC00001 V=150.0
MOVC C00002 EC00002 V=150.0
MOVC C00003 EC00003 V=150.0
MOVL C00004 EC00004 V=150.0
MOVC C00005 EC00005 V=150.0
MOVC C00006 EC00006 V=150.0
MOVC C00007 EC00007 V=150.0
MOVL C00008 EC00008 V=150.0
MOVC C00009 EC00009 V=150.0
MOVC C00010 EC00010 V=150.0
MOVC C00011 EC00011 V=150.0
MOVL C00012 EC00012 V=150.0
MOVC C00013 EC00013 V=150.0
MOVC C00014 EC00014 V=150.0
MOVC C00015 EC00015 V=150.0
MOVL C00016 EC00016 V=150.0
MOVC C00017 EC00017 V=150.0
MOVC C00018 EC00018 V=150.0
MOVC C00019 EC00019 V=150.0
MOVL C00020 EC00020 V=150.0
MOVC C00021 EC00021 V=150.0
MOVC C00022 EC00022 V=150.0
MOVC C00023 EC00023 V=150.0
MOVL C00024 EC00024 V=150.0
MOVC C00025 EC00025 V=150.0
MOVC C00026 EC00026 V=150.0
MOVC C00027 EC00027 V=150.0
MOVJ P009 VJ=15.00
MOVL C00028 EC00028 V=150.0
MOVJ P009 VJ=15.00
MOVL C00029 EC00029 V=150.0
MOVJ C00030 EC00030 VJ=15.00
MOVC C00031 EC00031 V=150.0
MOVC C00032 EC00032 V=150.0
MOVC C00033 EC00033 V=150.0
MOVL C00034 EC00034 V=150.0
MOVC C00035 EC00035 V=150.0
MOVC C00036 EC00036 V=150.0
MOVC C00037 EC00037 V=150.0
MOVL C00038 EC00038 V=150.0
MOVC C00039 EC00039 V=150.0
MOVC C00040 EC00040 V=150.0
MOVC C00041 EC00041 V=150.0
MOVL C00042 EC00042 V=150.0
MOVC C00043 EC00043 V=150.0
MOVC C00044 EC00044 V=150.0
MOVC C00045 EC00045 V=150.0
MOVL C00046 EC00046 V=150.0
MOVC C00047 EC00047 V=150.0
MOVC C00048 EC00048 V=150.0
MOVC C00049 EC00049 V=150.0
MOVL C00050 EC00050 V=150.0
MOVC C00051 EC00051 V=150.0
MOVC C00052 EC00052 V=150.0
MOVC C00053 EC00053 V=150.0
MOVL C00054 EC00054 V=150.0
MOVC C00055 EC00055 V=150.0
MOVC C00056 EC00056 V=150.0
MOVC C00057 EC00057 V=150.0
MOVJ P009 VJ=15.00
MOVL C00058 EC00058 V=150.0
MOVJ P009 VJ=15.00
MOVL C00059 EC00059 V=150.0
END
