/JOB
//NAME SCANNING_2
//POS
///NPOS 11,0,11,0,0,0
///TOOL 0
///POSTYPE BASE
///RECTAN
C00000=1000.000,-200.000,150.000,-135.0000,0.0000,-90.0000
C00001=1200.000,-200.000,-85.000,-120.0000,0.0000,-90.0000
C00002=1140.000,-200.000,-675.000,-80.0000,0.0000,-90.0000
C00003=1200.000,-200.000,-85.000,-120.0000,0.0000,-90.0000
C00004=1140.000,-200.000,-675.000,-80.0000,0.0000,-90.0000
C00005=1200.000,-200.000,-85.000,-120.0000,0.0000,-90.0000
C00006=1140.000,-200.000,-675.000,-80.0000,0.0000,-90.0000
C00007=1200.000,-200.000,-85.000,-120.0000,0.0000,-90.0000
C00008=1140.000,-200.000,-675.000,-80.0000,0.0000,-90.0000
C00009=1200.000,-200.000,-85.000,-120.0000,0.0000,-90.0000
C00010=1000.000,-200.000,150.000,-135.0000,0.0000,-90.0000
///POSTYPE PULSE
///PULSE
EC00000=0
EC00001=0
EC00002=46080
EC00003=92160
EC00004=138240
EC00005=184320
EC00006=230400
EC00007=276480
EC00008=322560
EC00009=368640
EC00010=368640
//INST
///DATE 2023/01/30 09:59
///ATTR SC,RW,RJ
////FRAME BASE
///GROUP1 RB1,ST1
NOP
MOVJ C00000 EC00000 VJ=15.00
TIMER T=5.00
MOVL C00001 EC00001 V=100.0
MOVL C00002 EC00002 V=100.0
MOVL C00003 EC00003 V=100.0
MOVL C00004 EC00004 V=100.0
MOVL C00005 EC00005 V=100.0
MOVL C00006 EC00006 V=100.0
MOVL C00007 EC00007 V=100.0
MOVL C00008 EC00008 V=100.0
MOVL C00009 EC00009 V=100.0
MOVJ C00010 EC00010 VJ=15.00
END
