/JOB
//NAME SCANNING_2
//POS
///NPOS 9,0,9,1,0,1
///TOOL 0
///POSTYPE BASE
///RECTAN
///RCONF 0,0,0,0,0,0,0,0,0,0,0,0,0,0,0,0,0,0,0,0,0,0,0,0
C00000=1200.000,-200.000,-85.000,-120.0000,0.0000,-90.0000
C00001=1140.000,-200.000,-675.000,-80.0000,0.0000,-90.0000
C00002=1200.000,-200.000,-85.000,-120.0000,0.0000,-90.0000
C00003=1140.000,-200.000,-675.000,-80.0000,0.0000,-90.0000
C00004=1200.000,-200.000,-85.000,-120.0000,0.0000,-90.0000
C00005=1140.000,-200.000,-675.000,-80.0000,0.0000,-90.0000
C00006=1200.000,-200.000,-85.000,-120.0000,0.0000,-90.0000
C00007=1140.000,-200.000,-675.000,-80.0000,0.0000,-90.0000
C00008=1200.000,-200.000,-85.000,-120.0000,0.0000,-90.0000
///POSTYPE PULSE
///PULSE
EC00000=0
EC00001=46080
EC00002=92160
EC00003=138240
EC00004=184320
EC00005=230400
EC00006=276480
EC00007=322560
EC00008=368640
///POSTYPE BASE
///RECTAN
P00002=1000.000,-200.000,150.000,-135.0000,0.0000,-90.0000
///POSTYPE PULSE
///PULSE
EX00000=0
//INST
///DATE 2023/01/30 09:59
///ATTR SC,RW,RJ
////FRAME BASE
///GROUP1 RB1,ST1
NOP
MOVJ P002 EX000 VJ=15.00
TIMER T=5.00
MOVL C00000 EC00000 V=100.0
MOVL C00001 EC00001 V=100.0
MOVL C00002 EC00002 V=100.0
MOVL C00003 EC00003 V=100.0
MOVL C00004 EC00004 V=100.0
MOVL C00005 EC00005 V=100.0
MOVL C00006 EC00006 V=100.0
MOVL C00007 EC00007 V=100.0
MOVL C00008 EC00008 V=100.0
MOVJ P002 VJ=15.00
END
