/JOB
//NAME ARUBA_1
//POS
///NPOS 46,0,46,0,0,0
///TOOL 0
///POSTYPE BASE
///RECTAN
///RCONF 1,0,0,0,0,0,0,0,0,0,0,0,0,0,0,0,0,0,0,0,0,0,0,0
C00000=2889.189555,-192.297262,-540.208917,175.000000,5.000000,5.000000
C00001=2889.189555,267.972711,-540.208917,175.000000,5.000000,5.000000
C00002=2794.391387,719.098228,-518.505194,175.000000,5.000000,5.000000
C00003=2794.391387,-241.704261,-518.505194,175.000000,5.000000,5.000000
C00004=2644.391387,-143.317387,-523.550594,175.000000,5.000000,5.000000
C00005=2644.391387,777.512447,-523.550594,175.000000,5.000000,5.000000
C00006=2494.391387,781.493339,-530.356579,175.000000,5.000000,5.000000
C00007=2494.391387,3.071554,-530.356579,175.000000,5.000000,5.000000
C00008=2344.391387,299.139304,-525.548582,175.000000,5.000000,5.000000
C00009=2344.391387,888.766415,-525.548582,175.000000,5.000000,5.000000
C00010=2194.391387,914.851455,-548.328048,175.000000,5.000000,5.000000
C00011=2194.391387,303.802831,-548.328048,175.000000,5.000000,5.000000
C00012=2044.391387,428.726530,-561.046637,175.000000,5.000000,5.000000
C00013=2044.391387,1004.043988,-561.046637,175.000000,5.000000,5.000000
C00014=1894.374259,973.123300,-578.440763,175.000000,5.000000,5.000000
C00015=1894.374259,568.578956,-578.440763,175.000000,5.000000,5.000000
C00016=2353.562904,-146.893497,-285.714498,175.000000,5.000000,5.000000
C00017=2353.562904,368.914526,-285.714498,175.000000,5.000000,5.000000
C00018=2261.806437,383.971798,-298.204325,175.000000,5.000000,5.000000
C00019=2261.806437,-148.489109,-298.204325,175.000000,5.000000,5.000000
C00020=2111.678334,-136.467108,-343.187514,175.000000,5.000000,5.000000
C00021=2111.678334,391.786429,-343.187514,175.000000,5.000000,5.000000
C00022=1260.610459,35.239275,-430.544187,175.000000,-89.999999,5.000000
C00023=1260.610459,-382.323842,-430.544187,175.000000,-89.999999,5.000000
C00024=1234.948067,-426.828938,-535.810518,175.000000,-89.999999,5.000000
C00025=1234.948067,157.248111,-535.810518,175.000000,-89.999999,5.000000
C00026=1191.758643,118.930051,-685.810518,175.000000,-89.999999,5.000000
C00027=1191.758643,-448.729694,-685.810518,175.000000,-89.999999,5.000000
C00028=1191.758643,-448.729694,-685.810518,175.000000,-89.999999,5.000000
C00029=1747.105420,-16.093918,-679.192802,175.000000,-89.999999,5.000000
C00030=1747.105420,-564.697404,-679.192802,175.000000,-89.999999,5.000000
C00031=1782.412145,-605.899191,-684.855235,180.000000,-60.000000,0.000000
C00032=1782.412145,-21.237312,-684.855235,180.000000,-60.000000,0.000000
C00033=1782.412145,-21.237312,-684.855235,180.000000,-60.000000,0.000000
C00034=1873.698335,-29.801384,-658.367313,175.000000,-89.999999,5.000000
C00035=1873.698335,523.863711,-658.367313,175.000000,-89.999999,5.000000
C00036=1904.457196,569.661601,-664.029746,180.000000,-60.000000,0.000000
C00037=1904.457196,-25.741677,-664.029746,180.000000,-60.000000,0.000000
C00038=1904.457196,-25.741677,-664.029746,180.000000,-60.000000,0.000000
C00039=1398.988739,161.175445,-430.670237,175.000000,-89.999999,5.000000
C00040=1398.988739,610.063232,-430.670237,175.000000,-89.999999,5.000000
C00041=1372.725800,654.914760,-535.761790,175.000000,-89.999999,5.000000
C00042=1372.725800,74.350914,-535.761790,175.000000,-89.999999,5.000000
C00043=1332.071916,104.893231,-685.761790,175.000000,-89.999999,5.000000
C00044=1332.071916,678.502471,-685.761790,175.000000,-89.999999,5.000000
C00045=1332.071916,678.502471,-685.761790,175.000000,-89.999999,5.000000
///POSTYPE PULSE
///PULSE
EC00000=0
EC00001=0
EC00002=0
EC00003=0
EC00004=0
EC00005=0
EC00006=0
EC00007=0
EC00008=0
EC00009=0
EC00010=0
EC00011=0
EC00012=0
EC00013=0
EC00014=0
EC00015=0
EC00016=0
EC00017=0
EC00018=0
EC00019=0
EC00020=0
EC00021=0
EC00022=0
EC00023=0
EC00024=0
EC00025=0
EC00026=0
EC00027=0
EC00028=92160
EC00029=92160
EC00030=92160
EC00031=92160
EC00032=92160
EC00033=184320
EC00034=184320
EC00035=184320
EC00036=184320
EC00037=184320
EC00038=276480
EC00039=276480
EC00040=276480
EC00041=276480
EC00042=276480
EC00043=276480
EC00044=276480
EC00045=368640
//INST
///DATE 2023/05/07 13:30
///ATTR SC,RW,RJ
////FRAME BASE
///GROUP1 RB1,ST1
NOP
MOVJ P009 EX000 VJ=15.00
MOVJ C00000 EC00000 VJ=15.0
CALL JOB:SPYON
MOVL C00001 EC00001 V=200.0
MOVL C00002 EC00002 V=200.0
MOVL C00003 EC00003 V=200.0
MOVL C00004 EC00004 V=200.0
MOVL C00005 EC00005 V=200.0
MOVL C00006 EC00006 V=200.0
MOVL C00007 EC00007 V=200.0
MOVL C00008 EC00008 V=200.0
MOVL C00009 EC00009 V=200.0
MOVL C00010 EC00010 V=200.0
MOVL C00011 EC00011 V=200.0
MOVL C00012 EC00012 V=200.0
MOVL C00013 EC00013 V=200.0
MOVL C00014 EC00014 V=200.0
MOVL C00015 EC00015 V=200.0
CALL JOB:SPYOF
MOVJ C00016 EC00016 VJ=15.0
CALL JOB:SPYON
MOVL C00017 EC00017 V=200.0
MOVL C00018 EC00018 V=200.0
MOVL C00019 EC00019 V=200.0
MOVL C00020 EC00020 V=200.0
MOVL C00021 EC00021 V=200.0
CALL JOB:SPYOF
MOVJ P009 VJ=15.00
MOVJ C00022 EC00022 VJ=15.0
CALL JOB:SPYON
MOVL C00023 EC00023 V=200.0
MOVL C00024 EC00024 V=200.0
MOVL C00025 EC00025 V=200.0
MOVL C00026 EC00026 V=200.0
MOVL C00027 EC00027 V=200.0
CALL JOB:SPYOF
MOVJ P009 VJ=15.00
MOVL C00028 EC00028 V=200.0
MOVJ C00029 EC00029 VJ=15.0
CALL JOB:SPYON
MOVL C00030 EC00030 V=200.0
MOVL C00031 EC00031 V=200.0
MOVL C00032 EC00032 V=200.0
CALL JOB:SPYOF
MOVJ P009 VJ=15.00
MOVL C00033 EC00033 V=200.0
MOVJ C00034 EC00034 VJ=15.0
CALL JOB:SPYON
MOVL C00035 EC00035 V=200.0
MOVL C00036 EC00036 V=200.0
MOVL C00037 EC00037 V=200.0
CALL JOB:SPYOF
MOVJ P009 VJ=15.00
MOVL C00038 EC00038 V=200.0
MOVJ C00039 EC00039 VJ=15.0
CALL JOB:SPYON
MOVL C00040 EC00040 V=200.0
MOVL C00041 EC00041 V=200.0
MOVL C00042 EC00042 V=200.0
MOVL C00043 EC00043 V=200.0
MOVL C00044 EC00044 V=200.0
CALL JOB:SPYOF
MOVJ P009 VJ=15.00
MOVL C00045 EC00045 V=200.0
END
