/JOB
//NAME aruba_cylinder_program_with_r
//POS
///NPOS 60,0,60,0,0,0
///TOOL 0
///POSTYPE BASE
///RECTAN
///RCONF 0,0,0,0,0,0,0,0,0,0,0,0,0,0,0,0,0,0,0,0,0,0,0,0
C00000=1910.805374,138.219032,-235.586000,90.000000,-90.000000,5.000000
C00001=1910.805374,138.219032,-235.586000,90.000000,-90.000000,5.000000
C00002=1755.174295,-55.615789,-235.586000,175.000000,-89.999999,5.000000
C00003=1964.123044,-275.346877,-235.586000,-90.000000,-90.000000,5.000000
C00004=1917.868369,-268.447514,-284.971000,-90.000000,-90.000000,5.000000
C00005=1917.868369,-268.447514,-284.971000,-90.000000,-90.000000,5.000000
C00006=1749.583414,-68.983608,-284.971000,175.000000,-89.999999,5.000000
C00007=1947.932349,143.292544,-284.971000,90.000000,-90.000000,5.000000
C00008=1947.396149,143.771403,-334.971000,90.000000,-90.000000,5.000000
C00009=1947.396149,143.771403,-334.971000,90.000000,-90.000000,5.000000
C00010=1753.553757,-69.142352,-334.971000,175.000000,-89.999999,5.000000
C00011=1932.885502,-269.623207,-334.971000,-90.000000,-90.000000,5.000000
C00012=1951.055307,-270.318141,-384.971000,-90.000000,-90.000000,5.000000
C00013=1951.055307,-270.318141,-384.971000,-90.000000,-90.000000,5.000000
C00014=1754.528165,-70.126139,-384.971000,175.000000,-89.999999,5.000000
C00015=1966.907277,144.834702,-384.971000,90.000000,-90.000000,5.000000
C00016=1966.424497,145.221417,-434.971000,90.000000,-90.000000,5.000000
C00017=1966.424497,145.221417,-434.971000,90.000000,-90.000000,5.000000
C00018=1759.319941,-51.459518,-434.971000,175.000000,-89.999999,5.000000
C00019=1950.333433,-269.571661,-434.971000,-90.000000,-90.000000,5.000000
C00020=1967.203616,-269.185645,-484.971000,-90.000000,-90.000000,5.000000
C00021=1967.203616,-269.185645,-484.971000,-90.000000,-90.000000,5.000000
C00022=1761.552519,-51.452927,-484.971000,175.000000,-89.999999,5.000000
C00023=1965.878995,145.893508,-484.971000,90.000000,-90.000000,5.000000
C00024=1966.253258,146.069986,-522.254500,90.000000,-90.000000,5.000000
C00025=1966.253258,146.069986,-522.254500,90.000000,-90.000000,5.000000
C00026=1761.998479,-52.373591,-522.254500,175.000000,-89.999999,5.000000
C00027=1966.773716,-268.374650,-522.254500,-90.000000,-90.000000,5.000000
C00028=1966.773716,-268.374650,-522.254500,-90.000000,-90.000000,5.000000
C00029=1966.773716,-268.374650,-522.254500,-90.000000,-90.000000,5.000000
C00030=1963.415838,-71.360097,-234.229000,-90.000000,-90.000000,5.000000
C00031=1963.415838,-71.360097,-234.229000,-90.000000,-90.000000,5.000000
C00032=1788.149041,143.986421,-234.229000,175.000000,-89.999999,5.000000
C00033=1979.337878,344.664409,-234.229000,90.000000,-90.000000,5.000000
C00034=1981.794114,341.634504,-284.971000,90.000000,-90.000000,5.000000
C00035=1981.794114,341.634504,-284.971000,90.000000,-90.000000,5.000000
C00036=1784.524796,160.319470,-284.971000,175.000000,-89.999999,5.000000
C00037=1982.109583,-73.370783,-284.971000,-90.000000,-90.000000,5.000000
C00038=1981.386588,-73.868771,-334.971000,-90.000000,-90.000000,5.000000
C00039=1981.386588,-73.868771,-334.971000,-90.000000,-90.000000,5.000000
C00040=1783.361697,161.085352,-334.971000,175.000000,-89.999999,5.000000
C00041=1981.823638,340.854553,-334.971000,90.000000,-90.000000,5.000000
C00042=1982.305446,340.530998,-384.971000,90.000000,-90.000000,5.000000
C00043=1982.305446,340.530998,-384.971000,90.000000,-90.000000,5.000000
C00044=1781.275226,161.272752,-384.971000,175.000000,-89.999999,5.000000
C00045=1982.037893,-74.587156,-384.971000,-90.000000,-90.000000,5.000000
C00046=1981.965863,-75.276279,-434.971000,-90.000000,-90.000000,5.000000
C00047=1981.965863,-75.276279,-434.971000,-90.000000,-90.000000,5.000000
C00048=1777.143879,140.664184,-434.971000,175.000000,-89.999999,5.000000
C00049=1981.117594,339.615463,-434.971000,90.000000,-90.000000,5.000000
C00050=1981.953398,339.092745,-484.971000,90.000000,-90.000000,5.000000
C00051=1981.953398,339.092745,-484.971000,90.000000,-90.000000,5.000000
C00052=1773.316170,139.287568,-484.971000,175.000000,-89.999999,5.000000
C00053=1964.775025,-75.245828,-484.971000,-90.000000,-90.000000,5.000000
C00054=1963.683044,-75.685491,-523.153500,-90.000000,-90.000000,5.000000
C00055=1963.683044,-75.685491,-523.153500,-90.000000,-90.000000,5.000000
C00056=1771.399006,123.522149,-523.153500,175.000000,-89.999999,5.000000
C00057=1964.923113,337.768520,-523.153500,90.000000,-90.000000,5.000000
C00058=1964.923113,337.768520,-523.153500,90.000000,-90.000000,5.000000
C00059=1964.923113,337.768520,-523.153500,90.000000,-90.000000,5.000000
///POSTYPE PULSE
///PULSE
EC00000=0
EC00001=0
EC00002=0
EC00003=0
EC00004=0
EC00005=0
EC00006=0
EC00007=0
EC00008=0
EC00009=0
EC00010=0
EC00011=0
EC00012=0
EC00013=0
EC00014=0
EC00015=0
EC00016=0
EC00017=0
EC00018=0
EC00019=0
EC00020=0
EC00021=0
EC00022=0
EC00023=0
EC00024=0
EC00025=0
EC00026=0
EC00027=0
EC00028=92160
EC00029=184320
EC00030=184320
EC00031=184320
EC00032=184320
EC00033=184320
EC00034=184320
EC00035=184320
EC00036=184320
EC00037=184320
EC00038=184320
EC00039=184320
EC00040=184320
EC00041=184320
EC00042=184320
EC00043=184320
EC00044=184320
EC00045=184320
EC00046=184320
EC00047=184320
EC00048=184320
EC00049=184320
EC00050=184320
EC00051=184320
EC00052=184320
EC00053=184320
EC00054=184320
EC00055=184320
EC00056=184320
EC00057=184320
EC00058=276480
EC00059=368640
//INST
///DATE 2023/05/22 13:43
///ATTR SC,RW,RJ
////FRAME BASE
///GROUP1 RB1,ST1
NOP
MOVJ P009 EX000 VJ=15.00
MOVJ P009 VJ=15.00
MOVJ C00000 EC00000 VJ=15.0
CALL JOB:SPYON
MOVC C00001 EC00001 V=150.0
MOVC C00002 EC00002 V=150.0
MOVC C00003 EC00003 V=150.0
MOVL C00004 EC00004 V=150.0
MOVC C00005 EC00005 V=150.0
MOVC C00006 EC00006 V=150.0
MOVC C00007 EC00007 V=150.0
MOVL C00008 EC00008 V=150.0
MOVC C00009 EC00009 V=150.0
MOVC C00010 EC00010 V=150.0
MOVC C00011 EC00011 V=150.0
MOVL C00012 EC00012 V=150.0
MOVC C00013 EC00013 V=150.0
MOVC C00014 EC00014 V=150.0
MOVC C00015 EC00015 V=150.0
MOVL C00016 EC00016 V=150.0
MOVC C00017 EC00017 V=150.0
MOVC C00018 EC00018 V=150.0
MOVC C00019 EC00019 V=150.0
MOVL C00020 EC00020 V=150.0
MOVC C00021 EC00021 V=150.0
MOVC C00022 EC00022 V=150.0
MOVC C00023 EC00023 V=150.0
MOVL C00024 EC00024 V=150.0
MOVC C00025 EC00025 V=150.0
MOVC C00026 EC00026 V=150.0
MOVC C00027 EC00027 V=150.0
CALL JOB:SPYOF
MOVJ P009 VJ=15.00
MOVL C00028 EC00028 V=150.0
MOVJ P009 VJ=15.00
MOVL C00029 EC00029 V=150.0
MOVJ C00030 EC00030 VJ=15.0
CALL JOB:SPYON
MOVC C00031 EC00031 V=150.0
MOVC C00032 EC00032 V=150.0
MOVC C00033 EC00033 V=150.0
MOVL C00034 EC00034 V=150.0
MOVC C00035 EC00035 V=150.0
MOVC C00036 EC00036 V=150.0
MOVC C00037 EC00037 V=150.0
MOVL C00038 EC00038 V=150.0
MOVC C00039 EC00039 V=150.0
MOVC C00040 EC00040 V=150.0
MOVC C00041 EC00041 V=150.0
MOVL C00042 EC00042 V=150.0
MOVC C00043 EC00043 V=150.0
MOVC C00044 EC00044 V=150.0
MOVC C00045 EC00045 V=150.0
MOVL C00046 EC00046 V=150.0
MOVC C00047 EC00047 V=150.0
MOVC C00048 EC00048 V=150.0
MOVC C00049 EC00049 V=150.0
MOVL C00050 EC00050 V=150.0
MOVC C00051 EC00051 V=150.0
MOVC C00052 EC00052 V=150.0
MOVC C00053 EC00053 V=150.0
MOVL C00054 EC00054 V=150.0
MOVC C00055 EC00055 V=150.0
MOVC C00056 EC00056 V=150.0
MOVC C00057 EC00057 V=150.0
CALL JOB:SPYOF
MOVJ P009 VJ=15.00
MOVL C00058 EC00058 V=150.0
MOVJ P009 VJ=15.00
MOVL C00059 EC00059 V=150.0
END
