/JOB
//NAME ARUBA_1
//POS
///NPOS 62,0,62,0,0,0
///TOOL 1
///POSTYPE BASE
///RECTAN
///RCONF 1,0,0,0,0,0,0,0,0,0,0,0,0,0,0,0,0,0,0,0,0,0,0,0
C00000=2308.750217,-146.534767,-422.482018,175.000000,5.000000,5.000000
C00001=2308.750217,287.420506,-422.482018,175.000000,5.000000,5.000000
C00002=2258.750217,289.139572,-422.532236,175.000000,5.000000,5.000000
C00003=2258.750217,-146.267817,-422.532236,175.000000,5.000000,5.000000
C00004=2208.750217,-146.427841,-422.010756,175.000000,5.000000,5.000000
C00005=2208.750217,290.904594,-422.010756,175.000000,5.000000,5.000000
C00006=2158.750217,291.835992,-422.344365,175.000000,5.000000,5.000000
C00007=2158.750217,-140.202291,-422.344365,175.000000,5.000000,5.000000
C00008=2108.750217,-141.768108,-426.701036,175.000000,5.000000,5.000000
C00009=2108.750217,292.262508,-426.701036,175.000000,5.000000,5.000000
C00010=2058.750217,292.467939,-428.983947,175.000000,5.000000,5.000000
C00011=2058.750217,-137.421099,-428.983947,175.000000,5.000000,5.000000
C00012=2008.725969,-137.428514,-429.717767,175.000000,5.000000,5.000000
C00013=2008.725969,294.479864,-429.717767,175.000000,5.000000,5.000000
C00014=1467.325817,-16.700144,-576.450942,175.000000,-89.999999,5.000000
C00015=1467.325817,-211.281003,-576.450942,175.000000,-89.999999,5.000000
C00016=1469.743126,-217.547566,-604.642445,175.000000,-89.999999,5.000000
C00017=1469.743126,223.304295,-604.642445,175.000000,-89.999999,5.000000
C00018=1467.138599,218.848162,-654.642445,175.000000,-89.999999,5.000000
C00019=1467.138599,-221.435742,-654.642445,175.000000,-89.999999,5.000000
C00020=1464.106512,-224.680161,-704.642445,175.000000,-89.999999,5.000000
C00021=1464.106512,219.284474,-704.642445,175.000000,-89.999999,5.000000
C00022=1461.463052,219.460793,-668.039905,180.000000,-60.000000,0.000000
C00023=1461.463052,-223.182455,-668.039905,180.000000,-60.000000,0.000000
C00024=1459.555012,-221.944742,-718.039905,180.000000,-60.000000,0.000000
C00025=1459.555012,209.684204,-718.039905,180.000000,-60.000000,0.000000
C00026=1459.555012,209.684204,-718.039905,180.000000,-60.000000,0.000000
C00027=1697.087377,80.909853,-608.855812,175.000000,-89.999999,5.000000
C00028=1697.087377,-356.533977,-608.855812,175.000000,-89.999999,5.000000
C00029=1700.691203,-356.299428,-658.855812,175.000000,-89.999999,5.000000
C00030=1700.691203,79.287627,-658.855812,175.000000,-89.999999,5.000000
C00031=1703.894373,79.194224,-708.855812,175.000000,-89.999999,5.000000
C00032=1703.894373,-356.411581,-708.855812,175.000000,-89.999999,5.000000
C00033=1706.314504,-360.024784,-672.253271,180.000000,-60.000000,0.000000
C00034=1706.314504,79.714364,-672.253271,180.000000,-60.000000,0.000000
C00035=1707.772223,79.391099,-722.253271,180.000000,-60.000000,0.000000
C00036=1707.772223,-355.069738,-722.253271,180.000000,-60.000000,0.000000
C00037=1707.772223,-355.069738,-722.253271,180.000000,-60.000000,0.000000
C00038=1830.691649,-130.606475,-598.158012,175.000000,-89.999999,5.000000
C00039=1830.691649,314.143998,-598.158012,175.000000,-89.999999,5.000000
C00040=1829.917392,316.050003,-648.158012,175.000000,-89.999999,5.000000
C00041=1829.917392,-130.271780,-648.158012,175.000000,-89.999999,5.000000
C00042=1829.749922,-122.282856,-698.158012,175.000000,-89.999999,5.000000
C00043=1829.749922,315.044819,-698.158012,175.000000,-89.999999,5.000000
C00044=1830.664574,321.244369,-661.555471,180.000000,-60.000000,0.000000
C00045=1830.664574,-121.696407,-661.555471,180.000000,-60.000000,0.000000
C00046=1832.371673,-121.574650,-711.555471,180.000000,-60.000000,0.000000
C00047=1832.371673,320.242847,-711.555471,180.000000,-60.000000,0.000000
C00048=1832.371673,320.242847,-711.555471,180.000000,-60.000000,0.000000
C00049=1606.706176,134.190784,-563.194827,175.000000,-89.999999,5.000000
C00050=1606.706176,439.386307,-563.194827,175.000000,-89.999999,5.000000
C00051=1603.668424,447.937195,-591.902245,175.000000,-89.999999,5.000000
C00052=1603.668424,3.170084,-591.902245,175.000000,-89.999999,5.000000
C00053=1603.343144,3.860363,-641.902245,175.000000,-89.999999,5.000000
C00054=1603.343144,447.747090,-641.902245,175.000000,-89.999999,5.000000
C00055=1603.305264,449.967581,-691.902245,175.000000,-89.999999,5.000000
C00056=1603.305264,9.562633,-691.902245,175.000000,-89.999999,5.000000
C00057=1602.310891,8.443534,-655.299705,180.000000,-60.000000,0.000000
C00058=1602.310891,450.731472,-655.299705,180.000000,-60.000000,0.000000
C00059=1600.766324,450.135985,-705.299705,180.000000,-60.000000,0.000000
C00060=1600.766324,8.876521,-705.299705,180.000000,-60.000000,0.000000
C00061=1600.766324,8.876521,-705.299705,180.000000,-60.000000,0.000000
///TOOL 0
####TOOL####
//INST
///DATE 2022/07/25 12:21
///DATE 2023/05/14 09:44
///ATTR SC,RW
///GROUP1 RB1
///GROUP2 ST1
NOP
MOVJ C00000 EC00000 VJ=15.0
CALL JOB:SPYON
MOVL C00001 EC00001 V=150.0
MOVL C00002 EC00002 V=150.0
MOVL C00003 EC00003 V=150.0
MOVL C00004 EC00004 V=150.0
MOVL C00005 EC00005 V=150.0
MOVL C00006 EC00006 V=150.0
MOVL C00007 EC00007 V=150.0
MOVL C00008 EC00008 V=150.0
MOVL C00009 EC00009 V=150.0
MOVL C00010 EC00010 V=150.0
MOVL C00011 EC00011 V=150.0
MOVL C00012 EC00012 V=150.0
MOVL C00013 EC00013 V=150.0
CALL JOB:SPYOF
MOVJ P009 VJ=15.00
MOVJ C00014 EC00014 VJ=15.0
CALL JOB:SPYON
MOVL C00015 EC00015 V=150.0
MOVL C00016 EC00016 V=150.0
MOVL C00017 EC00017 V=150.0
MOVL C00018 EC00018 V=150.0
MOVL C00019 EC00019 V=150.0
MOVL C00020 EC00020 V=150.0
MOVL C00021 EC00021 V=150.0
MOVL C00022 EC00022 V=150.0
MOVL C00023 EC00023 V=150.0
MOVL C00024 EC00024 V=150.0
MOVL C00025 EC00025 V=150.0
CALL JOB:SPYOF
MOVJ P009 VJ=15.00
MOVL C00026 EC00026 V=150.0
MOVJ C00027 EC00027 VJ=15.0
CALL JOB:SPYON
MOVL C00028 EC00028 V=150.0
MOVL C00029 EC00029 V=150.0
MOVL C00030 EC00030 V=150.0
MOVL C00031 EC00031 V=150.0
MOVL C00032 EC00032 V=150.0
MOVL C00033 EC00033 V=150.0
MOVL C00034 EC00034 V=150.0
MOVL C00035 EC00035 V=150.0
MOVL C00036 EC00036 V=150.0
CALL JOB:SPYOF
MOVJ P009 VJ=15.00
MOVL C00037 EC00037 V=150.0
MOVJ C00038 EC00038 VJ=15.0
CALL JOB:SPYON
MOVL C00039 EC00039 V=150.0
MOVL C00040 EC00040 V=150.0
MOVL C00041 EC00041 V=150.0
MOVL C00042 EC00042 V=150.0
MOVL C00043 EC00043 V=150.0
MOVL C00044 EC00044 V=150.0
MOVL C00045 EC00045 V=150.0
MOVL C00046 EC00046 V=150.0
MOVL C00047 EC00047 V=150.0
CALL JOB:SPYOF
MOVJ P009 VJ=15.00
MOVL C00048 EC00048 V=150.0
MOVJ C00049 EC00049 VJ=15.0
CALL JOB:SPYON
MOVL C00050 EC00050 V=150.0
MOVL C00051 EC00051 V=150.0
MOVL C00052 EC00052 V=150.0
MOVL C00053 EC00053 V=150.0
MOVL C00054 EC00054 V=150.0
MOVL C00055 EC00055 V=150.0
MOVL C00056 EC00056 V=150.0
MOVL C00057 EC00057 V=150.0
MOVL C00058 EC00058 V=150.0
MOVL C00059 EC00059 V=150.0
MOVL C00060 EC00060 V=150.0
CALL JOB:SPYOF
MOVJ P009 VJ=15.00
MOVL C00061 EC00061 V=150.0
END
