/JOB
//NAME blower_cylinder_program
//POS
///NPOS 206,0,206,0,0,0
///TOOL 0
///POSTYPE BASE
///RECTAN
///RCONF 0,0,0,0,0,0,0,0,0,0,0,0,0,0,0,0,0,0,0,0,0,0,0,0
C00000=1963.062894,431.654820,-687.371500,92.919799,-90.000000,5.000000
C00001=1963.062894,431.654820,-687.371500,92.919799,-90.000000,5.000000
C00002=1734.815847,334.830085,-687.371500,133.054509,-89.999999,5.000000
C00003=1623.126204,116.908107,-687.371500,172.673284,-90.000000,5.000000
C00004=1623.126204,116.908107,-687.371500,172.673284,-90.000000,5.000000
C00005=1623.126204,116.908107,-687.371500,172.673284,-90.000000,5.000000
C00006=1697.423970,-152.438229,-687.371500,-141.830808,-90.000000,5.000000
C00007=1914.555150,-284.206103,-687.371500,-100.672833,-90.000000,5.000000
C00008=1999.753919,-289.993025,-647.067960,175.000000,-60.000000,92.901412
C00009=1999.753919,-289.993025,-647.067960,175.000000,-60.000000,92.901412
C00010=1725.904614,-184.545656,-647.067960,175.000000,-60.000000,44.979570
C00011=1620.242209,77.734443,-647.067960,-175.000000,-60.000000,-5.000000
C00012=1620.242209,77.734443,-647.067960,-175.000000,-60.000000,-5.000000
C00013=1620.242209,77.734443,-647.067960,-175.000000,-60.000000,-5.000000
C00014=1721.731360,321.967717,-647.067960,175.000000,-60.000000,-44.035450
C00015=1964.003499,431.701566,-647.067960,-175.000000,-60.000000,-87.229553
C00016=1963.088614,431.656131,-696.918960,175.000000,-60.000000,-87.084285
C00017=1963.088614,431.656131,-696.918960,175.000000,-60.000000,-87.084285
C00018=1723.731308,324.019813,-696.918960,175.000000,-60.000000,-44.489876
C00019=1620.177946,71.923409,-696.918960,175.000000,-60.000000,-5.000000
C00020=1620.177946,71.923409,-696.918960,175.000000,-60.000000,-5.000000
C00021=1620.177946,71.923409,-696.918960,175.000000,-60.000000,-5.000000
C00022=1732.109895,-190.608019,-696.918960,175.000000,-60.000000,46.355361
C00023=2002.239013,-289.858491,-696.918960,175.000000,-60.000000,93.296093
C00024=2001.958817,-289.874519,-735.431960,175.000000,-60.000000,93.251585
C00025=2001.958817,-289.874519,-735.431960,175.000000,-60.000000,93.251585
C00026=1747.452228,-204.425813,-735.431960,-175.000000,-60.000000,49.630223
C00027=1623.146930,24.598671,-735.431960,-175.000000,-60.000000,7.352444
C00028=1623.146930,24.598671,-735.431960,-175.000000,-60.000000,7.352444
C00029=1623.146930,24.598671,-735.431960,-175.000000,-60.000000,7.352444
C00030=1699.032936,296.137764,-735.431960,175.000000,-60.000000,-38.580211
C00031=1963.261351,431.664887,-735.431960,175.000000,-60.000000,-87.111714
C00032=1982.680265,281.190451,-422.698500,88.441815,-90.000000,5.000000
C00033=1982.680265,281.190451,-422.698500,88.441815,-90.000000,5.000000
C00034=1805.482798,209.204093,-422.698500,135.777019,-90.000000,5.000000
C00035=1738.162015,33.669129,-422.698500,-175.000000,-90.000000,5.000000
C00036=1738.162015,33.669129,-422.698500,-175.000000,-90.000000,5.000000
C00037=1738.162015,33.669129,-422.698500,-175.000000,-90.000000,5.000000
C00038=1850.328887,-159.201916,-422.698500,-121.896076,-90.000000,5.000000
C00039=2062.527639,-178.981102,-422.698500,-68.754306,-89.999999,5.000000
C00040=2058.796696,-180.395810,-472.367000,-69.713993,-90.000000,5.000000
C00041=2058.796696,-180.395810,-472.367000,-69.713993,-90.000000,5.000000
C00042=1846.262196,-156.613564,-472.367000,-123.055486,-89.999999,5.000000
C00043=1738.864858,22.506285,-472.367000,-175.000000,-90.000000,5.000000
C00044=1738.864858,22.506285,-472.367000,-175.000000,-90.000000,5.000000
C00045=1738.864858,22.506285,-472.367000,-175.000000,-90.000000,5.000000
C00046=1810.056374,213.777541,-472.367000,134.221366,-90.000000,5.000000
C00047=1978.797511,281.264406,-472.367000,89.375839,-90.000000,5.000000
C00048=1983.901016,281.154112,-522.374000,88.148080,-90.000000,5.000000
C00049=1983.901016,281.154112,-522.374000,88.148080,-90.000000,5.000000
C00050=1806.120128,209.856446,-522.374000,135.557672,-90.000000,5.000000
C00051=1741.650867,84.728950,-522.374000,169.924693,-90.000000,5.000000
C00052=1741.650867,84.728950,-522.374000,169.924693,-90.000000,5.000000
C00053=1741.650867,84.728950,-522.374000,169.924693,-90.000000,5.000000
C00054=1770.574631,-77.231871,-522.374000,-149.673849,-90.000000,5.000000
C00055=2062.332482,-179.056879,-522.374000,-68.804658,-90.000000,5.000000
C00056=2062.783592,-178.881419,-485.765960,175.000000,-60.000000,111.311757
C00057=2062.783592,-178.881419,-485.765960,175.000000,-60.000000,111.311757
C00058=1811.856962,-129.405060,-485.765960,175.000000,-60.000000,46.379860
C00059=1737.987965,45.326871,-485.765960,-175.000000,-60.000000,-5.000000
C00060=1737.987965,45.326871,-485.765960,-175.000000,-60.000000,-5.000000
C00061=1737.987965,45.326871,-485.765960,-175.000000,-60.000000,-5.000000
C00062=1807.423407,211.175042,-485.765960,175.000000,-60.000000,-44.888231
C00063=1983.669694,281.161479,-485.765960,-175.000000,-60.000000,-91.796256
C00064=1982.832618,281.186258,-535.796960,-175.000000,-60.000000,-91.594842
C00065=1982.832618,281.186258,-535.796960,-175.000000,-60.000000,-91.594842
C00066=1802.590074,206.179108,-535.796960,175.000000,-60.000000,-43.216310
C00067=1738.139647,51.851643,-535.796960,-175.000000,-60.000000,-5.000000
C00068=1738.139647,51.851643,-535.796960,-175.000000,-60.000000,-5.000000
C00069=1738.139647,51.851643,-535.796960,-175.000000,-60.000000,-5.000000
C00070=1805.887515,-123.512447,-535.796960,175.000000,-60.000000,44.362370
C00071=2062.478615,-179.000156,-535.796960,175.000000,-60.000000,111.233044
C00072=2047.721240,-184.183093,-566.412460,-175.000000,-60.000000,107.470521
C00073=2047.721240,-184.183093,-566.412460,-175.000000,-60.000000,107.470521
C00074=1850.876618,-159.541769,-566.412460,175.000000,-60.000000,58.258958
C00075=1739.603679,15.262386,-566.412460,175.000000,-60.000000,6.699257
C00076=1739.603679,15.262386,-566.412460,175.000000,-60.000000,6.699257
C00077=1739.603679,15.262386,-566.412460,175.000000,-60.000000,6.699257
C00078=1790.166601,191.855020,-566.412460,-175.000000,-60.000000,-38.654761
C00079=1981.144792,281.227266,-566.412460,175.000000,-60.000000,-91.188781
C00080=2096.287078,-25.510232,-664.856096,175.000000,-60.000000,90.002888
C00081=2205.361332,-25.510284,-667.113828,175.000000,-60.000000,90.002888
C00082=2217.454097,-21.282522,-639.726398,-175.000000,-60.000000,90.368297
C00083=2076.375727,-21.282454,-636.806212,-175.000000,-60.000000,90.368297
C00084=1915.056018,60.345485,-562.152315,175.000000,-40.399618,91.393636
C00085=2228.453051,60.345336,-568.639332,175.000000,-40.399618,91.393636
C00086=2237.657912,166.755786,-516.228675,-167.781460,5.000000,5.000000
C00087=1927.521156,166.755934,-509.809144,-167.781460,5.000000,5.000000
C00088=1933.631719,302.057786,-519.237177,159.915243,5.000000,-5.000000
C00089=2236.176543,302.057642,-525.499563,159.915243,5.000000,-5.000000
C00090=2232.178472,406.312769,-599.119022,175.000000,-50.437354,-90.979891
C00091=1880.745084,406.312936,-591.844689,175.000000,-50.437354,-90.979891
C00092=1888.079909,459.852184,-639.900851,-175.000000,-60.000000,-90.270283
C00093=2224.548601,459.852024,-646.865429,-175.000000,-60.000000,-90.270283
C00094=1622.295789,157.194032,-682.895500,159.869559,-89.999999,5.000000
C00095=1622.295789,157.194032,-682.895500,159.869559,-89.999999,5.000000
C00096=1617.269281,142.512700,-682.895500,162.330691,-90.000000,5.000000
C00097=1612.168722,124.980858,-682.895500,165.226590,-90.000000,5.000000
C00098=1612.168722,124.980858,-682.895500,165.226590,-90.000000,5.000000
C00099=1612.168722,124.980858,-682.895500,165.226590,-90.000000,5.000000
C00100=1712.581706,-228.991657,-682.895500,-133.552013,-89.999999,5.000000
C00101=1841.972183,-308.086824,-682.895500,-109.322082,-89.999999,5.000000
C00102=1846.299268,-309.573320,-647.076460,-175.000000,-60.000000,71.403504
C00103=1846.299268,-309.573320,-647.076460,-175.000000,-60.000000,71.403504
C00104=1800.484168,-290.565471,-647.076460,175.000000,-60.000000,63.531155
C00105=1627.457148,170.460114,-647.076460,175.000000,-60.000000,-22.388032
C00106=1627.457148,170.460114,-647.076460,175.000000,-60.000000,-22.388032
C00107=1627.457148,170.460114,-647.076460,175.000000,-60.000000,-22.388032
C00108=1984.599909,393.404715,-647.076460,175.000000,-60.000000,-93.663433
C00109=2066.439584,378.571537,-647.076460,175.000000,-60.000000,-106.882872
C00110=2065.082481,378.980508,-697.378460,-175.000000,-60.000000,-106.658093
C00111=2065.082481,378.980508,-697.378460,-175.000000,-60.000000,-106.658093
C00112=1986.816271,393.255967,-697.378460,-175.000000,-60.000000,-94.015710
C00113=1625.821214,166.419644,-697.378460,-175.000000,-60.000000,-21.696734
C00114=1625.821214,166.419644,-697.378460,-175.000000,-60.000000,-21.696734
C00115=1625.821214,166.419644,-697.378460,-175.000000,-60.000000,-21.696734
C00116=1784.387877,-282.038114,-697.378460,-175.000000,-60.000000,60.642105
C00117=1844.358215,-308.914080,-697.378460,175.000000,-60.000000,71.078409
C00118=1846.454231,-309.625422,-733.645460,-175.000000,-60.000000,71.429431
C00119=1846.454231,-309.625422,-733.645460,-175.000000,-60.000000,71.429431
C00120=1664.139422,-172.325359,-733.645460,175.000000,-60.000000,34.604252
C00121=1615.004967,-69.426869,-733.645460,175.000000,-60.000000,16.445086
C00122=1615.004967,-69.426869,-733.645460,175.000000,-60.000000,16.445086
C00123=1615.004967,-69.426869,-733.645460,175.000000,-60.000000,16.445086
C00124=1602.657200,-8.997299,-733.645460,175.000000,-60.000000,6.651828
C00125=2065.677215,378.801997,-733.645460,175.000000,-60.000000,-106.756566
C00126=1903.373123,284.231326,-423.888000,107.514335,-89.999999,5.000000
C00127=1903.373123,284.231326,-423.888000,107.514335,-89.999999,5.000000
C00128=1753.255233,143.948619,-423.888000,158.606202,-90.000000,5.000000
C00129=1736.905956,62.638458,-423.888000,175.000000,-90.000000,5.000000
C00130=1736.905956,62.638458,-423.888000,175.000000,-90.000000,5.000000
C00131=1736.905956,62.638458,-423.888000,175.000000,-90.000000,5.000000
C00132=1793.925252,-97.673987,-423.888000,-139.497223,-90.000000,5.000000
C00133=1910.732614,-172.324506,-423.888000,-105.667326,-90.000000,5.000000
C00134=1928.072833,-176.494604,-472.421000,-101.376908,-90.000000,5.000000
C00135=1928.072833,-176.494604,-472.421000,-101.376908,-90.000000,5.000000
C00136=1800.300986,-104.840928,-472.421000,-137.189979,-90.000000,5.000000
C00137=1736.975026,49.041752,-472.421000,-175.000000,-90.000000,5.000000
C00138=1736.975026,49.041752,-472.421000,-175.000000,-90.000000,5.000000
C00139=1736.975026,49.041752,-472.421000,-175.000000,-90.000000,5.000000
C00140=1789.976993,207.027969,-472.421000,140.981992,-90.000000,5.000000
C00141=1929.001034,290.778952,-472.421000,101.149282,-89.999999,5.000000
C00142=1929.385167,290.854332,-522.361000,101.055132,-90.000000,5.000000
C00143=1929.385167,290.854332,-522.361000,101.055132,-90.000000,5.000000
C00144=1779.847153,193.581853,-522.361000,145.031796,-90.000000,5.000000
C00145=1736.847354,58.870950,-522.361000,175.000000,-90.000000,5.000000
C00146=1736.847354,58.870950,-522.361000,175.000000,-90.000000,5.000000
C00147=1736.847354,58.870950,-522.361000,175.000000,-90.000000,5.000000
C00148=1783.557914,-84.640281,-522.361000,-143.503533,-90.000000,5.000000
C00149=1926.764302,-176.227488,-522.361000,-101.698115,-90.000000,5.000000
C00150=1926.964247,-176.268799,-485.773960,175.000000,-60.000000,78.350990
C00151=1926.964247,-176.268799,-485.773960,175.000000,-60.000000,78.350990
C00152=1783.812344,-84.983524,-485.773960,-175.000000,-60.000000,36.599228
C00153=1737.436217,73.887986,-485.773960,175.000000,-60.000000,-5.000000
C00154=1737.436217,73.887986,-485.773960,175.000000,-60.000000,-5.000000
C00155=1737.436217,73.887986,-485.773960,175.000000,-60.000000,-5.000000
C00156=1782.278063,196.993393,-485.773960,175.000000,-60.000000,-35.975723
C00157=1928.996650,290.778088,-485.773960,175.000000,-60.000000,-78.849643
C00158=1924.114725,289.762645,-535.782460,-175.000000,-60.000000,-77.650335
C00159=1924.114725,289.762645,-535.782460,-175.000000,-60.000000,-77.650335
C00160=1790.766223,207.996757,-535.782460,175.000000,-60.000000,-39.318545
C00161=1737.221175,43.585748,-535.782460,175.000000,-60.000000,5.000000
C00162=1737.221175,43.585748,-535.782460,175.000000,-60.000000,5.000000
C00163=1737.221175,43.585748,-535.782460,175.000000,-60.000000,5.000000
C00164=1783.438837,-84.479195,-535.782460,175.000000,-60.000000,36.448288
C00165=1918.021655,-174.245023,-535.782460,175.000000,-60.000000,76.145674
C00166=1927.238490,-176.325170,-564.855960,175.000000,-60.000000,78.418327
C00167=1927.238490,-176.325170,-564.855960,175.000000,-60.000000,78.418327
C00168=1793.919158,-97.666853,-564.855960,175.000000,-60.000000,40.500520
C00169=1738.465514,84.828326,-564.855960,175.000000,-60.000000,-6.696284
C00170=1738.465514,84.828326,-564.855960,175.000000,-60.000000,-6.696284
C00171=1738.465514,84.828326,-564.855960,175.000000,-60.000000,-6.696284
C00172=1807.413306,226.295046,-564.855960,-175.000000,-60.000000,-45.270902
C00173=1935.734919,292.005880,-564.855960,175.000000,-60.000000,-80.497011
C00174=1852.424675,367.672934,-688.492500,111.935308,-90.000000,5.000000
C00175=1852.424675,367.672934,-688.492500,111.935308,-90.000000,5.000000
C00176=1702.305578,245.890817,-688.492500,146.165155,-90.000000,5.000000
C00177=1648.654895,98.937265,-688.492500,173.721986,-90.000000,5.000000
C00178=1648.654895,98.937265,-688.492500,173.721986,-90.000000,5.000000
C00179=1648.654895,98.937265,-688.492500,173.721986,-90.000000,5.000000
C00180=1666.909578,-50.446549,-688.492500,-159.787996,-90.000000,5.000000
C00181=1772.110398,-195.151938,-688.492500,-128.177699,-90.000000,5.000000
C00182=1756.302236,-181.897918,-654.147460,175.000000,-60.000000,48.222815
C00183=1756.302236,-181.897918,-654.147460,175.000000,-60.000000,48.222815
C00184=1675.259872,-70.964928,-654.147460,175.000000,-60.000000,24.077359
C00185=1647.259134,43.617243,-654.147460,175.000000,-60.000000,5.000000
C00186=1647.259134,43.617243,-654.147460,175.000000,-60.000000,5.000000
C00187=1647.259134,43.617243,-654.147460,175.000000,-60.000000,5.000000
C00188=1657.150201,145.268684,-654.147460,175.000000,-60.000000,-14.502604
C00189=1814.762173,349.644263,-654.147460,175.000000,-60.000000,-60.775345
C00190=1737.317837,289.557468,-703.503460,-175.000000,-60.000000,-43.610974
C00191=1737.317837,289.557468,-703.503460,-175.000000,-60.000000,-43.610974
C00192=1664.720148,170.358652,-703.503460,175.000000,-60.000000,-19.075790
C00193=1646.982378,49.057475,-703.503460,-175.000000,-60.000000,5.000000
C00194=1646.982378,49.057475,-703.503460,-175.000000,-60.000000,5.000000
C00195=1646.982378,49.057475,-703.503460,-175.000000,-60.000000,5.000000
C00196=1668.661480,-55.096214,-703.503460,175.000000,-60.000000,21.078840
C00197=1777.657224,-199.418524,-703.503460,175.000000,-60.000000,53.043153
C00198=1791.068563,-208.991592,-738.729460,175.000000,-60.000000,55.918046
C00199=1791.068563,-208.991592,-738.729460,175.000000,-60.000000,55.918046
C00200=1668.786468,-55.419975,-738.729460,175.000000,-60.000000,21.139385
C00201=1646.687582,61.804278,-738.729460,175.000000,-60.000000,5.000000
C00202=1646.687582,61.804278,-738.729460,175.000000,-60.000000,5.000000
C00203=1646.687582,61.804278,-738.729460,175.000000,-60.000000,5.000000
C00204=1667.583496,178.306381,-738.729460,175.000000,-60.000000,-20.549596
C00205=1725.449160,276.406254,-738.729460,175.000000,-60.000000,-40.520123
///POSTYPE PULSE
///PULSE
EX00000=95232.0
EX00001=102400.0
EX00002=114688.0
EX00003=258048.0
EX00004=275456.0
EX00005=317440.0
///POSTYPE PULSE
///PULSE
EC00000=95232.0
EC00001=95232.0
EC00002=95232.0
EC00003=95232.0
EC00004=95232.0
EC00005=95232.0
EC00006=95232.0
EC00007=95232.0
EC00008=95232.0
EC00009=95232.0
EC00010=95232.0
EC00011=95232.0
EC00012=95232.0
EC00013=95232.0
EC00014=95232.0
EC00015=95232.0
EC00016=95232.0
EC00017=95232.0
EC00018=95232.0
EC00019=95232.0
EC00020=95232.0
EC00021=95232.0
EC00022=95232.0
EC00023=95232.0
EC00024=95232.0
EC00025=95232.0
EC00026=95232.0
EC00027=95232.0
EC00028=95232.0
EC00029=95232.0
EC00030=95232.0
EC00031=95232.0
EC00032=102400.0
EC00033=102400.0
EC00034=102400.0
EC00035=102400.0
EC00036=102400.0
EC00037=102400.0
EC00038=102400.0
EC00039=102400.0
EC00040=102400.0
EC00041=102400.0
EC00042=102400.0
EC00043=102400.0
EC00044=102400.0
EC00045=102400.0
EC00046=102400.0
EC00047=102400.0
EC00048=102400.0
EC00049=102400.0
EC00050=102400.0
EC00051=102400.0
EC00052=102400.0
EC00053=102400.0
EC00054=102400.0
EC00055=102400.0
EC00056=102400.0
EC00057=102400.0
EC00058=102400.0
EC00059=102400.0
EC00060=102400.0
EC00061=102400.0
EC00062=102400.0
EC00063=102400.0
EC00064=102400.0
EC00065=102400.0
EC00066=102400.0
EC00067=102400.0
EC00068=102400.0
EC00069=102400.0
EC00070=102400.0
EC00071=102400.0
EC00072=102400.0
EC00073=102400.0
EC00074=102400.0
EC00075=102400.0
EC00076=102400.0
EC00077=102400.0
EC00078=102400.0
EC00079=102400.0
EC00080=114688.0
EC00081=114688.0
EC00082=114688.0
EC00083=114688.0
EC00084=114688.0
EC00085=114688.0
EC00086=114688.0
EC00087=114688.0
EC00088=114688.0
EC00089=114688.0
EC00090=114688.0
EC00091=114688.0
EC00092=114688.0
EC00093=114688.0
EC00094=258048.0
EC00095=258048.0
EC00096=258048.0
EC00097=258048.0
EC00098=258048.0
EC00099=258048.0
EC00100=258048.0
EC00101=258048.0
EC00102=258048.0
EC00103=258048.0
EC00104=258048.0
EC00105=258048.0
EC00106=258048.0
EC00107=258048.0
EC00108=258048.0
EC00109=258048.0
EC00110=258048.0
EC00111=258048.0
EC00112=258048.0
EC00113=258048.0
EC00114=258048.0
EC00115=258048.0
EC00116=258048.0
EC00117=258048.0
EC00118=258048.0
EC00119=258048.0
EC00120=258048.0
EC00121=258048.0
EC00122=258048.0
EC00123=258048.0
EC00124=258048.0
EC00125=258048.0
EC00126=275456.0
EC00127=275456.0
EC00128=275456.0
EC00129=275456.0
EC00130=275456.0
EC00131=275456.0
EC00132=275456.0
EC00133=275456.0
EC00134=275456.0
EC00135=275456.0
EC00136=275456.0
EC00137=275456.0
EC00138=275456.0
EC00139=275456.0
EC00140=275456.0
EC00141=275456.0
EC00142=275456.0
EC00143=275456.0
EC00144=275456.0
EC00145=275456.0
EC00146=275456.0
EC00147=275456.0
EC00148=275456.0
EC00149=275456.0
EC00150=275456.0
EC00151=275456.0
EC00152=275456.0
EC00153=275456.0
EC00154=275456.0
EC00155=275456.0
EC00156=275456.0
EC00157=275456.0
EC00158=275456.0
EC00159=275456.0
EC00160=275456.0
EC00161=275456.0
EC00162=275456.0
EC00163=275456.0
EC00164=275456.0
EC00165=275456.0
EC00166=275456.0
EC00167=275456.0
EC00168=275456.0
EC00169=275456.0
EC00170=275456.0
EC00171=275456.0
EC00172=275456.0
EC00173=275456.0
EC00174=317440.0
EC00175=317440.0
EC00176=317440.0
EC00177=317440.0
EC00178=317440.0
EC00179=317440.0
EC00180=317440.0
EC00181=317440.0
EC00182=317440.0
EC00183=317440.0
EC00184=317440.0
EC00185=317440.0
EC00186=317440.0
EC00187=317440.0
EC00188=317440.0
EC00189=317440.0
EC00190=317440.0
EC00191=317440.0
EC00192=317440.0
EC00193=317440.0
EC00194=317440.0
EC00195=317440.0
EC00196=317440.0
EC00197=317440.0
EC00198=317440.0
EC00199=317440.0
EC00200=317440.0
EC00201=317440.0
EC00202=317440.0
EC00203=317440.0
EC00204=317440.0
EC00205=317440.0
//INST
///DATE 2023/08/16 15:41
///ATTR SC,RW,RJ
////FRAME BASE
///GROUP1 RB1,ST1
NOP
MOVJ P009 EX000 VJ=15.00
MOVJ C00000 EC00000 VJ=15.0
CALL JOB:SPYON
MOVC C00001 EC00001 V=150.0
MOVC C00002 EC00002 V=150.0
MOVC C00003 EC00003 V=150.0
MOVJ C00004 EC00004 VJ=15.0
MOVC C00005 EC00005 V=150.0
MOVC C00006 EC00006 V=150.0
MOVC C00007 EC00007 V=150.0
MOVJ C00008 EC00008 VJ=15.0
MOVC C00009 EC00009 V=150.0
MOVC C00010 EC00010 V=150.0
MOVC C00011 EC00011 V=150.0
MOVJ C00012 EC00012 VJ=15.0
MOVC C00013 EC00013 V=150.0
MOVC C00014 EC00014 V=150.0
MOVC C00015 EC00015 V=150.0
MOVJ C00016 EC00016 VJ=15.0
MOVC C00017 EC00017 V=150.0
MOVC C00018 EC00018 V=150.0
MOVC C00019 EC00019 V=150.0
MOVJ C00020 EC00020 VJ=15.0
MOVC C00021 EC00021 V=150.0
MOVC C00022 EC00022 V=150.0
MOVC C00023 EC00023 V=150.0
MOVJ C00024 EC00024 VJ=15.0
MOVC C00025 EC00025 V=150.0
MOVC C00026 EC00026 V=150.0
MOVC C00027 EC00027 V=150.0
MOVJ C00028 EC00028 VJ=15.0
MOVC C00029 EC00029 V=150.0
MOVC C00030 EC00030 V=150.0
MOVC C00031 EC00031 V=150.0
CALL JOB:SPYOF
MOVJ P009 VJ=15.00
MOVL P009 EX00000 V=150.0
MOVJ C00032 EC00032 VJ=15.0
CALL JOB:SPYON
MOVC C00033 EC00033 V=150.0
MOVC C00034 EC00034 V=150.0
MOVC C00035 EC00035 V=150.0
MOVJ C00036 EC00036 VJ=15.0
MOVC C00037 EC00037 V=150.0
MOVC C00038 EC00038 V=150.0
MOVC C00039 EC00039 V=150.0
MOVJ C00040 EC00040 VJ=15.0
MOVC C00041 EC00041 V=150.0
MOVC C00042 EC00042 V=150.0
MOVC C00043 EC00043 V=150.0
MOVJ C00044 EC00044 VJ=15.0
MOVC C00045 EC00045 V=150.0
MOVC C00046 EC00046 V=150.0
MOVC C00047 EC00047 V=150.0
MOVJ C00048 EC00048 VJ=15.0
MOVC C00049 EC00049 V=150.0
MOVC C00050 EC00050 V=150.0
MOVC C00051 EC00051 V=150.0
MOVJ C00052 EC00052 VJ=15.0
MOVC C00053 EC00053 V=150.0
MOVC C00054 EC00054 V=150.0
MOVC C00055 EC00055 V=150.0
MOVJ C00056 EC00056 VJ=15.0
MOVC C00057 EC00057 V=150.0
MOVC C00058 EC00058 V=150.0
MOVC C00059 EC00059 V=150.0
MOVJ C00060 EC00060 VJ=15.0
MOVC C00061 EC00061 V=150.0
MOVC C00062 EC00062 V=150.0
MOVC C00063 EC00063 V=150.0
MOVJ C00064 EC00064 VJ=15.0
MOVC C00065 EC00065 V=150.0
MOVC C00066 EC00066 V=150.0
MOVC C00067 EC00067 V=150.0
MOVJ C00068 EC00068 VJ=15.0
MOVC C00069 EC00069 V=150.0
MOVC C00070 EC00070 V=150.0
MOVC C00071 EC00071 V=150.0
MOVJ C00072 EC00072 VJ=15.0
MOVC C00073 EC00073 V=150.0
MOVC C00074 EC00074 V=150.0
MOVC C00075 EC00075 V=150.0
MOVJ C00076 EC00076 VJ=15.0
MOVC C00077 EC00077 V=150.0
MOVC C00078 EC00078 V=150.0
MOVC C00079 EC00079 V=150.0
CALL JOB:SPYOF
MOVJ P009 VJ=15.00
MOVL P009 EX00001 V=150.0
MOVJ C00080 EC00080 VJ=15.0
CALL JOB:SPYON
MOVL C00081 EC00081 V=150.0
MOVL C00082 EC00082 V=150.0
MOVL C00083 EC00083 V=150.0
MOVL C00084 EC00084 V=150.0
MOVL C00085 EC00085 V=150.0
MOVL C00086 EC00086 V=150.0
MOVL C00087 EC00087 V=150.0
MOVL C00088 EC00088 V=150.0
MOVL C00089 EC00089 V=150.0
MOVL C00090 EC00090 V=150.0
MOVL C00091 EC00091 V=150.0
MOVL C00092 EC00092 V=150.0
MOVL C00093 EC00093 V=150.0
CALL JOB:SPYOF
MOVJ P009 VJ=15.00
MOVL P009 EX00002 V=150.0
MOVJ C00094 EC00094 VJ=15.0
CALL JOB:SPYON
MOVC C00095 EC00095 V=150.0
MOVC C00096 EC00096 V=150.0
MOVC C00097 EC00097 V=150.0
MOVJ C00098 EC00098 VJ=15.0
MOVC C00099 EC00099 V=150.0
MOVC C00100 EC00100 V=150.0
MOVC C00101 EC00101 V=150.0
MOVJ C00102 EC00102 VJ=15.0
MOVC C00103 EC00103 V=150.0
MOVC C00104 EC00104 V=150.0
MOVC C00105 EC00105 V=150.0
MOVJ C00106 EC00106 VJ=15.0
MOVC C00107 EC00107 V=150.0
MOVC C00108 EC00108 V=150.0
MOVC C00109 EC00109 V=150.0
MOVJ C00110 EC00110 VJ=15.0
MOVC C00111 EC00111 V=150.0
MOVC C00112 EC00112 V=150.0
MOVC C00113 EC00113 V=150.0
MOVJ C00114 EC00114 VJ=15.0
MOVC C00115 EC00115 V=150.0
MOVC C00116 EC00116 V=150.0
MOVC C00117 EC00117 V=150.0
MOVJ C00118 EC00118 VJ=15.0
MOVC C00119 EC00119 V=150.0
MOVC C00120 EC00120 V=150.0
MOVC C00121 EC00121 V=150.0
MOVJ C00122 EC00122 VJ=15.0
MOVC C00123 EC00123 V=150.0
MOVC C00124 EC00124 V=150.0
MOVC C00125 EC00125 V=150.0
CALL JOB:SPYOF
MOVJ P009 VJ=15.00
MOVL P009 EX00003 V=150.0
MOVJ C00126 EC00126 VJ=15.0
CALL JOB:SPYON
MOVC C00127 EC00127 V=150.0
MOVC C00128 EC00128 V=150.0
MOVC C00129 EC00129 V=150.0
MOVJ C00130 EC00130 VJ=15.0
MOVC C00131 EC00131 V=150.0
MOVC C00132 EC00132 V=150.0
MOVC C00133 EC00133 V=150.0
MOVJ C00134 EC00134 VJ=15.0
MOVC C00135 EC00135 V=150.0
MOVC C00136 EC00136 V=150.0
MOVC C00137 EC00137 V=150.0
MOVJ C00138 EC00138 VJ=15.0
MOVC C00139 EC00139 V=150.0
MOVC C00140 EC00140 V=150.0
MOVC C00141 EC00141 V=150.0
MOVJ C00142 EC00142 VJ=15.0
MOVC C00143 EC00143 V=150.0
MOVC C00144 EC00144 V=150.0
MOVC C00145 EC00145 V=150.0
MOVJ C00146 EC00146 VJ=15.0
MOVC C00147 EC00147 V=150.0
MOVC C00148 EC00148 V=150.0
MOVC C00149 EC00149 V=150.0
MOVJ C00150 EC00150 VJ=15.0
MOVC C00151 EC00151 V=150.0
MOVC C00152 EC00152 V=150.0
MOVC C00153 EC00153 V=150.0
MOVJ C00154 EC00154 VJ=15.0
MOVC C00155 EC00155 V=150.0
MOVC C00156 EC00156 V=150.0
MOVC C00157 EC00157 V=150.0
MOVJ C00158 EC00158 VJ=15.0
MOVC C00159 EC00159 V=150.0
MOVC C00160 EC00160 V=150.0
MOVC C00161 EC00161 V=150.0
MOVJ C00162 EC00162 VJ=15.0
MOVC C00163 EC00163 V=150.0
MOVC C00164 EC00164 V=150.0
MOVC C00165 EC00165 V=150.0
MOVJ C00166 EC00166 VJ=15.0
MOVC C00167 EC00167 V=150.0
MOVC C00168 EC00168 V=150.0
MOVC C00169 EC00169 V=150.0
MOVJ C00170 EC00170 VJ=15.0
MOVC C00171 EC00171 V=150.0
MOVC C00172 EC00172 V=150.0
MOVC C00173 EC00173 V=150.0
CALL JOB:SPYOF
MOVJ P009 VJ=15.00
MOVL P009 EX00004 V=150.0
MOVJ C00174 EC00174 VJ=15.0
CALL JOB:SPYON
MOVC C00175 EC00175 V=150.0
MOVC C00176 EC00176 V=150.0
MOVC C00177 EC00177 V=150.0
MOVJ C00178 EC00178 VJ=15.0
MOVC C00179 EC00179 V=150.0
MOVC C00180 EC00180 V=150.0
MOVC C00181 EC00181 V=150.0
MOVJ C00182 EC00182 VJ=15.0
MOVC C00183 EC00183 V=150.0
MOVC C00184 EC00184 V=150.0
MOVC C00185 EC00185 V=150.0
MOVJ C00186 EC00186 VJ=15.0
MOVC C00187 EC00187 V=150.0
MOVC C00188 EC00188 V=150.0
MOVC C00189 EC00189 V=150.0
MOVJ C00190 EC00190 VJ=15.0
MOVC C00191 EC00191 V=150.0
MOVC C00192 EC00192 V=150.0
MOVC C00193 EC00193 V=150.0
MOVJ C00194 EC00194 VJ=15.0
MOVC C00195 EC00195 V=150.0
MOVC C00196 EC00196 V=150.0
MOVC C00197 EC00197 V=150.0
MOVJ C00198 EC00198 VJ=15.0
MOVC C00199 EC00199 V=150.0
MOVC C00200 EC00200 V=150.0
MOVC C00201 EC00201 V=150.0
MOVJ C00202 EC00202 VJ=15.0
MOVC C00203 EC00203 V=150.0
MOVC C00204 EC00204 V=150.0
MOVC C00205 EC00205 V=150.0
CALL JOB:SPYOF
MOVJ P009 VJ=15.00
MOVL P009 EX00005 V=150.0
END
