/JOB
//NAME clamp_cylinder_program
//POS
///NPOS 16,0,16,0,0,0
///TOOL 0
///POSTYPE BASE
///RECTAN
///RCONF 0,0,0,0,0,0,0,0,0,0,0,0,0,0,0,0,0,0,0,0,0,0,0,0
C00000=2050.299744,225.942416,-740.085502,-175.000000,-60.000000,-90.509597
C00001=1879.749389,225.942412,-732.486861,-175.000000,-60.000000,-90.509597
C00002=1882.894370,141.769976,-659.710359,175.000000,-37.362210,-93.345308
C00003=2052.543896,141.769980,-667.268865,175.000000,-37.362210,-93.345308
C00004=2054.076194,-35.983996,-627.997107,-167.623892,5.000000,5.000000
C00005=1883.404279,-35.984000,-620.393050,-167.623892,5.000000,5.000000
C00006=1884.846455,-139.331741,-675.492797,175.000000,-43.732470,92.669224
C00007=2048.729742,-139.331738,-682.794396,175.000000,-43.732470,92.669224
C00008=2027.467621,-205.866718,-743.517445,175.000000,-60.000000,90.333745
C00009=1891.958064,-205.866721,-737.479999,175.000000,-60.000000,90.333745
C00010=1740.811944,-16.201702,-729.516736,-161.814843,-20.552140,-6.578391
C00011=2025.275819,-16.201427,-612.134005,-161.814843,-20.552140,-6.578391
C00012=2053.680698,162.410383,-650.455252,175.000000,-49.021663,-68.995922
C00013=1748.866913,196.724170,-782.562321,175.000000,-60.000000,-68.995922
C00014=1911.248648,214.913707,-776.714941,175.000000,-60.000000,-95.148534
C00015=2121.167775,214.913910,-690.092763,175.000000,-60.000000,-95.148534
///POSTYPE PULSE
///PULSE
EX00000=3072.0
EX00001=97280.0
///POSTYPE PULSE
///PULSE
EC00000=3072.0
EC00001=3072.0
EC00002=3072.0
EC00003=3072.0
EC00004=3072.0
EC00005=3072.0
EC00006=3072.0
EC00007=3072.0
EC00008=3072.0
EC00009=3072.0
EC00010=97280.0
EC00011=97280.0
EC00012=97280.0
EC00013=97280.0
EC00014=97280.0
EC00015=97280.0
//INST
///DATE 2023/08/16 17:15
///ATTR SC,RW,RJ
////FRAME BASE
///GROUP1 RB1,ST1
NOP
MOVJ P009 EX000 VJ=15.00
MOVJ C00000 EC00000 VJ=15.0
CALL JOB:SPYON
MOVL C00001 EC00001 V=150.0
MOVL C00002 EC00002 V=150.0
MOVL C00003 EC00003 V=150.0
MOVL C00004 EC00004 V=150.0
MOVL C00005 EC00005 V=150.0
MOVL C00006 EC00006 V=150.0
MOVL C00007 EC00007 V=150.0
MOVL C00008 EC00008 V=150.0
MOVL C00009 EC00009 V=150.0
CALL JOB:SPYOF
MOVJ P009 VJ=15.00
MOVL P009 EX00000 V=150.0
MOVJ C00010 EC00010 VJ=15.0
CALL JOB:SPYON
MOVL C00011 EC00011 V=150.0
MOVL C00012 EC00012 V=150.0
MOVL C00013 EC00013 V=150.0
MOVL C00014 EC00014 V=150.0
MOVL C00015 EC00015 V=150.0
CALL JOB:SPYOF
MOVJ P009 VJ=15.00
MOVL P009 EX00001 V=150.0
END
