/JOB
//NAME MALBEN4
//POS
///NPOS 34,0,34,0,0,0
///TOOL 0
///POSTYPE BASE
///RECTAN
///RCONF 1,0,0,0,0,0,0,0,0,0,0,0,0,0,0,0,0,0,0,0,0,0,0,0
C00000=2137.312084,-404.380452,-169.043680,175.000000,5.000000,5.000000
C00001=2137.312084,480.563343,-169.043680,175.000000,5.000000,5.000000
C00002=2038.089252,480.435732,-171.379247,175.000000,5.000000,5.000000
C00003=2038.089252,-407.599887,-171.379247,175.000000,5.000000,5.000000
C00004=1887.868498,-405.573743,-176.180983,175.000000,5.000000,5.000000
C00005=1887.868498,479.135112,-176.180983,175.000000,5.000000,5.000000
C00006=1532.526015,463.299794,-443.172680,175.000000,-89.999999,5.000000
C00007=1532.526015,-421.683721,-443.172680,175.000000,-89.999999,5.000000
C00008=1527.031081,-418.023562,-593.172680,175.000000,-89.999999,5.000000
C00009=1527.031081,458.884110,-593.172680,175.000000,-89.999999,5.000000
C00010=1521.095808,453.856146,-598.835113,180.000000,-60.000000,0.000000
C00011=1521.095808,-428.840087,-598.835113,180.000000,-60.000000,0.000000
C00012=1521.095808,-428.840087,-598.835113,180.000000,-60.000000,0.000000
C00013=1439.297420,327.341296,-457.526138,175.000000,-89.999999,5.000000
C00014=1439.297420,-311.005522,-457.526138,175.000000,-89.999999,5.000000
C00015=1442.273122,-312.039487,-607.526138,175.000000,-89.999999,5.000000
C00016=1442.273122,327.601422,-607.526138,175.000000,-89.999999,5.000000
C00017=1446.673472,319.616834,-613.188571,180.000000,-60.000000,0.000000
C00018=1446.673472,-317.637739,-613.188571,180.000000,-60.000000,0.000000
C00019=1446.673472,-317.637739,-613.188571,180.000000,-60.000000,0.000000
C00020=1571.486833,-399.943468,-462.816852,175.000000,-89.999999,5.000000
C00021=1571.486833,479.683758,-462.816852,175.000000,-89.999999,5.000000
C00022=1576.350209,484.669890,-612.816852,175.000000,-89.999999,5.000000
C00023=1576.350209,-395.765682,-612.816852,175.000000,-89.999999,5.000000
C00024=1580.832693,-395.561588,-618.479285,180.000000,-60.000000,0.000000
C00025=1580.832693,482.294294,-618.479285,180.000000,-60.000000,0.000000
C00026=1580.832693,482.294294,-618.479285,180.000000,-60.000000,0.000000
C00027=1420.679339,-271.851818,-454.303262,175.000000,-89.999999,5.000000
C00028=1420.679339,373.678741,-454.303262,175.000000,-89.999999,5.000000
C00029=1419.137986,376.728895,-604.303262,175.000000,-89.999999,5.000000
C00030=1419.137986,-271.147630,-604.303262,175.000000,-89.999999,5.000000
C00031=1417.790577,-265.835943,-609.965695,180.000000,-60.000000,0.000000
C00032=1417.790577,383.270992,-609.965695,180.000000,-60.000000,0.000000
C00033=1417.790577,383.270992,-609.965695,180.000000,-60.000000,0.000000
///POSTYPE PULSE
///PULSE
EC00000=0
EC00001=0
EC00002=0
EC00003=0
EC00004=0
EC00005=0
EC00006=0
EC00007=0
EC00008=0
EC00009=0
EC00010=0
EC00011=0
EC00012=92160
EC00013=92160
EC00014=92160
EC00015=92160
EC00016=92160
EC00017=92160
EC00018=92160
EC00019=184320
EC00020=184320
EC00021=184320
EC00022=184320
EC00023=184320
EC00024=184320
EC00025=184320
EC00026=276480
EC00027=276480
EC00028=276480
EC00029=276480
EC00030=276480
EC00031=276480
EC00032=276480
EC00033=368640
//INST
///DATE 2023/03/19 16:00
///ATTR SC,RW,RJ
////FRAME BASE
///GROUP1 RB1,ST1
NOP
MOVJ P009 EX000 VJ=15.00
MOVJ C00000 EC00000 VJ=15.0
CALL JOB:SPYON
MOVL C00001 EC00001 V=600.0
MOVL C00002 EC00002 V=600.0
MOVL C00003 EC00003 V=600.0
MOVL C00004 EC00004 V=600.0
MOVL C00005 EC00005 V=600.0
CALL JOB:SPYOF
MOVJ P009 VJ=15.00
MOVJ C00006 EC00006 VJ=15.0
CALL JOB:SPYON
MOVL C00007 EC00007 V=600.0
MOVL C00008 EC00008 V=600.0
MOVL C00009 EC00009 V=600.0
MOVL C00010 EC00010 V=600.0
MOVL C00011 EC00011 V=600.0
CALL JOB:SPYOF
MOVJ P009 VJ=15.00
MOVL C00012 EC00012 V=600.0
MOVJ C00013 EC00013 VJ=15.0
CALL JOB:SPYON
MOVL C00014 EC00014 V=600.0
MOVL C00015 EC00015 V=600.0
MOVL C00016 EC00016 V=600.0
MOVL C00017 EC00017 V=600.0
MOVL C00018 EC00018 V=600.0
CALL JOB:SPYOF
MOVJ P009 VJ=15.00
MOVL C00019 EC00019 V=600.0
MOVJ C00020 EC00020 VJ=15.0
CALL JOB:SPYON
MOVL C00021 EC00021 V=600.0
MOVL C00022 EC00022 V=600.0
MOVL C00023 EC00023 V=600.0
MOVL C00024 EC00024 V=600.0
MOVL C00025 EC00025 V=600.0
CALL JOB:SPYOF
MOVJ P009 VJ=15.00
MOVL C00026 EC00026 V=600.0
MOVJ C00027 EC00027 VJ=15.0
CALL JOB:SPYON
MOVL C00028 EC00028 V=600.0
MOVL C00029 EC00029 V=600.0
MOVL C00030 EC00030 V=600.0
MOVL C00031 EC00031 V=600.0
MOVL C00032 EC00032 V=600.0
CALL JOB:SPYOF
MOVJ P009 VJ=15.00
MOVL C00033 EC00033 V=600.0
END
