/JOB
//NAME MALBEN3
//POS
///NPOS 86,0,86,0,0,0
///TOOL 0
///POSTYPE BASE
///RECTAN
///RCONF 1,0,0,0,0,0,0,0,0,0,0,0,0,0,0,0,0,0,0,0,0,0,0,0
C00000=2140.098846,-401.360527,-268.977867,175.000000,5.000000,5.000000
C00001=2140.098846,483.583268,-268.977867,175.000000,5.000000,5.000000
C00002=2090.098846,483.455657,-270.030682,175.000000,5.000000,5.000000
C00003=2090.098846,-401.273904,-270.030682,175.000000,5.000000,5.000000
C00004=2040.098846,-401.141645,-271.239065,175.000000,5.000000,5.000000
C00005=2040.098846,482.568294,-271.239065,175.000000,5.000000,5.000000
C00006=1990.098846,483.262550,-272.654426,175.000000,5.000000,5.000000
C00007=1990.098846,-404.579963,-272.654426,175.000000,5.000000,5.000000
C00008=1940.098846,-401.886607,-274.425561,175.000000,5.000000,5.000000
C00009=1940.098846,482.155037,-274.425561,175.000000,5.000000,5.000000
C00010=1890.098846,478.954194,-276.250556,175.000000,5.000000,5.000000
C00011=1890.098846,-402.510718,-276.250556,175.000000,5.000000,5.000000
C00012=1839.960348,-402.553819,-277.742679,175.000000,5.000000,5.000000
C00013=1839.960348,478.937292,-277.742679,175.000000,5.000000,5.000000
C00014=1634.901204,421.672710,-419.637079,175.000000,-89.999999,5.000000
C00015=1634.901204,-402.743251,-419.637079,175.000000,-89.999999,5.000000
C00016=1633.143365,-408.452794,-450.789996,175.000000,-89.999999,5.000000
C00017=1633.143365,464.348503,-450.789996,175.000000,-89.999999,5.000000
C00018=1631.374792,465.131494,-500.789996,175.000000,-89.999999,5.000000
C00019=1631.374792,-419.852021,-500.789996,175.000000,-89.999999,5.000000
C00020=1629.352278,-413.747390,-550.789996,175.000000,-89.999999,5.000000
C00021=1629.352278,459.427867,-550.789996,175.000000,-89.999999,5.000000
C00022=1626.911421,460.715810,-600.789996,175.000000,-89.999999,5.000000
C00023=1626.911421,-416.191862,-600.789996,175.000000,-89.999999,5.000000
C00024=1624.499711,-416.100802,-650.789996,175.000000,-89.999999,5.000000
C00025=1624.499711,456.978747,-650.789996,175.000000,-89.999999,5.000000
C00026=1622.503700,454.505541,-700.789996,175.000000,-89.999999,5.000000
C00027=1622.503700,-418.968884,-700.789996,175.000000,-89.999999,5.000000
C00028=1620.879631,-427.008387,-664.187456,180.000000,-60.000000,0.000000
C00029=1620.879631,455.687846,-664.187456,180.000000,-60.000000,0.000000
C00030=1619.373612,455.631224,-714.187456,180.000000,-60.000000,0.000000
C00031=1619.373612,-422.309169,-714.187456,180.000000,-60.000000,0.000000
C00032=1619.373612,-422.309169,-714.187456,180.000000,-60.000000,0.000000
C00033=1538.648794,327.998889,-455.742549,175.000000,-89.999999,5.000000
C00034=1538.648794,-307.231535,-455.742549,175.000000,-89.999999,5.000000
C00035=1539.732648,-310.347929,-505.742549,175.000000,-89.999999,5.000000
C00036=1539.732648,327.893985,-505.742549,175.000000,-89.999999,5.000000
C00037=1540.970995,328.259015,-555.742549,175.000000,-89.999999,5.000000
C00038=1540.970995,-310.206068,-555.742549,175.000000,-89.999999,5.000000
C00039=1542.330522,-310.096048,-605.742549,175.000000,-89.999999,5.000000
C00040=1542.330522,320.907258,-605.742549,175.000000,-89.999999,5.000000
C00041=1543.566552,323.502548,-655.742549,175.000000,-89.999999,5.000000
C00042=1543.566552,-311.381894,-655.742549,175.000000,-89.999999,5.000000
C00043=1545.116802,-315.143344,-705.742549,175.000000,-89.999999,5.000000
C00044=1545.116802,319.629656,-705.742549,175.000000,-89.999999,5.000000
C00045=1546.765127,320.274427,-669.140009,180.000000,-60.000000,0.000000
C00046=1546.765127,-315.233748,-669.140009,180.000000,-60.000000,0.000000
C00047=1548.154276,-316.980146,-719.140009,180.000000,-60.000000,0.000000
C00048=1548.154276,319.087230,-719.140009,180.000000,-60.000000,0.000000
C00049=1548.154276,319.087230,-719.140009,180.000000,-60.000000,0.000000
C00050=1670.216260,-398.864637,-458.454531,175.000000,-89.999999,5.000000
C00051=1670.216260,480.762590,-458.454531,175.000000,-89.999999,5.000000
C00052=1672.445834,477.562170,-508.454531,175.000000,-89.999999,5.000000
C00053=1672.445834,-397.223016,-508.454531,175.000000,-89.999999,5.000000
C00054=1674.551071,-394.686850,-558.454531,175.000000,-89.999999,5.000000
C00055=1674.551071,477.382162,-558.454531,175.000000,-89.999999,5.000000
C00056=1676.296132,485.126723,-608.454531,175.000000,-89.999999,5.000000
C00057=1676.296132,-393.486376,-608.454531,175.000000,-89.999999,5.000000
C00058=1677.899373,-392.919731,-658.454531,175.000000,-89.999999,5.000000
C00059=1677.899373,485.748721,-658.454531,175.000000,-89.999999,5.000000
C00060=1679.509340,477.056373,-708.454531,175.000000,-89.999999,5.000000
C00061=1679.509340,-394.482757,-708.454531,175.000000,-89.999999,5.000000
C00062=1680.701223,-393.512151,-671.851991,180.000000,-60.000000,0.000000
C00063=1680.701223,481.956726,-671.851991,180.000000,-60.000000,0.000000
C00064=1682.129338,483.373126,-721.851991,180.000000,-60.000000,0.000000
C00065=1682.129338,-384.577680,-721.851991,180.000000,-60.000000,0.000000
C00066=1682.129338,-384.577680,-721.851991,180.000000,-60.000000,0.000000
C00067=1520.388453,-252.750206,-437.009439,175.000000,-89.999999,5.000000
C00068=1520.388453,371.413636,-437.009439,175.000000,-89.999999,5.000000
C00069=1521.796674,373.507436,-468.529873,175.000000,-89.999999,5.000000
C00070=1521.796674,-264.209678,-468.529873,175.000000,-89.999999,5.000000
C00071=1521.398989,-268.886828,-518.529873,175.000000,-89.999999,5.000000
C00072=1521.398989,376.643731,-518.529873,175.000000,-89.999999,5.000000
C00073=1521.017809,377.744504,-568.529873,175.000000,-89.999999,5.000000
C00074=1521.017809,-268.182640,-568.529873,175.000000,-89.999999,5.000000
C00075=1519.841844,-259.271265,-618.529873,175.000000,-89.999999,5.000000
C00076=1519.841844,378.499864,-618.529873,175.000000,-89.999999,5.000000
C00077=1519.405383,379.693885,-668.529873,175.000000,-89.999999,5.000000
C00078=1519.405383,-263.625745,-668.529873,175.000000,-89.999999,5.000000
C00079=1519.161529,-262.870953,-718.529873,175.000000,-89.999999,5.000000
C00080=1519.161529,378.578613,-718.529873,175.000000,-89.999999,5.000000
C00081=1518.693918,379.125872,-681.927332,180.000000,-60.000000,0.000000
C00082=1518.693918,-258.984700,-681.927332,180.000000,-60.000000,0.000000
C00083=1518.160969,-259.608718,-731.927332,180.000000,-60.000000,0.000000
C00084=1518.160969,386.235982,-731.927332,180.000000,-60.000000,0.000000
C00085=1518.160969,386.235982,-731.927332,180.000000,-60.000000,0.000000
///POSTYPE PULSE
///PULSE
EC00000=0
EC00001=0
EC00002=0
EC00003=0
EC00004=0
EC00005=0
EC00006=0
EC00007=0
EC00008=0
EC00009=0
EC00010=0
EC00011=0
EC00012=0
EC00013=0
EC00014=0
EC00015=0
EC00016=0
EC00017=0
EC00018=0
EC00019=0
EC00020=0
EC00021=0
EC00022=0
EC00023=0
EC00024=0
EC00025=0
EC00026=0
EC00027=0
EC00028=0
EC00029=0
EC00030=0
EC00031=0
EC00032=92160
EC00033=92160
EC00034=92160
EC00035=92160
EC00036=92160
EC00037=92160
EC00038=92160
EC00039=92160
EC00040=92160
EC00041=92160
EC00042=92160
EC00043=92160
EC00044=92160
EC00045=92160
EC00046=92160
EC00047=92160
EC00048=92160
EC00049=184320
EC00050=184320
EC00051=184320
EC00052=184320
EC00053=184320
EC00054=184320
EC00055=184320
EC00056=184320
EC00057=184320
EC00058=184320
EC00059=184320
EC00060=184320
EC00061=184320
EC00062=184320
EC00063=184320
EC00064=184320
EC00065=184320
EC00066=276480
EC00067=276480
EC00068=276480
EC00069=276480
EC00070=276480
EC00071=276480
EC00072=276480
EC00073=276480
EC00074=276480
EC00075=276480
EC00076=276480
EC00077=276480
EC00078=276480
EC00079=276480
EC00080=276480
EC00081=276480
EC00082=276480
EC00083=276480
EC00084=276480
EC00085=368640
//INST
///DATE 2023/03/14 16:30
///ATTR SC,RW,RJ
////FRAME BASE
///GROUP1 RB1,ST1
NOP
MOVJ P009 EX000 VJ=15.00
MOVJ C00000 EC00000 VJ=15.0
CALL JOB:SPYON
MOVL C00001 EC00001 V=150.0
MOVL C00002 EC00002 V=150.0
MOVL C00003 EC00003 V=150.0
MOVL C00004 EC00004 V=150.0
MOVL C00005 EC00005 V=150.0
MOVL C00006 EC00006 V=150.0
MOVL C00007 EC00007 V=150.0
MOVL C00008 EC00008 V=150.0
MOVL C00009 EC00009 V=150.0
MOVL C00010 EC00010 V=150.0
MOVL C00011 EC00011 V=150.0
MOVL C00012 EC00012 V=150.0
MOVL C00013 EC00013 V=150.0
CALL JOB:SPYOF
MOVJ P009 VJ=15.00
MOVJ C00014 EC00014 VJ=15.0
CALL JOB:SPYON
MOVL C00015 EC00015 V=150.0
MOVL C00016 EC00016 V=150.0
MOVL C00017 EC00017 V=150.0
MOVL C00018 EC00018 V=150.0
MOVL C00019 EC00019 V=150.0
MOVL C00020 EC00020 V=150.0
MOVL C00021 EC00021 V=150.0
MOVL C00022 EC00022 V=150.0
MOVL C00023 EC00023 V=150.0
MOVL C00024 EC00024 V=150.0
MOVL C00025 EC00025 V=150.0
MOVL C00026 EC00026 V=150.0
MOVL C00027 EC00027 V=150.0
MOVL C00028 EC00028 V=150.0
MOVL C00029 EC00029 V=150.0
MOVL C00030 EC00030 V=150.0
MOVL C00031 EC00031 V=150.0
CALL JOB:SPYOF
MOVJ P009 VJ=15.00
MOVL C00032 EC00032 V=150.0
MOVJ C00033 EC00033 VJ=15.0
CALL JOB:SPYON
MOVL C00034 EC00034 V=150.0
MOVL C00035 EC00035 V=150.0
MOVL C00036 EC00036 V=150.0
MOVL C00037 EC00037 V=150.0
MOVL C00038 EC00038 V=150.0
MOVL C00039 EC00039 V=150.0
MOVL C00040 EC00040 V=150.0
MOVL C00041 EC00041 V=150.0
MOVL C00042 EC00042 V=150.0
MOVL C00043 EC00043 V=150.0
MOVL C00044 EC00044 V=150.0
MOVL C00045 EC00045 V=150.0
MOVL C00046 EC00046 V=150.0
MOVL C00047 EC00047 V=150.0
MOVL C00048 EC00048 V=150.0
CALL JOB:SPYOF
MOVJ P009 VJ=15.00
MOVL C00049 EC00049 V=150.0
MOVJ C00050 EC00050 VJ=15.0
CALL JOB:SPYON
MOVL C00051 EC00051 V=150.0
MOVL C00052 EC00052 V=150.0
MOVL C00053 EC00053 V=150.0
MOVL C00054 EC00054 V=150.0
MOVL C00055 EC00055 V=150.0
MOVL C00056 EC00056 V=150.0
MOVL C00057 EC00057 V=150.0
MOVL C00058 EC00058 V=150.0
MOVL C00059 EC00059 V=150.0
MOVL C00060 EC00060 V=150.0
MOVL C00061 EC00061 V=150.0
MOVL C00062 EC00062 V=150.0
MOVL C00063 EC00063 V=150.0
MOVL C00064 EC00064 V=150.0
MOVL C00065 EC00065 V=150.0
CALL JOB:SPYOF
MOVJ P009 VJ=15.00
MOVL C00066 EC00066 V=150.0
MOVJ C00067 EC00067 VJ=15.0
CALL JOB:SPYON
MOVL C00068 EC00068 V=150.0
MOVL C00069 EC00069 V=150.0
MOVL C00070 EC00070 V=150.0
MOVL C00071 EC00071 V=150.0
MOVL C00072 EC00072 V=150.0
MOVL C00073 EC00073 V=150.0
MOVL C00074 EC00074 V=150.0
MOVL C00075 EC00075 V=150.0
MOVL C00076 EC00076 V=150.0
MOVL C00077 EC00077 V=150.0
MOVL C00078 EC00078 V=150.0
MOVL C00079 EC00079 V=150.0
MOVL C00080 EC00080 V=150.0
MOVL C00081 EC00081 V=150.0
MOVL C00082 EC00082 V=150.0
MOVL C00083 EC00083 V=150.0
MOVL C00084 EC00084 V=150.0
CALL JOB:SPYOF
MOVJ P009 VJ=15.00
MOVL C00085 EC00085 V=150.0
END
