/JOB
//NAME mataf_small_cylinder_program
//POS
///NPOS 128,0,128,0,0,0
///TOOL 0
///POSTYPE BASE
///RECTAN
///RCONF 0,0,0,0,0,0,0,0,0,0,0,0,0,0,0,0,0,0,0,0,0,0,0,0
C00000=1926.792239,320.989558,-513.873139,5.000000,-88.497026,105.640886
C00001=1926.792239,320.989558,-513.873139,5.000000,-88.497026,105.640886
C00002=1759.751815,176.941281,-491.974196,175.000000,-86.688580,-24.257494
C00003=1750.964846,-12.222728,-481.467990,-175.000000,-84.372600,18.475573
C00004=1750.964846,-12.222728,-481.467990,-175.000000,-84.372600,18.475573
C00005=1750.964846,-12.222728,-481.467990,-175.000000,-84.372600,18.475573
C00006=1867.503092,-155.101034,-484.208871,175.000000,-84.977533,60.077448
C00007=2066.301315,-181.265779,-500.092118,175.000000,-88.474188,105.406001
C00008=2062.601003,-183.429237,-541.473339,-175.000000,-88.471690,105.380301
C00009=2062.601003,-183.429237,-541.473339,-175.000000,-88.471690,105.380301
C00010=1862.044637,-156.135749,-525.495848,175.000000,-84.954236,59.598884
C00011=1742.958256,0.157464,-523.225159,175.000000,-84.453102,15.125351
C00012=1742.958256,0.157464,-523.225159,175.000000,-84.453102,15.125351
C00013=1742.958256,0.157464,-523.225159,175.000000,-84.453102,15.125351
C00014=1767.783111,197.779967,-535.557201,175.000000,-87.170627,-29.924968
C00015=1923.293273,318.881371,-555.274658,5.000000,-88.495061,105.620687
C00016=1918.668387,316.233916,-604.892108,-5.000000,-88.502202,105.694079
C00017=1918.668387,316.233916,-604.892108,-5.000000,-88.502202,105.694079
C00018=1769.476642,205.215468,-586.241720,-175.000000,-87.398237,-32.489229
C00019=1738.444982,-1.626761,-572.896751,175.000000,-84.457884,14.948290
C00020=1738.444982,-1.626761,-572.896751,175.000000,-84.457884,14.948290
C00021=1738.444982,-1.626761,-572.896751,175.000000,-84.457884,14.948290
C00022=1860.973642,-160.577750,-575.328891,-175.000000,-84.994631,60.424179
C00023=2058.791218,-185.852536,-591.172985,-175.000000,-88.482619,105.492745
C00024=2054.640994,-188.381443,-641.303449,175.000000,-88.486896,105.536728
C00025=2054.640994,-188.381443,-641.303449,175.000000,-88.486896,105.536728
C00026=1861.163120,-165.698537,-625.701986,175.000000,-85.052443,61.570181
C00027=1732.145811,3.505486,-623.235608,175.000000,-84.508187,13.191222
C00028=1732.145811,3.505486,-623.235608,175.000000,-84.508187,13.191222
C00029=1732.145811,3.505486,-623.235608,175.000000,-84.508187,13.191222
C00030=1765.028248,202.466627,-636.335009,175.000000,-87.394339,-32.445822
C00031=1914.629087,313.736328,-655.033799,-5.000000,-88.495457,105.624759
C00032=1909.644823,311.012824,-703.716423,-5.000000,-88.512298,105.797796
C00033=1909.644823,311.012824,-703.716423,-5.000000,-88.512298,105.797796
C00034=1764.833217,206.154348,-685.763014,175.000000,-87.541449,-34.072572
C00035=1726.560715,7.034321,-672.188237,-175.000000,-84.550882,11.824229
C00036=1726.560715,7.034321,-672.188237,-175.000000,-84.550882,11.824229
C00037=1726.560715,7.034321,-672.188237,-175.000000,-84.550882,11.824229
C00038=1850.101177,-164.335862,-674.068314,-175.000000,-84.965772,59.836769
C00039=2050.181564,-190.957859,-690.039140,175.000000,-88.481721,105.483509
C00040=2046.151771,-193.520318,-657.992154,175.000000,-88.489233,105.560765
C00041=2046.151771,-193.520318,-657.992154,175.000000,-88.489233,105.560765
C00042=1833.613480,-159.384724,-723.975023,-175.000000,-84.820167,56.688003
C00043=1719.693750,17.820960,-723.229444,-175.000000,-84.655629,8.817408
C00044=1719.693750,17.820960,-723.229444,-175.000000,-84.655629,8.817408
C00045=1719.693750,17.820960,-723.229444,-175.000000,-84.655629,8.817408
C00046=1771.319996,218.724207,-656.895252,175.000000,-87.921359,-38.177753
C00047=1906.052198,308.681159,-663.820679,5.000000,-88.494444,105.614341
C00048=1901.420356,306.003087,-714.493469,-5.000000,-88.499752,105.668900
C00049=1901.420356,306.003087,-714.493469,-5.000000,-88.499752,105.668900
C00050=1849.595245,285.300052,-712.133421,-5.000000,-89.721131,117.957238
C00051=1775.433984,226.407530,-708.116118,175.000000,-88.199815,-41.113517
C00052=1775.433984,226.407530,-708.116118,175.000000,-88.199815,-41.113517
C00053=1775.433984,226.407530,-708.116118,175.000000,-88.199815,-41.113517
C00054=1775.682489,-115.949705,-700.665304,175.000000,-84.335458,41.074088
C00055=2041.951628,-196.078238,-708.683454,175.000000,-88.493506,105.604694
C00056=2030.200321,-200.002560,-738.685237,175.000000,-88.293198,103.534676
C00057=2030.200321,-200.002560,-738.685237,175.000000,-88.293198,103.534676
C00058=1803.130480,254.420748,-740.267555,175.000000,-89.112186,-50.435006
C00059=1811.829389,261.310007,-740.738408,-175.000000,-89.355851,-52.873790
C00060=1811.829389,261.310007,-740.738408,-175.000000,-89.355851,-52.873790
C00061=1811.829389,261.310007,-740.738408,-175.000000,-89.355851,-52.873790
C00062=1880.519248,298.599461,-744.082421,5.000000,-88.913707,109.884639
C00063=1895.827039,303.591701,-744.754838,180.000000,-60.000000,-73.654610
C00064=1894.269876,285.212114,-493.595254,-175.000000,-88.502890,-77.358615
C00065=1894.269876,285.212114,-493.595254,-175.000000,-88.502890,-77.358615
C00066=1754.252954,201.346299,-510.025194,5.000000,-87.885916,139.140245
C00067=1691.642526,28.130155,-523.725387,5.000000,-84.868869,-175.000000
C00068=1691.642526,28.130155,-523.725387,5.000000,-84.868869,-175.000000
C00069=1691.642526,28.130155,-523.725387,5.000000,-84.868869,-175.000000
C00070=1787.686273,-170.670489,-524.455086,5.000000,-84.707849,-129.068851
C00071=2007.241620,-223.670713,-507.329408,5.000000,-88.478627,-77.608090
C00072=2010.760344,-221.831719,-546.509559,5.000000,-88.479061,-77.603621
C00073=2010.760344,-221.831719,-546.509559,5.000000,-88.479061,-77.603621
C00074=1814.278392,-185.701647,-562.364485,-5.000000,-84.988671,-122.756026
C00075=1700.674189,-19.821820,-564.744130,-5.000000,-84.463509,-168.317296
C00076=1700.674189,-19.821820,-564.744130,-5.000000,-84.463509,-168.317296
C00077=1700.674189,-19.821820,-564.744130,-5.000000,-84.463509,-168.317296
C00078=1737.322825,175.963396,-552.305842,5.000000,-87.204375,146.631071
C00079=1898.132498,287.127137,-532.741135,175.000000,-88.494922,-77.440509
C00080=1901.806187,289.277174,-582.229121,-175.000000,-88.511112,-77.274142
C00081=1901.806187,289.277174,-582.229121,-175.000000,-88.511112,-77.274142
C00082=1743.234548,180.548745,-601.479960,5.000000,-87.257225,146.032279
C00083=1704.038984,-12.239324,-614.005387,5.000000,-84.497306,-169.503301
C00084=1704.038984,-12.239324,-614.005387,5.000000,-84.497306,-169.503301
C00085=1704.038984,-12.239324,-614.005387,5.000000,-84.497306,-169.503301
C00086=1827.000005,-188.565757,-611.279202,5.000000,-85.098876,-120.596374
C00087=2015.613948,-219.421768,-595.880008,-5.000000,-88.488709,-77.504389
C00088=2020.063953,-217.078371,-646.082129,5.000000,-88.487995,-77.511728
C00089=2020.063953,-217.078371,-646.082129,5.000000,-88.487995,-77.511728
C00090=1818.951295,-178.236274,-662.223627,5.000000,-84.934416,-123.873823
C00091=1708.864694,-11.677359,-664.257351,5.000000,-84.485585,-169.101234
C00092=1708.864694,-11.677359,-664.257351,5.000000,-84.485585,-169.101234
C00093=1708.864694,-11.677359,-664.257351,5.000000,-84.485585,-169.101234
C00094=1748.424377,183.953105,-651.566344,5.000000,-87.281974,145.753068
C00095=1906.748067,291.729766,-632.382203,175.000000,-88.501046,-77.377564
C00096=1910.664952,293.932656,-681.818862,175.000000,-88.511858,-77.266480
C00097=1910.664952,293.932656,-681.818862,175.000000,-88.511858,-77.266480
C00098=1753.912563,187.850862,-700.783338,5.000000,-87.319479,145.331326
C00099=1714.059684,-13.226011,-713.755496,5.000000,-84.461151,-168.231322
C00100=1714.059684,-13.226011,-713.755496,5.000000,-84.461151,-168.231322
C00101=1714.059684,-13.226011,-713.755496,5.000000,-84.461151,-168.231322
C00102=1825.678935,-177.475734,-711.476801,5.000000,-84.964045,-123.258508
C00103=2024.528132,-214.754006,-695.464226,5.000000,-88.489177,-77.499573
C00104=2029.202879,-212.392832,-655.898602,-5.000000,-88.491577,-77.474899
C00105=2029.202879,-212.392832,-655.898602,-5.000000,-88.491577,-77.474899
C00106=1846.889845,-185.845352,-662.266825,5.000000,-85.190864,-118.890402
C00107=1721.276525,-25.019340,-663.822134,5.000000,-84.382719,-165.052988
C00108=1721.276525,-25.019340,-663.822134,5.000000,-84.382719,-165.052988
C00109=1721.276525,-25.019340,-663.822134,5.000000,-84.382719,-165.052988
C00110=1752.848524,182.039477,-658.534241,5.000000,-87.126734,147.517188
C00111=1915.623878,296.410657,-732.774887,175.000000,-88.502978,-77.357707
C00112=1920.165929,298.918884,-703.723661,-175.000000,-88.508132,-77.304761
C00113=1920.165929,298.918884,-703.723661,-175.000000,-88.508132,-77.304761
C00114=1826.868839,257.432998,-708.086147,-5.000000,-89.234305,125.281201
C00115=1717.254831,51.796461,-716.310124,-5.000000,-84.972374,175.000000
C00116=1717.254831,51.796461,-716.310124,-5.000000,-84.972374,175.000000
C00117=1717.254831,51.796461,-716.310124,-5.000000,-84.972374,175.000000
C00118=1820.448300,-162.975303,-716.663930,-5.000000,-84.788564,-127.103195
C00119=2033.660822,-209.954781,-709.535184,-5.000000,-88.484346,-77.549259
C00120=2031.320453,-209.390103,-746.992986,5.000000,-88.361107,-78.820813
C00121=2031.320453,-209.390103,-746.992986,5.000000,-88.361107,-78.820813
C00122=1852.631053,273.405092,-744.172059,5.000000,-89.821021,119.439699
C00123=1862.754919,278.828878,-743.680276,175.000000,-89.924505,-63.084429
C00124=1862.754919,278.828878,-743.680276,175.000000,-89.924505,-63.084429
C00125=1862.754919,278.828878,-743.680276,175.000000,-89.924505,-63.084429
C00126=1889.033157,290.387648,-742.453920,-175.000000,-89.289908,-69.396426
C00127=1922.403348,300.415768,-740.989445,-175.000000,-60.000000,-77.059989
///POSTYPE PULSE
///PULSE
EX00000=122880.0
EX00001=304128.0
///POSTYPE PULSE
///PULSE
EC00000=122880.0
EC00001=122880.0
EC00002=122880.0
EC00003=122880.0
EC00004=122880.0
EC00005=122880.0
EC00006=122880.0
EC00007=122880.0
EC00008=122880.0
EC00009=122880.0
EC00010=122880.0
EC00011=122880.0
EC00012=122880.0
EC00013=122880.0
EC00014=122880.0
EC00015=122880.0
EC00016=122880.0
EC00017=122880.0
EC00018=122880.0
EC00019=122880.0
EC00020=122880.0
EC00021=122880.0
EC00022=122880.0
EC00023=122880.0
EC00024=122880.0
EC00025=122880.0
EC00026=122880.0
EC00027=122880.0
EC00028=122880.0
EC00029=122880.0
EC00030=122880.0
EC00031=122880.0
EC00032=122880.0
EC00033=122880.0
EC00034=122880.0
EC00035=122880.0
EC00036=122880.0
EC00037=122880.0
EC00038=122880.0
EC00039=122880.0
EC00040=122880.0
EC00041=122880.0
EC00042=122880.0
EC00043=122880.0
EC00044=122880.0
EC00045=122880.0
EC00046=122880.0
EC00047=122880.0
EC00048=122880.0
EC00049=122880.0
EC00050=122880.0
EC00051=122880.0
EC00052=122880.0
EC00053=122880.0
EC00054=122880.0
EC00055=122880.0
EC00056=122880.0
EC00057=122880.0
EC00058=122880.0
EC00059=122880.0
EC00060=122880.0
EC00061=122880.0
EC00062=122880.0
EC00063=122880.0
EC00064=304128.0
EC00065=304128.0
EC00066=304128.0
EC00067=304128.0
EC00068=304128.0
EC00069=304128.0
EC00070=304128.0
EC00071=304128.0
EC00072=304128.0
EC00073=304128.0
EC00074=304128.0
EC00075=304128.0
EC00076=304128.0
EC00077=304128.0
EC00078=304128.0
EC00079=304128.0
EC00080=304128.0
EC00081=304128.0
EC00082=304128.0
EC00083=304128.0
EC00084=304128.0
EC00085=304128.0
EC00086=304128.0
EC00087=304128.0
EC00088=304128.0
EC00089=304128.0
EC00090=304128.0
EC00091=304128.0
EC00092=304128.0
EC00093=304128.0
EC00094=304128.0
EC00095=304128.0
EC00096=304128.0
EC00097=304128.0
EC00098=304128.0
EC00099=304128.0
EC00100=304128.0
EC00101=304128.0
EC00102=304128.0
EC00103=304128.0
EC00104=304128.0
EC00105=304128.0
EC00106=304128.0
EC00107=304128.0
EC00108=304128.0
EC00109=304128.0
EC00110=304128.0
EC00111=304128.0
EC00112=304128.0
EC00113=304128.0
EC00114=304128.0
EC00115=304128.0
EC00116=304128.0
EC00117=304128.0
EC00118=304128.0
EC00119=304128.0
EC00120=304128.0
EC00121=304128.0
EC00122=304128.0
EC00123=304128.0
EC00124=304128.0
EC00125=304128.0
EC00126=304128.0
EC00127=304128.0
//INST
///DATE 2023/08/13 14:56
///ATTR SC,RW,RJ
////FRAME BASE
///GROUP1 RB1,ST1
NOP
MOVJ P009 EX000 VJ=15.00
MOVJ C00000 EC00000 VJ=15.0
CALL JOB:SPYON
MOVC C00001 EC00001 V=150.0
MOVC C00002 EC00002 V=150.0
MOVC C00003 EC00003 V=150.0
MOVJ C00004 EC00004 VJ=15.0
MOVC C00005 EC00005 V=150.0
MOVC C00006 EC00006 V=150.0
MOVC C00007 EC00007 V=150.0
MOVJ C00008 EC00008 VJ=15.0
MOVC C00009 EC00009 V=150.0
MOVC C00010 EC00010 V=150.0
MOVC C00011 EC00011 V=150.0
MOVJ C00012 EC00012 VJ=15.0
MOVC C00013 EC00013 V=150.0
MOVC C00014 EC00014 V=150.0
MOVC C00015 EC00015 V=150.0
MOVJ C00016 EC00016 VJ=15.0
MOVC C00017 EC00017 V=150.0
MOVC C00018 EC00018 V=150.0
MOVC C00019 EC00019 V=150.0
MOVJ C00020 EC00020 VJ=15.0
MOVC C00021 EC00021 V=150.0
MOVC C00022 EC00022 V=150.0
MOVC C00023 EC00023 V=150.0
MOVJ C00024 EC00024 VJ=15.0
MOVC C00025 EC00025 V=150.0
MOVC C00026 EC00026 V=150.0
MOVC C00027 EC00027 V=150.0
MOVJ C00028 EC00028 VJ=15.0
MOVC C00029 EC00029 V=150.0
MOVC C00030 EC00030 V=150.0
MOVC C00031 EC00031 V=150.0
MOVJ C00032 EC00032 VJ=15.0
MOVC C00033 EC00033 V=150.0
MOVC C00034 EC00034 V=150.0
MOVC C00035 EC00035 V=150.0
MOVJ C00036 EC00036 VJ=15.0
MOVC C00037 EC00037 V=150.0
MOVC C00038 EC00038 V=150.0
MOVC C00039 EC00039 V=150.0
MOVJ C00040 EC00040 VJ=15.0
MOVC C00041 EC00041 V=150.0
MOVC C00042 EC00042 V=150.0
MOVC C00043 EC00043 V=150.0
MOVJ C00044 EC00044 VJ=15.0
MOVC C00045 EC00045 V=150.0
MOVC C00046 EC00046 V=150.0
MOVC C00047 EC00047 V=150.0
MOVJ C00048 EC00048 VJ=15.0
MOVC C00049 EC00049 V=150.0
MOVC C00050 EC00050 V=150.0
MOVC C00051 EC00051 V=150.0
MOVJ C00052 EC00052 VJ=15.0
MOVC C00053 EC00053 V=150.0
MOVC C00054 EC00054 V=150.0
MOVC C00055 EC00055 V=150.0
MOVJ C00056 EC00056 VJ=15.0
MOVC C00057 EC00057 V=150.0
MOVC C00058 EC00058 V=150.0
MOVC C00059 EC00059 V=150.0
MOVJ C00060 EC00060 VJ=15.0
MOVC C00061 EC00061 V=150.0
MOVC C00062 EC00062 V=150.0
MOVC C00063 EC00063 V=150.0
CALL JOB:SPYOF
MOVJ P009 VJ=15.00
MOVL P009 EX00000 V=150.0
MOVJ C00064 EC00064 VJ=15.0
CALL JOB:SPYON
MOVC C00065 EC00065 V=150.0
MOVC C00066 EC00066 V=150.0
MOVC C00067 EC00067 V=150.0
MOVJ C00068 EC00068 VJ=15.0
MOVC C00069 EC00069 V=150.0
MOVC C00070 EC00070 V=150.0
MOVC C00071 EC00071 V=150.0
MOVJ C00072 EC00072 VJ=15.0
MOVC C00073 EC00073 V=150.0
MOVC C00074 EC00074 V=150.0
MOVC C00075 EC00075 V=150.0
MOVJ C00076 EC00076 VJ=15.0
MOVC C00077 EC00077 V=150.0
MOVC C00078 EC00078 V=150.0
MOVC C00079 EC00079 V=150.0
MOVJ C00080 EC00080 VJ=15.0
MOVC C00081 EC00081 V=150.0
MOVC C00082 EC00082 V=150.0
MOVC C00083 EC00083 V=150.0
MOVJ C00084 EC00084 VJ=15.0
MOVC C00085 EC00085 V=150.0
MOVC C00086 EC00086 V=150.0
MOVC C00087 EC00087 V=150.0
MOVJ C00088 EC00088 VJ=15.0
MOVC C00089 EC00089 V=150.0
MOVC C00090 EC00090 V=150.0
MOVC C00091 EC00091 V=150.0
MOVJ C00092 EC00092 VJ=15.0
MOVC C00093 EC00093 V=150.0
MOVC C00094 EC00094 V=150.0
MOVC C00095 EC00095 V=150.0
MOVJ C00096 EC00096 VJ=15.0
MOVC C00097 EC00097 V=150.0
MOVC C00098 EC00098 V=150.0
MOVC C00099 EC00099 V=150.0
MOVJ C00100 EC00100 VJ=15.0
MOVC C00101 EC00101 V=150.0
MOVC C00102 EC00102 V=150.0
MOVC C00103 EC00103 V=150.0
MOVJ C00104 EC00104 VJ=15.0
MOVC C00105 EC00105 V=150.0
MOVC C00106 EC00106 V=150.0
MOVC C00107 EC00107 V=150.0
MOVJ C00108 EC00108 VJ=15.0
MOVC C00109 EC00109 V=150.0
MOVC C00110 EC00110 V=150.0
MOVC C00111 EC00111 V=150.0
MOVJ C00112 EC00112 VJ=15.0
MOVC C00113 EC00113 V=150.0
MOVC C00114 EC00114 V=150.0
MOVC C00115 EC00115 V=150.0
MOVJ C00116 EC00116 VJ=15.0
MOVC C00117 EC00117 V=150.0
MOVC C00118 EC00118 V=150.0
MOVC C00119 EC00119 V=150.0
MOVJ C00120 EC00120 VJ=15.0
MOVC C00121 EC00121 V=150.0
MOVC C00122 EC00122 V=150.0
MOVC C00123 EC00123 V=150.0
MOVJ C00124 EC00124 VJ=15.0
MOVC C00125 EC00125 V=150.0
MOVC C00126 EC00126 V=150.0
MOVC C00127 EC00127 V=150.0
CALL JOB:SPYOF
MOVJ P009 VJ=15.00
MOVL P009 EX00001 V=150.0
END
