/JOB
//NAME neg_y_0
//POS
///NPOS 14,0,14,0,0,0
///TOOL 0
///POSTYPE BASE
///RECTAN
///RCONF 0,0,0,0,0,0,0,0,0,0,0,0,0,0,0,0,0,0,0,0,0,0,0,0
C00000=1578.421306,-168.245378,-483.669056,180.000000,-89.999999,0.000000
C00001=1578.421306,281.464622,-483.669056,180.000000,-89.999999,0.000000
C00002=1574.879780,283.169702,-566.585050,180.000000,-89.999999,0.000000
C00003=1574.879780,-166.690298,-566.585050,180.000000,-89.999999,0.000000
C00004=1574.842641,-168.914002,-616.421016,180.000000,-89.999999,0.000000
C00005=1574.842641,281.745998,-616.421016,180.000000,-89.999999,0.000000
C00006=1574.983384,284.628627,-663.353615,180.000000,-89.999999,0.000000
C00007=1574.983384,-166.191373,-663.353615,180.000000,-89.999999,0.000000
C00008=1575.131268,-166.473607,-709.989682,180.000000,-89.999999,0.000000
C00009=1575.131268,284.096393,-709.989682,180.000000,-89.999999,0.000000
C00010=1575.370368,286.027063,-641.184938,180.000000,-60.000000,0.000000
C00011=1575.370368,-165.712937,-641.184938,180.000000,-60.000000,0.000000
C00012=1575.428114,-164.136712,-690.599519,180.000000,-60.000000,0.000000
C00013=1575.428114,286.803288,-690.599519,180.000000,-60.000000,0.000000
///POSTYPE PULSE
///PULSE
EX000=368640
///POSTYPE PULSE
///PULSE
EC00000=368640
EC00001=368640
EC00002=368640
EC00003=368640
EC00004=368640
EC00005=368640
EC00006=368640
EC00007=368640
EC00008=368640
EC00009=368640
EC00010=368640
EC00011=368640
EC00012=368640
EC00013=368640
//INST
///DATE 2023/06/26 11:09
///ATTR SC,RW,RJ
////FRAME BASE
///GROUP1 RB1,ST1
NOP
MOVJ P009 EX000 VJ=15.00
MOVJ C00000 EC00000 VJ=15.0
CALL JOB:SPYON
MOVL C00001 EC00001 V=150.0
MOVL C00002 EC00002 V=150.0
MOVL C00003 EC00003 V=150.0
MOVL C00004 EC00004 V=150.0
MOVL C00005 EC00005 V=150.0
MOVL C00006 EC00006 V=150.0
MOVL C00007 EC00007 V=150.0
MOVL C00008 EC00008 V=150.0
MOVL C00009 EC00009 V=150.0
MOVL C00010 EC00010 V=150.0
MOVL C00011 EC00011 V=150.0
MOVL C00012 EC00012 V=150.0
MOVL C00013 EC00013 V=150.0
CALL JOB:SPYOF
MOVJ P009 VJ=15.00
END
