/JOB
//NAME plata_tarpez_planes_program
//POS
///NPOS 64,0,64,0,0,0
///TOOL 0
///POSTYPE BASE
///RECTAN
///RCONF 0,0,0,0,0,0,0,0,0,0,0,0,0,0,0,0,0,0,0,0,0,0,0,0
C00000=1834.598950,55.957950,-486.203360,5.000000,-87.624858,-168.082892
C00001=1875.078950,-139.804850,-486.203360,5.000000,-87.624858,-168.082892
C00002=1882.288950,-159.151850,-536.203360,5.000000,-87.624858,-168.082892
C00003=1832.928950,72.883420,-536.203360,5.000000,-87.624858,-168.082892
C00004=1831.968950,85.988350,-586.203360,5.000000,-87.624858,-168.082892
C00005=1886.898950,-175.677850,-586.203360,5.000000,-87.624858,-168.082892
C00006=1893.028950,-194.064850,-636.203360,5.000000,-87.624858,-168.082892
C00007=1830.328950,103.321050,-636.203360,5.000000,-87.624858,-168.082892
C00008=1829.508950,118.171650,-686.203360,5.000000,-87.624858,-168.082892
C00009=1905.588950,-217.222850,-686.203360,5.000000,-87.624858,-168.082892
C00010=1907.828950,-233.175850,-649.600820,180.000000,-60.000000,0.000000
C00011=1828.168950,135.518450,-649.600820,180.000000,-60.000000,0.000000
C00012=1826.728950,151.283450,-699.600820,180.000000,-60.000000,0.000000
C00013=1911.158950,-249.543850,-699.600820,180.000000,-60.000000,0.000000
C00014=1934.168950,-388.498850,-749.600820,180.000000,-60.000000,0.000000
C00015=1814.648950,187.068150,-749.600820,180.000000,-60.000000,0.000000
C00016=1860.009400,163.782870,-456.169200,-175.000000,-80.909620,-24.601701
C00017=1848.219400,138.594450,-456.169200,-175.000000,-80.909620,-24.601701
C00018=1846.699400,150.259350,-506.169200,-175.000000,-80.909620,-24.601701
C00019=1858.829400,182.584150,-506.169200,-175.000000,-80.909620,-24.601701
C00020=1850.899400,195.228650,-556.169200,-175.000000,-80.909620,-24.601701
C00021=1845.879400,167.731640,-556.169200,-175.000000,-80.909620,-24.601701
C00022=1844.649400,183.479050,-606.169200,-175.000000,-80.909620,-24.601701
C00023=1848.749400,209.941950,-606.169200,-175.000000,-80.909620,-24.601701
C00024=1845.889400,225.378650,-656.169200,-175.000000,-80.909620,-24.601701
C00025=1843.319400,200.049150,-656.169200,-175.000000,-80.909620,-24.601701
C00026=1842.919400,215.770950,-706.169200,-175.000000,-80.909620,-24.601701
C00027=1846.899400,242.289250,-706.169200,-175.000000,-80.909620,-24.601701
C00028=1845.159400,257.405150,-669.566660,180.000000,-60.000000,0.000000
C00029=1840.239400,229.288350,-669.566660,180.000000,-60.000000,0.000000
C00030=1831.609400,246.639550,-719.566660,180.000000,-60.000000,0.000000
C00031=1845.119400,288.075850,-719.566660,180.000000,-60.000000,0.000000
C00032=1798.797800,11.920200,-497.907388,5.000000,-89.976521,-168.111011
C00033=1760.047800,162.849600,-497.907388,5.000000,-89.976521,-168.111011
C00034=1759.967800,205.604600,-530.031388,5.000000,-89.976521,-168.111011
C00035=1812.527800,-46.794200,-530.031388,5.000000,-89.976521,-168.111011
C00036=1815.907800,-63.794600,-580.031388,5.000000,-89.976521,-168.111011
C00037=1754.927800,223.588600,-580.031388,5.000000,-89.976521,-168.111011
C00038=1749.247800,241.080600,-630.031388,5.000000,-89.976521,-168.111011
C00039=1817.997800,-79.747600,-630.031388,5.000000,-89.976521,-168.111011
C00040=1820.707800,-94.665700,-680.031388,5.000000,-89.976521,-168.111011
C00041=1746.057800,258.179600,-680.031388,5.000000,-89.976521,-168.111011
C00042=1740.287800,274.559600,-643.428848,180.000000,-60.000000,0.000000
C00043=1818.897800,-109.722600,-643.428848,180.000000,-60.000000,0.000000
C00044=1821.517800,-125.347400,-693.428848,180.000000,-60.000000,0.000000
C00045=1734.687800,292.575600,-693.428848,180.000000,-60.000000,0.000000
C00046=1731.817800,301.113600,-743.428848,180.000000,-60.000000,0.000000
C00047=1821.547800,-142.556400,-743.428848,180.000000,-60.000000,0.000000
C00048=1719.442500,99.136100,-449.761950,-175.000000,-79.071319,-41.295506
C00049=1693.984500,82.766100,-449.761950,-175.000000,-79.071319,-41.295506
C00050=1675.971500,82.656100,-499.761950,-175.000000,-79.071319,-41.295506
C00051=1702.583500,97.706100,-499.761950,-175.000000,-79.071319,-41.295506
C00052=1683.864500,92.116100,-549.761950,-175.000000,-79.071319,-41.295506
C00053=1658.326500,76.296100,-549.761950,-175.000000,-79.071319,-41.295506
C00054=1642.367500,70.826100,-599.761950,-175.000000,-79.071319,-41.295506
C00055=1666.109500,86.136100,-599.761950,-175.000000,-79.071319,-41.295506
C00056=1649.121500,80.126100,-649.761950,-175.000000,-79.071319,-41.295506
C00057=1625.368500,67.446100,-649.761950,-175.000000,-79.071319,-41.295506
C00058=1606.606500,59.076100,-699.761950,-175.000000,-79.071319,-41.295506
C00059=1630.895500,73.836100,-699.761950,-175.000000,-79.071319,-41.295506
C00060=1608.986500,64.626100,-663.159410,180.000000,-60.000000,0.000000
C00061=1590.352500,55.746100,-663.159410,180.000000,-60.000000,0.000000
C00062=1541.851500,36.316100,-713.159410,180.000000,-60.000000,0.000000
C00063=1594.297500,66.306100,-713.159410,180.000000,-60.000000,0.000000
///POSTYPE PULSE
///PULSE
EC00000=0
EC00001=0
EC00002=0
EC00003=0
EC00004=0
EC00005=0
EC00006=0
EC00007=0
EC00008=0
EC00009=0
EC00010=0
EC00011=0
EC00012=0
EC00013=0
EC00014=0
EC00015=0
EC00016=0
EC00017=0
EC00018=0
EC00019=0
EC00020=0
EC00021=0
EC00022=0
EC00023=0
EC00024=0
EC00025=0
EC00026=0
EC00027=0
EC00028=0
EC00029=0
EC00030=0
EC00031=0
EC00032=184320
EC00033=184320
EC00034=184320
EC00035=184320
EC00036=184320
EC00037=184320
EC00038=184320
EC00039=184320
EC00040=184320
EC00041=184320
EC00042=184320
EC00043=184320
EC00044=184320
EC00045=184320
EC00046=184320
EC00047=184320
EC00048=276480
EC00049=276480
EC00050=276480
EC00051=276480
EC00052=276480
EC00053=276480
EC00054=276480
EC00055=276480
EC00056=276480
EC00057=276480
EC00058=276480
EC00059=276480
EC00060=276480
EC00061=276480
EC00062=276480
EC00063=276480
//INST
///DATE 2023/08/07 13:53
///ATTR SC,RW,RJ
////FRAME BASE
///GROUP1 RB1,ST1
NOP
MOVJ P009 EX000 VJ=15.00
MOVJ P009 VJ=15.00
MOVJ C00000 EC00000 VJ=15.0
CALL JOB:SPYON
MOVL C00001 EC00001 V=150.0
MOVL C00002 EC00002 V=150.0
MOVL C00003 EC00003 V=150.0
MOVL C00004 EC00004 V=150.0
MOVL C00005 EC00005 V=150.0
MOVL C00006 EC00006 V=150.0
MOVL C00007 EC00007 V=150.0
MOVL C00008 EC00008 V=150.0
MOVL C00009 EC00009 V=150.0
MOVL C00010 EC00010 V=150.0
MOVL C00011 EC00011 V=150.0
MOVL C00012 EC00012 V=150.0
MOVL C00013 EC00013 V=150.0
MOVL C00014 EC00014 V=150.0
MOVL C00015 EC00015 V=150.0
CALL JOB:SPYOF
MOVJ C00016 EC00016 VJ=15.0
CALL JOB:SPYON
MOVL C00017 EC00017 V=150.0
MOVL C00018 EC00018 V=150.0
MOVL C00019 EC00019 V=150.0
MOVL C00020 EC00020 V=150.0
MOVL C00021 EC00021 V=150.0
MOVL C00022 EC00022 V=150.0
MOVL C00023 EC00023 V=150.0
MOVL C00024 EC00024 V=150.0
MOVL C00025 EC00025 V=150.0
MOVL C00026 EC00026 V=150.0
MOVL C00027 EC00027 V=150.0
MOVL C00028 EC00028 V=150.0
MOVL C00029 EC00029 V=150.0
MOVL C00030 EC00030 V=150.0
MOVL C00031 EC00031 V=150.0
CALL JOB:SPYOF
MOVJ P009 VJ=15.00
MOVJ P009 VJ=15.00
MOVJ C00032 EC00032 VJ=15.0
CALL JOB:SPYON
MOVL C00033 EC00033 V=150.0
MOVL C00034 EC00034 V=150.0
MOVL C00035 EC00035 V=150.0
MOVL C00036 EC00036 V=150.0
MOVL C00037 EC00037 V=150.0
MOVL C00038 EC00038 V=150.0
MOVL C00039 EC00039 V=150.0
MOVL C00040 EC00040 V=150.0
MOVL C00041 EC00041 V=150.0
MOVL C00042 EC00042 V=150.0
MOVL C00043 EC00043 V=150.0
MOVL C00044 EC00044 V=150.0
MOVL C00045 EC00045 V=150.0
MOVL C00046 EC00046 V=150.0
MOVL C00047 EC00047 V=150.0
CALL JOB:SPYOF
MOVJ P009 VJ=15.00
MOVJ C00048 EC00048 VJ=15.0
CALL JOB:SPYON
MOVL C00049 EC00049 V=150.0
MOVL C00050 EC00050 V=150.0
MOVL C00051 EC00051 V=150.0
MOVL C00052 EC00052 V=150.0
MOVL C00053 EC00053 V=150.0
MOVL C00054 EC00054 V=150.0
MOVL C00055 EC00055 V=150.0
MOVL C00056 EC00056 V=150.0
MOVL C00057 EC00057 V=150.0
MOVL C00058 EC00058 V=150.0
MOVL C00059 EC00059 V=150.0
MOVL C00060 EC00060 V=150.0
MOVL C00061 EC00061 V=150.0
MOVL C00062 EC00062 V=150.0
MOVL C00063 EC00063 V=150.0
CALL JOB:SPYOF
MOVJ P009 VJ=15.00
END
