/JOB
//NAME pneumatic_pod_cylinder_program
//POS
///NPOS 144,0,144,0,0,0
///TOOL 0
///POSTYPE BASE
///RECTAN
///RCONF 0,0,0,0,0,0,0,0,0,0,0,0,0,0,0,0,0,0,0,0,0,0,0,0
C00000=1819.137060,208.471783,-438.779000,128.767261,-90.000000,5.000000
C00001=1819.137060,208.471783,-438.779000,128.767261,-90.000000,5.000000
C00002=1845.790816,226.816537,-438.779000,120.309018,-89.999999,5.000000
C00003=1855.584203,232.211363,-438.779000,117.388569,-89.999998,5.000000
C00004=1855.584203,232.211363,-438.779000,117.388569,-89.999998,5.000000
C00005=1855.584203,232.211363,-438.779000,117.388569,-89.999998,5.000000
C00006=1859.485021,234.183328,-438.779000,116.246997,-90.000000,5.000000
C00007=1863.605079,236.161765,-438.779000,115.053311,-89.999999,5.000000
C00008=1863.188939,235.966713,-497.864500,115.173341,-90.000000,5.000000
C00009=1863.188939,235.966713,-497.864500,115.173341,-90.000000,5.000000
C00010=1749.875816,111.128391,-497.864500,160.367926,-89.999999,5.000000
C00011=1778.954941,-91.437264,-497.864500,-144.029464,-90.000000,5.000000
C00012=1778.954941,-91.437264,-497.864500,-144.029464,-90.000000,5.000000
C00013=1778.954941,-91.437264,-497.864500,-144.029464,-90.000000,5.000000
C00014=1898.164312,-174.061430,-497.864500,-105.422293,-90.000000,5.000000
C00015=2048.624095,-161.683109,-497.864500,-65.171448,-89.999998,5.000000
C00016=2047.276965,-162.300870,-544.398500,-65.558507,-90.000000,5.000000
C00017=2047.276965,-162.300870,-544.398500,-65.558507,-90.000000,5.000000
C00018=1884.454084,-169.791752,-544.398500,-109.173272,-90.000000,5.000000
C00019=1771.082694,-79.826784,-544.398500,-147.693687,-89.999999,5.000000
C00020=1771.082694,-79.826784,-544.398500,-147.693687,-89.999999,5.000000
C00021=1771.082694,-79.826784,-544.398500,-147.693687,-89.999999,5.000000
C00022=1749.385176,109.738209,-544.398500,160.752949,-90.000000,5.000000
C00023=1862.549261,235.664806,-544.398500,115.358078,-90.000000,5.000000
C00024=1863.403455,236.067393,-594.431500,115.111452,-89.999999,5.000000
C00025=1863.403455,236.067393,-594.431500,115.111452,-89.999999,5.000000
C00026=1808.615786,199.461461,-594.431500,132.385630,-90.000000,5.000000
C00027=1759.882421,134.724366,-594.431500,153.670316,-90.000000,5.000000
C00028=1759.882421,134.724366,-594.431500,153.670316,-90.000000,5.000000
C00029=1759.882421,134.724366,-594.431500,153.670316,-90.000000,5.000000
C00030=1777.323096,-89.158307,-594.431500,-144.761516,-89.999999,5.000000
C00031=2045.725690,-162.998671,-594.431500,-66.002756,-90.000000,5.000000
C00032=2048.598770,-161.694825,-644.395000,-65.178735,-90.000000,5.000000
C00033=2048.598770,-161.694825,-644.395000,-65.178735,-90.000000,5.000000
C00034=1830.271002,-142.004335,-644.395000,-125.128135,-90.000000,5.000000
C00035=1750.132953,-37.003754,-644.395000,-160.169011,-90.000000,5.000000
C00036=1750.132953,-37.003754,-644.395000,-160.169011,-90.000000,5.000000
C00037=1750.132953,-37.003754,-644.395000,-160.169011,-90.000000,5.000000
C00038=1741.287851,79.965051,-644.395000,168.817887,-90.000000,5.000000
C00039=1862.508968,235.645705,-644.395000,115.369724,-89.999999,5.000000
C00040=1863.447399,236.087983,-694.632500,115.098778,-89.999999,5.000000
C00041=1863.447399,236.087983,-694.632500,115.098778,-89.999999,5.000000
C00042=1809.173041,199.968297,-694.632500,132.188898,-90.000000,5.000000
C00043=1771.540878,155.389819,-694.632500,147.470471,-90.000000,5.000000
C00044=1771.540878,155.389819,-694.632500,147.470471,-90.000000,5.000000
C00045=1771.540878,155.389819,-694.632500,147.470471,-90.000000,5.000000
C00046=1800.243838,-116.562524,-694.632500,-135.420622,-90.000000,5.000000
C00047=2045.483034,-163.106519,-694.632500,-66.072107,-89.999999,5.000000
C00048=2047.517207,-162.191507,-657.794460,175.000000,-60.000000,114.510432
C00049=2047.517207,-162.191507,-657.794460,175.000000,-60.000000,114.510432
C00050=1870.491594,-164.396138,-657.794460,175.000000,-60.000000,66.916588
C00051=1748.480755,-32.252364,-657.794460,175.000000,-60.000000,18.517160
C00052=1748.480755,-32.252364,-657.794460,175.000000,-60.000000,18.517160
C00053=1748.480755,-32.252364,-657.794460,175.000000,-60.000000,18.517160
C00054=1770.660132,153.997391,-657.794460,-175.000000,-60.000000,-32.099227
C00055=1862.287309,235.540445,-657.794460,-175.000000,-60.000000,-64.566190
C00056=1862.163012,235.481287,-707.777960,175.000000,-60.000000,-64.530238
C00057=1862.163012,235.481287,-707.777960,175.000000,-60.000000,-64.530238
C00058=1760.316656,135.596949,-707.777960,-175.000000,-60.000000,-26.584235
C00059=1742.551227,-11.078904,-707.777960,175.000000,-60.000000,12.772146
C00060=1742.551227,-11.078904,-707.777960,175.000000,-60.000000,12.772146
C00061=1742.551227,-11.078904,-707.777960,175.000000,-60.000000,12.772146
C00062=1866.444836,-162.623074,-707.777960,175.000000,-60.000000,65.762684
C00063=2048.194688,-161.881222,-707.777960,-175.000000,-60.000000,114.705044
C00064=2048.065194,-161.940745,-745.600460,-175.000000,-60.000000,114.667822
C00065=2048.065194,-161.940745,-745.600460,-175.000000,-60.000000,114.667822
C00066=1853.771440,-156.419872,-745.600460,175.000000,-60.000000,62.076925
C00067=1737.932134,18.596843,-745.600460,-175.000000,-60.000000,5.000000
C00068=1737.932134,18.596843,-745.600460,-175.000000,-60.000000,5.000000
C00069=1737.932134,18.596843,-745.600460,-175.000000,-60.000000,5.000000
C00070=1759.129866,133.188641,-745.600460,175.000000,-60.000000,-25.883030
C00071=1862.746164,235.758007,-745.600460,175.000000,-60.000000,-64.698817
C00072=1927.279606,-161.572723,-443.249000,-108.551542,-90.000000,5.000000
C00073=1927.279606,-161.572723,-443.249000,-108.551542,-90.000000,5.000000
C00074=1850.075332,-116.436124,-443.249000,-132.072868,-90.000000,5.000000
C00075=1797.364805,-44.382333,-443.249000,-155.552898,-90.000000,5.000000
C00076=1797.364805,-44.382333,-443.249000,-155.552898,-90.000000,5.000000
C00077=1797.364805,-44.382333,-443.249000,-155.552898,-90.000000,5.000000
C00078=1780.376487,80.599684,-443.249000,171.034004,-90.000000,5.000000
C00079=1806.239347,154.618048,-443.249000,150.446002,-90.000000,5.000000
C00080=2063.190261,255.592223,-494.405000,72.460741,-90.000000,5.000000
C00081=2063.190261,255.592223,-494.405000,72.460741,-90.000000,5.000000
C00082=1905.145475,245.599843,-494.405000,114.774678,-90.000000,5.000000
C00083=1796.624290,135.554339,-494.405000,156.024488,-89.999999,5.000000
C00084=1796.624290,135.554339,-494.405000,156.024488,-89.999999,5.000000
C00085=1796.624290,135.554339,-494.405000,156.024488,-89.999999,5.000000
C00086=1799.695033,-49.342681,-494.405000,-154.121543,-90.000000,5.000000
C00087=1924.789126,-160.720270,-494.405000,-109.239030,-89.999999,5.000000
C00088=1923.823573,-160.380762,-544.422000,-109.506338,-89.999999,5.000000
C00089=1923.823573,-160.380762,-544.422000,-109.506338,-89.999999,5.000000
C00090=1807.756599,-64.432361,-544.422000,-149.652297,-90.000000,5.000000
C00091=1782.716169,93.073359,-544.422000,167.718988,-89.999999,5.000000
C00092=1782.716169,93.073359,-544.422000,167.718988,-89.999999,5.000000
C00093=1782.716169,93.073359,-544.422000,167.718988,-89.999999,5.000000
C00094=1880.116253,232.012181,-544.422000,122.217905,-89.999999,5.000000
C00095=2060.967205,256.281876,-544.422000,73.068635,-90.000000,5.000000
C00096=2050.226347,259.255705,-594.412000,75.979665,-90.000000,5.000000
C00097=2050.226347,259.255705,-594.412000,75.979665,-90.000000,5.000000
C00098=1797.819624,138.195067,-594.412000,155.267440,-90.000000,5.000000
C00099=1817.861628,-80.121114,-594.412000,-144.777035,-90.000000,5.000000
C00100=1817.861628,-80.121114,-594.412000,-144.777035,-90.000000,5.000000
C00101=1817.861628,-80.121114,-594.412000,-144.777035,-90.000000,5.000000
C00102=1851.117617,-117.370986,-594.412000,-131.707199,-90.000000,5.000000
C00103=1925.850967,-161.087806,-594.412000,-108.945567,-90.000000,5.000000
C00104=1926.644262,-161.358423,-644.143500,-108.726659,-90.000000,5.000000
C00105=1926.644262,-161.358423,-644.143500,-108.726659,-90.000000,5.000000
C00106=1811.520255,-70.623965,-644.143500,-147.759840,-90.000000,5.000000
C00107=1778.424088,64.269659,-644.143500,175.000000,-90.000000,5.000000
C00108=1778.424088,64.269659,-644.143500,175.000000,-90.000000,5.000000
C00109=1778.424088,64.269659,-644.143500,175.000000,-90.000000,5.000000
C00110=1869.130980,224.617178,-644.143500,125.676951,-90.000000,5.000000
C00111=2061.630165,256.078912,-644.143500,72.887557,-90.000000,5.000000
C00112=2048.700369,259.630948,-694.409000,76.390077,-90.000000,5.000000
C00113=2048.700369,259.630948,-694.409000,76.390077,-90.000000,5.000000
C00114=1804.155988,150.858439,-694.409000,151.568594,-90.000000,5.000000
C00115=1818.408803,-80.892590,-694.409000,-144.530016,-90.000000,5.000000
C00116=1818.408803,-80.892590,-694.409000,-144.530016,-90.000000,5.000000
C00117=1818.408803,-80.892590,-694.409000,-144.530016,-90.000000,5.000000
C00118=1850.948070,-117.219729,-694.409000,-131.766540,-90.000000,5.000000
C00119=1927.745220,-161.728401,-694.409000,-108.423321,-90.000000,5.000000
C00120=1925.203196,-160.864317,-657.738460,175.000000,-60.000000,70.875469
C00121=1925.203196,-160.864317,-657.738460,175.000000,-60.000000,70.875469
C00122=1819.160901,-81.941618,-657.738460,175.000000,-60.000000,35.807097
C00123=1778.900221,69.365412,-657.738460,-175.000000,-60.000000,-6.006395
C00124=1778.900221,69.365412,-657.738460,-175.000000,-60.000000,-6.006395
C00125=1778.900221,69.365412,-657.738460,-175.000000,-60.000000,-6.006395
C00126=1881.253672,232.724099,-657.738460,-175.000000,-60.000000,-58.132544
C00127=2061.264962,256.191001,-657.738460,175.000000,-60.000000,-107.012671
C00128=2062.580441,255.783982,-707.828960,175.000000,-60.000000,-107.372304
C00129=2062.580441,255.783982,-707.828960,175.000000,-60.000000,-107.372304
C00130=1881.362049,232.791428,-707.828960,175.000000,-60.000000,-58.165866
C00131=1780.258910,79.845956,-707.828960,175.000000,-60.000000,-8.766764
C00132=1780.258910,79.845956,-707.828960,175.000000,-60.000000,-8.766764
C00133=1780.258910,79.845956,-707.828960,175.000000,-60.000000,-8.766764
C00134=1806.014873,-61.402344,-707.828960,175.000000,-60.000000,29.434922
C00135=1927.747760,-161.729248,-707.828960,-175.000000,-60.000000,71.577379
C00136=1924.613003,-160.658719,-745.591460,175.000000,-60.000000,70.712244
C00137=1924.613003,-160.658719,-745.591460,175.000000,-60.000000,70.712244
C00138=1804.680109,-59.001907,-745.591460,175.000000,-60.000000,28.717595
C00139=1789.864852,118.459567,-745.591460,175.000000,-60.000000,-19.173125
C00140=1789.864852,118.459567,-745.591460,175.000000,-60.000000,-19.173125
C00141=1789.864852,118.459567,-745.591460,175.000000,-60.000000,-19.173125
C00142=1889.161481,237.413223,-745.591460,-175.000000,-60.000000,-60.533793
C00143=2063.816748,255.393188,-745.591460,175.000000,-60.000000,-107.710937
///POSTYPE PULSE
///PULSE
EX00000=117760.0
EX00001=258048.0
///POSTYPE PULSE
///PULSE
EC00000=117760.0
EC00001=117760.0
EC00002=117760.0
EC00003=117760.0
EC00004=117760.0
EC00005=117760.0
EC00006=117760.0
EC00007=117760.0
EC00008=117760.0
EC00009=117760.0
EC00010=117760.0
EC00011=117760.0
EC00012=117760.0
EC00013=117760.0
EC00014=117760.0
EC00015=117760.0
EC00016=117760.0
EC00017=117760.0
EC00018=117760.0
EC00019=117760.0
EC00020=117760.0
EC00021=117760.0
EC00022=117760.0
EC00023=117760.0
EC00024=117760.0
EC00025=117760.0
EC00026=117760.0
EC00027=117760.0
EC00028=117760.0
EC00029=117760.0
EC00030=117760.0
EC00031=117760.0
EC00032=117760.0
EC00033=117760.0
EC00034=117760.0
EC00035=117760.0
EC00036=117760.0
EC00037=117760.0
EC00038=117760.0
EC00039=117760.0
EC00040=117760.0
EC00041=117760.0
EC00042=117760.0
EC00043=117760.0
EC00044=117760.0
EC00045=117760.0
EC00046=117760.0
EC00047=117760.0
EC00048=117760.0
EC00049=117760.0
EC00050=117760.0
EC00051=117760.0
EC00052=117760.0
EC00053=117760.0
EC00054=117760.0
EC00055=117760.0
EC00056=117760.0
EC00057=117760.0
EC00058=117760.0
EC00059=117760.0
EC00060=117760.0
EC00061=117760.0
EC00062=117760.0
EC00063=117760.0
EC00064=117760.0
EC00065=117760.0
EC00066=117760.0
EC00067=117760.0
EC00068=117760.0
EC00069=117760.0
EC00070=117760.0
EC00071=117760.0
EC00072=258048.0
EC00073=258048.0
EC00074=258048.0
EC00075=258048.0
EC00076=258048.0
EC00077=258048.0
EC00078=258048.0
EC00079=258048.0
EC00080=258048.0
EC00081=258048.0
EC00082=258048.0
EC00083=258048.0
EC00084=258048.0
EC00085=258048.0
EC00086=258048.0
EC00087=258048.0
EC00088=258048.0
EC00089=258048.0
EC00090=258048.0
EC00091=258048.0
EC00092=258048.0
EC00093=258048.0
EC00094=258048.0
EC00095=258048.0
EC00096=258048.0
EC00097=258048.0
EC00098=258048.0
EC00099=258048.0
EC00100=258048.0
EC00101=258048.0
EC00102=258048.0
EC00103=258048.0
EC00104=258048.0
EC00105=258048.0
EC00106=258048.0
EC00107=258048.0
EC00108=258048.0
EC00109=258048.0
EC00110=258048.0
EC00111=258048.0
EC00112=258048.0
EC00113=258048.0
EC00114=258048.0
EC00115=258048.0
EC00116=258048.0
EC00117=258048.0
EC00118=258048.0
EC00119=258048.0
EC00120=258048.0
EC00121=258048.0
EC00122=258048.0
EC00123=258048.0
EC00124=258048.0
EC00125=258048.0
EC00126=258048.0
EC00127=258048.0
EC00128=258048.0
EC00129=258048.0
EC00130=258048.0
EC00131=258048.0
EC00132=258048.0
EC00133=258048.0
EC00134=258048.0
EC00135=258048.0
EC00136=258048.0
EC00137=258048.0
EC00138=258048.0
EC00139=258048.0
EC00140=258048.0
EC00141=258048.0
EC00142=258048.0
EC00143=258048.0
//INST
///DATE 2023/08/16 17:10
///ATTR SC,RW,RJ
////FRAME BASE
///GROUP1 RB1,ST1
NOP
MOVJ P009 EX000 VJ=15.00
MOVJ C00000 EC00000 VJ=15.0
CALL JOB:SPYON
MOVC C00001 EC00001 V=150.0
MOVC C00002 EC00002 V=150.0
MOVC C00003 EC00003 V=150.0
MOVJ C00004 EC00004 VJ=15.0
MOVC C00005 EC00005 V=150.0
MOVC C00006 EC00006 V=150.0
MOVC C00007 EC00007 V=150.0
MOVJ C00008 EC00008 VJ=15.0
MOVC C00009 EC00009 V=150.0
MOVC C00010 EC00010 V=150.0
MOVC C00011 EC00011 V=150.0
MOVJ C00012 EC00012 VJ=15.0
MOVC C00013 EC00013 V=150.0
MOVC C00014 EC00014 V=150.0
MOVC C00015 EC00015 V=150.0
MOVJ C00016 EC00016 VJ=15.0
MOVC C00017 EC00017 V=150.0
MOVC C00018 EC00018 V=150.0
MOVC C00019 EC00019 V=150.0
MOVJ C00020 EC00020 VJ=15.0
MOVC C00021 EC00021 V=150.0
MOVC C00022 EC00022 V=150.0
MOVC C00023 EC00023 V=150.0
MOVJ C00024 EC00024 VJ=15.0
MOVC C00025 EC00025 V=150.0
MOVC C00026 EC00026 V=150.0
MOVC C00027 EC00027 V=150.0
MOVJ C00028 EC00028 VJ=15.0
MOVC C00029 EC00029 V=150.0
MOVC C00030 EC00030 V=150.0
MOVC C00031 EC00031 V=150.0
MOVJ C00032 EC00032 VJ=15.0
MOVC C00033 EC00033 V=150.0
MOVC C00034 EC00034 V=150.0
MOVC C00035 EC00035 V=150.0
MOVJ C00036 EC00036 VJ=15.0
MOVC C00037 EC00037 V=150.0
MOVC C00038 EC00038 V=150.0
MOVC C00039 EC00039 V=150.0
MOVJ C00040 EC00040 VJ=15.0
MOVC C00041 EC00041 V=150.0
MOVC C00042 EC00042 V=150.0
MOVC C00043 EC00043 V=150.0
MOVJ C00044 EC00044 VJ=15.0
MOVC C00045 EC00045 V=150.0
MOVC C00046 EC00046 V=150.0
MOVC C00047 EC00047 V=150.0
MOVJ C00048 EC00048 VJ=15.0
MOVC C00049 EC00049 V=150.0
MOVC C00050 EC00050 V=150.0
MOVC C00051 EC00051 V=150.0
MOVJ C00052 EC00052 VJ=15.0
MOVC C00053 EC00053 V=150.0
MOVC C00054 EC00054 V=150.0
MOVC C00055 EC00055 V=150.0
MOVJ C00056 EC00056 VJ=15.0
MOVC C00057 EC00057 V=150.0
MOVC C00058 EC00058 V=150.0
MOVC C00059 EC00059 V=150.0
MOVJ C00060 EC00060 VJ=15.0
MOVC C00061 EC00061 V=150.0
MOVC C00062 EC00062 V=150.0
MOVC C00063 EC00063 V=150.0
MOVJ C00064 EC00064 VJ=15.0
MOVC C00065 EC00065 V=150.0
MOVC C00066 EC00066 V=150.0
MOVC C00067 EC00067 V=150.0
MOVJ C00068 EC00068 VJ=15.0
MOVC C00069 EC00069 V=150.0
MOVC C00070 EC00070 V=150.0
MOVC C00071 EC00071 V=150.0
CALL JOB:SPYOF
MOVJ P009 VJ=15.00
MOVL P009 EX00000 V=150.0
MOVJ C00072 EC00072 VJ=15.0
CALL JOB:SPYON
MOVC C00073 EC00073 V=150.0
MOVC C00074 EC00074 V=150.0
MOVC C00075 EC00075 V=150.0
MOVJ C00076 EC00076 VJ=15.0
MOVC C00077 EC00077 V=150.0
MOVC C00078 EC00078 V=150.0
MOVC C00079 EC00079 V=150.0
MOVJ C00080 EC00080 VJ=15.0
MOVC C00081 EC00081 V=150.0
MOVC C00082 EC00082 V=150.0
MOVC C00083 EC00083 V=150.0
MOVJ C00084 EC00084 VJ=15.0
MOVC C00085 EC00085 V=150.0
MOVC C00086 EC00086 V=150.0
MOVC C00087 EC00087 V=150.0
MOVJ C00088 EC00088 VJ=15.0
MOVC C00089 EC00089 V=150.0
MOVC C00090 EC00090 V=150.0
MOVC C00091 EC00091 V=150.0
MOVJ C00092 EC00092 VJ=15.0
MOVC C00093 EC00093 V=150.0
MOVC C00094 EC00094 V=150.0
MOVC C00095 EC00095 V=150.0
MOVJ C00096 EC00096 VJ=15.0
MOVC C00097 EC00097 V=150.0
MOVC C00098 EC00098 V=150.0
MOVC C00099 EC00099 V=150.0
MOVJ C00100 EC00100 VJ=15.0
MOVC C00101 EC00101 V=150.0
MOVC C00102 EC00102 V=150.0
MOVC C00103 EC00103 V=150.0
MOVJ C00104 EC00104 VJ=15.0
MOVC C00105 EC00105 V=150.0
MOVC C00106 EC00106 V=150.0
MOVC C00107 EC00107 V=150.0
MOVJ C00108 EC00108 VJ=15.0
MOVC C00109 EC00109 V=150.0
MOVC C00110 EC00110 V=150.0
MOVC C00111 EC00111 V=150.0
MOVJ C00112 EC00112 VJ=15.0
MOVC C00113 EC00113 V=150.0
MOVC C00114 EC00114 V=150.0
MOVC C00115 EC00115 V=150.0
MOVJ C00116 EC00116 VJ=15.0
MOVC C00117 EC00117 V=150.0
MOVC C00118 EC00118 V=150.0
MOVC C00119 EC00119 V=150.0
MOVJ C00120 EC00120 VJ=15.0
MOVC C00121 EC00121 V=150.0
MOVC C00122 EC00122 V=150.0
MOVC C00123 EC00123 V=150.0
MOVJ C00124 EC00124 VJ=15.0
MOVC C00125 EC00125 V=150.0
MOVC C00126 EC00126 V=150.0
MOVC C00127 EC00127 V=150.0
MOVJ C00128 EC00128 VJ=15.0
MOVC C00129 EC00129 V=150.0
MOVC C00130 EC00130 V=150.0
MOVC C00131 EC00131 V=150.0
MOVJ C00132 EC00132 VJ=15.0
MOVC C00133 EC00133 V=150.0
MOVC C00134 EC00134 V=150.0
MOVC C00135 EC00135 V=150.0
MOVJ C00136 EC00136 VJ=15.0
MOVC C00137 EC00137 V=150.0
MOVC C00138 EC00138 V=150.0
MOVC C00139 EC00139 V=150.0
MOVJ C00140 EC00140 VJ=15.0
MOVC C00141 EC00141 V=150.0
MOVC C00142 EC00142 V=150.0
MOVC C00143 EC00143 V=150.0
CALL JOB:SPYOF
MOVJ P009 VJ=15.00
MOVL P009 EX00001 V=150.0
END
