/JOB
//NAME pos_y_0
//POS
///NPOS 14,0,14,0,0,0
///TOOL 0
///POSTYPE BASE
///RECTAN
///RCONF 0,0,0,0,0,0,0,0,0,0,0,0,0,0,0,0,0,0,0,0,0,0,0,0
C00000=1635.269259,242.501099,-492.090717,180.000000,-89.999999,0.000000
C00001=1635.269259,-207.148901,-492.090717,180.000000,-89.999999,0.000000
C00002=1631.061349,-207.971067,-604.940000,180.000000,-89.999999,0.000000
C00003=1631.061349,240.598933,-604.940000,180.000000,-89.999999,0.000000
C00004=1630.974998,240.130895,-653.971486,180.000000,-89.999999,0.000000
C00005=1630.974998,-207.799105,-653.971486,180.000000,-89.999999,0.000000
C00006=1630.589566,-211.174713,-698.675585,180.000000,-89.999999,0.000000
C00007=1630.589566,239.035287,-698.675585,180.000000,-89.999999,0.000000
C00008=1630.374465,237.221709,-628.612012,180.000000,-60.000000,0.000000
C00009=1630.374465,-213.098291,-628.612012,180.000000,-60.000000,0.000000
C00010=1630.284358,-213.159504,-675.588090,180.000000,-60.000000,0.000000
C00011=1630.284358,236.730496,-675.588090,180.000000,-60.000000,0.000000
C00012=1630.418570,234.871039,-729.767750,180.000000,-60.000000,0.000000
C00013=1630.418570,-213.228961,-729.767750,180.000000,-60.000000,0.000000
///POSTYPE PULSE
///PULSE
EX000=184320
///POSTYPE PULSE
///PULSE
EC00000=184320
EC00001=184320
EC00002=184320
EC00003=184320
EC00004=184320
EC00005=184320
EC00006=184320
EC00007=184320
EC00008=184320
EC00009=184320
EC00010=184320
EC00011=184320
EC00012=184320
EC00013=184320
//INST
///DATE 2023/06/26 11:09
///ATTR SC,RW,RJ
////FRAME BASE
///GROUP1 RB1,ST1
NOP
MOVJ P009 EX000 VJ=15.00
MOVJ C00000 EC00000 VJ=15.0
CALL JOB:SPYON
MOVL C00001 EC00001 V=150.0
MOVL C00002 EC00002 V=150.0
MOVL C00003 EC00003 V=150.0
MOVL C00004 EC00004 V=150.0
MOVL C00005 EC00005 V=150.0
MOVL C00006 EC00006 V=150.0
MOVL C00007 EC00007 V=150.0
MOVL C00008 EC00008 V=150.0
MOVL C00009 EC00009 V=150.0
MOVL C00010 EC00010 V=150.0
MOVL C00011 EC00011 V=150.0
MOVL C00012 EC00012 V=150.0
MOVL C00013 EC00013 V=150.0
CALL JOB:SPYOF
MOVJ P009 VJ=15.00
END
