/JOB
//NAME pos_z_0
//POS
///NPOS 91,0,91,0,0,0
///TOOL 0
///POSTYPE BASE
///RECTAN
///RCONF 0,0,0,0,0,0,0,0,0,0,0,0,0,0,0,0,0,0,0,0,0,0,0,0
C00000=2656.460943,-150.468551,-653.252380,175.000000,-8.848606,5.000000
C00001=2656.460943,229.117449,-653.252380,175.000000,-8.848606,5.000000
C00002=2627.497779,347.931768,-651.232478,-175.000000,-5.000000,-5.000000
C00003=2627.497779,-287.285232,-651.232478,-175.000000,-5.000000,-5.000000
C00004=2572.213711,-336.742338,-651.659154,-175.000000,-5.000000,-5.000000
C00005=2572.213711,489.916662,-651.659154,-175.000000,-5.000000,-5.000000
C00006=2526.904847,540.049866,-651.501485,-175.000000,-5.000000,-5.000000
C00007=2526.904847,-395.156134,-651.501485,-175.000000,-5.000000,-5.000000
C00008=2480.339516,-459.512372,-651.235306,-175.000000,-5.000000,-5.000000
C00009=2480.339516,596.519628,-651.235306,-175.000000,-5.000000,-5.000000
C00010=2418.281304,625.734905,-652.044532,-175.000000,-5.429419,-5.000000
C00011=2418.281304,-428.059095,-652.044532,-175.000000,-5.429419,-5.000000
C00012=2373.921678,-420.787294,-651.674768,-175.000000,-5.000000,-5.000000
C00013=2373.921678,666.630706,-651.674768,-175.000000,-5.000000,-5.000000
C00014=2326.756346,670.269706,-651.689889,-175.000000,-5.000000,-5.000000
C00015=2326.756346,-413.993294,-651.689889,-175.000000,-5.000000,-5.000000
C00016=2283.654656,-452.713368,-651.426872,-175.000000,-5.000000,-5.000000
C00017=2283.654656,712.102632,-651.426872,-175.000000,-5.000000,-5.000000
C00018=2239.829565,716.054342,-651.464834,-175.000000,5.000000,5.000000
C00019=2239.829565,-229.216658,-651.464834,-175.000000,5.000000,5.000000
C00020=2200.763302,-261.900680,-651.775326,-175.000000,5.000000,5.000000
C00021=2200.763302,817.076320,-651.775326,-175.000000,5.000000,5.000000
C00022=2140.753719,813.469514,-651.286785,-175.000000,5.000000,5.000000
C00023=2175.323719,221.429514,-651.286335,-175.000000,5.000000,5.000000
C00024=2175.323719,221.429514,-651.286335,-175.000000,5.000000,5.000000
C00025=1940.753719,221.429621,-935.816732,180.000000,-60.000000,0.000000
C00026=2174.923719,-123.582486,-651.286335,-175.000000,5.000000,5.000000
C00027=2174.923719,-123.582486,-651.286335,-175.000000,5.000000,5.000000
C00028=1940.753719,-123.582385,-935.816732,180.000000,-60.000000,0.000000
C00029=2086.834012,-363.411004,-651.203375,-175.000000,-5.000000,-5.000000
C00030=2171.404012,222.215996,-651.202925,-175.000000,-5.000000,-5.000000
C00031=2171.404012,222.215996,-651.202925,-175.000000,-5.000000,-5.000000
C00032=1886.834012,222.216104,-935.733321,180.000000,-60.000000,0.000000
C00033=2171.004012,-122.796004,-651.202925,-175.000000,-5.000000,-5.000000
C00034=2171.004012,-122.796004,-651.202925,-175.000000,-5.000000,-5.000000
C00035=1886.834012,-122.795903,-935.733321,180.000000,-60.000000,0.000000
C00036=2041.925770,784.352535,-651.263772,-175.000000,5.000000,5.000000
C00037=2176.495770,222.127535,-651.263322,-175.000000,5.000000,5.000000
C00038=2176.495770,222.127535,-651.263322,-175.000000,5.000000,5.000000
C00039=1841.925770,222.127642,-935.793718,180.000000,-60.000000,0.000000
C00040=2176.095770,-122.884465,-651.263322,-175.000000,5.000000,5.000000
C00041=2176.095770,-122.884465,-651.263322,-175.000000,5.000000,5.000000
C00042=1841.925770,-122.884364,-935.793718,180.000000,-60.000000,0.000000
C00043=1977.069048,-334.422188,-651.446071,-175.000000,-5.000000,-5.000000
C00044=1808.319048,222.466812,-651.445621,-175.000000,-5.000000,-5.000000
C00045=1808.319048,222.466812,-651.445621,-175.000000,-5.000000,-5.000000
C00046=1777.069048,222.466920,-935.976017,180.000000,-60.000000,0.000000
C00047=1808.219048,-122.545188,-651.445621,-175.000000,-5.000000,-5.000000
C00048=1808.219048,-122.545188,-651.445621,-175.000000,-5.000000,-5.000000
C00049=1777.069048,-122.545087,-935.976017,180.000000,-60.000000,0.000000
C00050=1928.721220,791.559852,-651.538855,-175.000000,-5.000000,-5.000000
C00051=1809.971220,220.040852,-651.538405,-175.000000,-5.000000,-5.000000
C00052=1809.971220,220.040852,-651.538405,-175.000000,-5.000000,-5.000000
C00053=1728.721220,220.040960,-936.068801,180.000000,-60.000000,0.000000
C00054=1809.871220,-124.971148,-651.538405,-175.000000,-5.000000,-5.000000
C00055=1809.871220,-124.971148,-651.538405,-175.000000,-5.000000,-5.000000
C00056=1728.721220,-124.971047,-936.068801,180.000000,-60.000000,0.000000
C00057=1881.497109,-223.621422,-651.637006,-174.947735,-5.000000,-5.000000
C00058=1812.747109,217.641578,-651.636556,-174.947735,-5.000000,-5.000000
C00059=1812.747109,217.641578,-651.636556,-174.947735,-5.000000,-5.000000
C00060=1681.497109,217.641686,-936.166952,180.000000,-60.000000,0.000000
C00061=1812.647109,-127.370422,-651.636556,-174.947735,-5.000000,-5.000000
C00062=1812.647109,-127.370422,-651.636556,-174.947735,-5.000000,-5.000000
C00063=1681.497109,-127.370321,-936.166952,180.000000,-60.000000,0.000000
C00064=1805.804854,810.162761,-653.872990,-175.000000,-9.014903,-5.000000
C00065=1787.054854,219.745761,-653.872540,-175.000000,-9.014903,-5.000000
C00066=1787.054854,219.745761,-653.872540,-175.000000,-9.014903,-5.000000
C00067=1605.804854,219.745869,-938.402936,180.000000,-60.000000,0.000000
C00068=1786.954854,-125.266239,-653.872540,-175.000000,-9.014903,-5.000000
C00069=1786.954854,-125.266239,-653.872540,-175.000000,-9.014903,-5.000000
C00070=1605.804854,-125.266138,-938.402936,180.000000,-60.000000,0.000000
C00071=1782.662478,-206.210679,-651.291834,-175.000000,-5.000000,-5.000000
C00072=1782.662478,714.069321,-651.291834,-175.000000,-5.000000,-5.000000
C00073=1730.212349,688.417773,-651.378037,-175.000000,-5.000000,-5.000000
C00074=1730.212349,-170.674227,-651.378037,-175.000000,-5.000000,-5.000000
C00075=1684.297183,-156.152654,-651.338765,-175.000000,-5.000000,-5.000000
C00076=1684.297183,668.531946,-651.338765,-175.000000,-5.000000,-5.000000
C00077=1633.833752,668.044159,-651.284531,-175.000000,-5.000000,-5.000000
C00078=1633.833752,-153.905441,-651.284531,-175.000000,-5.000000,-5.000000
C00079=1592.276618,-190.639632,-651.293083,-175.000000,5.000000,5.000000
C00080=1592.276618,628.548368,-651.293083,-175.000000,5.000000,5.000000
C00081=1541.838326,608.465241,-651.279954,-175.000000,5.000000,5.000000
C00082=1541.838326,-205.867759,-651.279954,-175.000000,5.000000,5.000000
C00083=1487.539467,-234.489098,-651.135826,-175.000000,5.000000,5.000000
C00084=1487.539467,569.973902,-651.135826,-175.000000,5.000000,5.000000
C00085=1433.792910,495.334747,-651.168011,-175.000000,-5.000000,-5.000000
C00086=1433.792910,-239.256253,-651.168011,-175.000000,-5.000000,-5.000000
C00087=1382.738925,-191.949702,-651.084748,-175.000000,-5.000000,-5.000000
C00088=1382.738925,337.025298,-651.084748,-175.000000,-5.000000,-5.000000
C00089=1346.852235,282.490527,-651.239445,-175.000000,5.000000,5.000000
C00090=1346.852235,-164.957473,-651.239445,-175.000000,5.000000,5.000000
///POSTYPE PULSE
///PULSE
EX000=0
///POSTYPE PULSE
///PULSE
EC00000=0
EC00001=0
EC00002=0
EC00003=0
EC00004=0
EC00005=0
EC00006=0
EC00007=0
EC00008=0
EC00009=0
EC00010=0
EC00011=0
EC00012=0
EC00013=0
EC00014=0
EC00015=0
EC00016=0
EC00017=0
EC00018=0
EC00019=0
EC00020=0
EC00021=0
EC00022=0
EC00023=0
EC00024=0
EC00025=0
EC00026=0
EC00027=0
EC00028=0
EC00029=0
EC00030=0
EC00031=0
EC00032=0
EC00033=0
EC00034=0
EC00035=0
EC00036=0
EC00037=0
EC00038=0
EC00039=0
EC00040=0
EC00041=0
EC00042=0
EC00043=0
EC00044=0
EC00045=0
EC00046=0
EC00047=0
EC00048=0
EC00049=0
EC00050=0
EC00051=0
EC00052=0
EC00053=0
EC00054=0
EC00055=0
EC00056=0
EC00057=0
EC00058=0
EC00059=0
EC00060=0
EC00061=0
EC00062=0
EC00063=0
EC00064=0
EC00065=0
EC00066=0
EC00067=0
EC00068=0
EC00069=0
EC00070=0
EC00071=0
EC00072=0
EC00073=0
EC00074=0
EC00075=0
EC00076=0
EC00077=0
EC00078=0
EC00079=0
EC00080=0
EC00081=0
EC00082=0
EC00083=0
EC00084=0
EC00085=0
EC00086=0
EC00087=0
EC00088=0
EC00089=0
EC00090=0
//INST
///DATE 2023/06/26 11:09
///ATTR SC,RW,RJ
////FRAME BASE
///GROUP1 RB1,ST1
NOP
MOVJ P009 EX000 VJ=15.00
MOVJ C00000 EC00000 VJ=15.0
CALL JOB:SPYON
MOVL C00001 EC00001 V=150.0
MOVL C00002 EC00002 V=150.0
MOVL C00003 EC00003 V=150.0
MOVL C00004 EC00004 V=150.0
MOVL C00005 EC00005 V=150.0
MOVL C00006 EC00006 V=150.0
MOVL C00007 EC00007 V=150.0
MOVL C00008 EC00008 V=150.0
MOVL C00009 EC00009 V=150.0
MOVL C00010 EC00010 V=150.0
MOVL C00011 EC00011 V=150.0
MOVL C00012 EC00012 V=150.0
MOVL C00013 EC00013 V=150.0
MOVL C00014 EC00014 V=150.0
MOVL C00015 EC00015 V=150.0
MOVL C00016 EC00016 V=150.0
MOVL C00017 EC00017 V=150.0
MOVL C00018 EC00018 V=150.0
MOVL C00019 EC00019 V=150.0
MOVL C00020 EC00020 V=150.0
MOVL C00021 EC00021 V=150.0
MOVL C00022 EC00022 V=150.0
CALL JOB:SPYOF
MOVL C00023 EC00023 V=150.0
CALL JOB:SPYON
MOVL C00024 EC00024 V=150.0
CALL JOB:SPYOF
MOVL C00025 EC00025 V=150.0
MOVL C00026 EC00026 V=150.0
CALL JOB:SPYON
MOVL C00027 EC00027 V=150.0
CALL JOB:SPYOF
MOVL C00028 EC00028 V=150.0
CALL JOB:SPYON
MOVL C00029 EC00029 V=150.0
CALL JOB:SPYOF
MOVL C00030 EC00030 V=150.0
CALL JOB:SPYON
MOVL C00031 EC00031 V=150.0
CALL JOB:SPYOF
MOVL C00032 EC00032 V=150.0
MOVL C00033 EC00033 V=150.0
CALL JOB:SPYON
MOVL C00034 EC00034 V=150.0
CALL JOB:SPYOF
MOVL C00035 EC00035 V=150.0
CALL JOB:SPYON
MOVL C00036 EC00036 V=150.0
CALL JOB:SPYOF
MOVL C00037 EC00037 V=150.0
CALL JOB:SPYON
MOVL C00038 EC00038 V=150.0
CALL JOB:SPYOF
MOVL C00039 EC00039 V=150.0
MOVL C00040 EC00040 V=150.0
CALL JOB:SPYON
MOVL C00041 EC00041 V=150.0
CALL JOB:SPYOF
MOVL C00042 EC00042 V=150.0
CALL JOB:SPYON
MOVL C00043 EC00043 V=150.0
CALL JOB:SPYOF
MOVL C00044 EC00044 V=150.0
CALL JOB:SPYON
MOVL C00045 EC00045 V=150.0
CALL JOB:SPYOF
MOVL C00046 EC00046 V=150.0
MOVL C00047 EC00047 V=150.0
CALL JOB:SPYON
MOVL C00048 EC00048 V=150.0
CALL JOB:SPYOF
MOVL C00049 EC00049 V=150.0
CALL JOB:SPYON
MOVL C00050 EC00050 V=150.0
CALL JOB:SPYOF
MOVL C00051 EC00051 V=150.0
CALL JOB:SPYON
MOVL C00052 EC00052 V=150.0
CALL JOB:SPYOF
MOVL C00053 EC00053 V=150.0
MOVL C00054 EC00054 V=150.0
CALL JOB:SPYON
MOVL C00055 EC00055 V=150.0
CALL JOB:SPYOF
MOVL C00056 EC00056 V=150.0
CALL JOB:SPYON
MOVL C00057 EC00057 V=150.0
CALL JOB:SPYOF
MOVL C00058 EC00058 V=150.0
CALL JOB:SPYON
MOVL C00059 EC00059 V=150.0
CALL JOB:SPYOF
MOVL C00060 EC00060 V=150.0
MOVL C00061 EC00061 V=150.0
CALL JOB:SPYON
MOVL C00062 EC00062 V=150.0
CALL JOB:SPYOF
MOVL C00063 EC00063 V=150.0
CALL JOB:SPYON
MOVL C00064 EC00064 V=150.0
CALL JOB:SPYOF
MOVL C00065 EC00065 V=150.0
CALL JOB:SPYON
MOVL C00066 EC00066 V=150.0
CALL JOB:SPYOF
MOVL C00067 EC00067 V=150.0
MOVL C00068 EC00068 V=150.0
CALL JOB:SPYON
MOVL C00069 EC00069 V=150.0
CALL JOB:SPYOF
MOVL C00070 EC00070 V=150.0
CALL JOB:SPYON
MOVL C00071 EC00071 V=150.0
MOVL C00072 EC00072 V=150.0
MOVL C00073 EC00073 V=150.0
MOVL C00074 EC00074 V=150.0
MOVL C00075 EC00075 V=150.0
MOVL C00076 EC00076 V=150.0
MOVL C00077 EC00077 V=150.0
MOVL C00078 EC00078 V=150.0
MOVL C00079 EC00079 V=150.0
MOVL C00080 EC00080 V=150.0
MOVL C00081 EC00081 V=150.0
MOVL C00082 EC00082 V=150.0
MOVL C00083 EC00083 V=150.0
MOVL C00084 EC00084 V=150.0
MOVL C00085 EC00085 V=150.0
MOVL C00086 EC00086 V=150.0
MOVL C00087 EC00087 V=150.0
MOVL C00088 EC00088 V=150.0
MOVL C00089 EC00089 V=150.0
MOVL C00090 EC00090 V=150.0
CALL JOB:SPYOF
MOVJ P009 VJ=15.00
END
