/JOB
//NAME small_pipe_cylinder_program
//POS
///NPOS 112,0,112,0,0,0
///TOOL 0
///POSTYPE BASE
///RECTAN
///RCONF 0,0,0,0,0,0,0,0,0,0,0,0,0,0,0,0,0,0,0,0,0,0,0,0
C00000=2003.227261,-248.089737,-528.118378,-5.000000,-89.018485,-91.389640
C00001=2003.227261,-248.089737,-528.118378,-5.000000,-89.018485,-91.389640
C00002=1821.502529,-169.259995,-529.727901,5.000000,-88.208260,-135.490571
C00003=1745.833269,12.723966,-529.338943,5.000000,-88.404086,-175.000000
C00004=1745.833269,12.723966,-529.338943,5.000000,-88.404086,-175.000000
C00005=1745.833269,12.723966,-529.338943,5.000000,-88.404086,-175.000000
C00006=1827.294533,206.383919,-526.990724,-5.000000,-89.586014,133.712554
C00007=2013.241366,279.481038,-524.250663,-175.000000,-60.000000,-90.785223
C00008=2017.660295,-38.405584,-532.998349,-175.000000,-88.835319,85.811390
C00009=2017.660295,-38.405584,-532.998349,-175.000000,-88.835319,85.811390
C00010=1955.259849,-9.711158,-532.042942,175.000000,-89.889364,44.815191
C00011=1926.761871,58.051946,-530.976500,5.000000,-88.934121,-175.000000
C00012=1926.761871,58.051946,-530.976500,5.000000,-88.934121,-175.000000
C00013=1926.761871,58.051946,-530.976500,5.000000,-88.934121,-175.000000
C00014=1957.990622,131.194796,-530.446583,-5.000000,-88.349373,132.952157
C00015=2030.820856,157.294638,-530.874384,180.000000,-60.000000,-93.505925
C00016=2028.954915,-137.822037,-621.961882,5.000000,-89.688850,-87.708825
C00017=2028.954915,-137.822037,-621.961882,5.000000,-89.688850,-87.708825
C00018=1869.852679,-72.292252,-628.622638,-5.000000,-87.840134,-136.975014
C00019=1814.429268,70.630687,-630.074734,5.000000,-87.436867,175.000000
C00020=1814.429268,70.630687,-630.074734,5.000000,-87.436867,175.000000
C00021=1814.429268,70.630687,-630.074734,5.000000,-87.436867,175.000000
C00022=1871.060610,210.671393,-626.522897,5.000000,-88.423076,136.465648
C00023=2010.903392,274.751436,-619.788811,-175.000000,-89.708170,-87.280592
C00024=2012.220447,275.055648,-667.476714,175.000000,-89.718451,-87.052849
C00025=2012.220447,275.055648,-667.476714,175.000000,-89.718451,-87.052849
C00026=1862.172858,198.400724,-674.759310,-5.000000,-88.260528,141.117638
C00027=1816.604880,64.403924,-677.771351,5.000000,-87.424156,-175.000000
C00028=1816.604880,64.403924,-677.771351,5.000000,-87.424156,-175.000000
C00029=1816.604880,64.403924,-677.771351,5.000000,-87.424156,-175.000000
C00030=1897.777978,-95.326468,-675.286087,5.000000,-88.114286,-127.298985
C00031=2030.497574,-137.500209,-669.639541,5.000000,-89.681412,-87.873813
C00032=2033.181780,-137.121571,-719.670355,-5.000000,-89.686917,-87.751695
C00033=2033.181780,-137.121571,-719.670355,-5.000000,-89.686917,-87.751695
C00034=1899.568150,-94.616741,-725.354598,5.000000,-88.109329,-127.457815
C00035=1819.070976,79.848012,-727.703036,5.000000,-87.457200,175.000000
C00036=1819.070976,79.848012,-727.703036,5.000000,-87.457200,175.000000
C00037=1819.070976,79.848012,-727.703036,5.000000,-87.457200,175.000000
C00038=1876.726307,212.720381,-724.157101,5.000000,-88.441758,135.949916
C00039=2015.458401,275.466124,-717.482467,175.000000,-89.705991,-87.328862
C00040=2018.069563,275.844946,-681.338653,175.000000,-89.701193,-87.435199
C00041=2018.069563,275.844946,-681.338653,175.000000,-89.701193,-87.435199
C00042=1880.005557,214.237888,-683.153761,5.000000,-88.457568,135.516168
C00043=1821.382569,84.010050,-684.129080,5.000000,-87.467671,175.000000
C00044=1821.382569,84.010050,-684.129080,5.000000,-87.467671,175.000000
C00045=1821.382569,84.010050,-684.129080,5.000000,-87.467671,175.000000
C00046=1890.814771,-85.330163,-683.613117,5.000000,-87.991422,-131.386936
C00047=2029.688075,-136.909267,-682.012397,-5.000000,-89.615429,-89.340046
C00048=2032.335250,-136.577388,-726.745712,5.000000,-89.623419,-89.162212
C00049=2032.335250,-136.577388,-726.745712,5.000000,-89.623419,-89.162212
C00050=1881.720102,-74.462000,-728.469472,5.000000,-87.874538,-135.637066
C00051=1823.368088,84.033188,-728.871121,-5.000000,-87.466810,175.000000
C00052=1823.368088,84.033188,-728.871121,-5.000000,-87.466810,175.000000
C00053=1823.368088,84.033188,-728.871121,-5.000000,-87.466810,175.000000
C00054=1872.985118,204.751103,-728.024978,-5.000000,-88.325634,139.216359
C00055=2020.109099,276.169983,-726.079435,-175.000000,-60.000000,-87.444421
C00056=1965.955648,-182.700607,-523.204394,175.000000,-89.025083,96.487520
C00057=1965.955648,-182.700607,-523.204394,175.000000,-89.025083,96.487520
C00058=1745.322884,-102.691498,-521.492213,-175.000000,-88.163172,43.666047
C00059=1672.329143,79.885833,-522.271963,175.000000,-88.555737,-5.000000
C00060=1672.329143,79.885833,-522.271963,175.000000,-88.555737,-5.000000
C00061=1672.329143,79.885833,-522.271963,175.000000,-88.555737,-5.000000
C00062=1744.572530,260.878324,-524.620226,-175.000000,-89.737638,-43.442637
C00063=1904.413956,341.368205,-527.055868,-175.000000,-60.000000,-83.092318
C00064=1938.043364,-65.592003,-532.053377,-5.000000,-88.833797,-83.893010
C00065=1938.043364,-65.592003,-532.053377,-5.000000,-88.833797,-83.893010
C00066=1866.666682,-44.900843,-533.100532,5.000000,-89.989054,-128.423996
C00067=1829.776531,38.827286,-534.340331,-175.000000,-88.643126,-5.000000
C00068=1829.776531,38.827286,-534.340331,-175.000000,-88.643126,-5.000000
C00069=1829.776531,38.827286,-534.340331,-175.000000,-88.643126,-5.000000
C00070=1852.532900,95.041832,-534.607057,175.000000,-88.348783,-40.053965
C00071=1916.695729,129.387868,-534.172744,180.000000,-60.000000,-83.610553
C00072=1943.562914,-175.966659,-620.908863,175.000000,-89.675963,93.808057
C00073=1943.562914,-175.966659,-620.908863,175.000000,-89.675963,93.808057
C00074=1797.802958,-128.520326,-614.818822,175.000000,-87.985703,50.217035
C00075=1723.663467,23.793708,-612.828176,-175.000000,-87.432901,5.000000
C00076=1723.663467,23.793708,-612.828176,-175.000000,-87.432901,5.000000
C00077=1723.663467,23.793708,-612.828176,-175.000000,-87.432901,5.000000
C00078=1760.754693,148.392425,-615.558228,175.000000,-88.190986,-34.983742
C00079=1913.990387,235.938252,-623.147453,5.000000,-89.702877,94.404900
C00080=1909.818530,235.351348,-672.341196,5.000000,-89.727691,94.954512
C00081=1909.818530,235.351348,-672.341196,5.000000,-89.727691,94.954512
C00082=1785.646225,179.458456,-666.321341,175.000000,-88.601798,-46.534228
C00083=1721.472922,36.293372,-662.223289,-175.000000,-87.463994,-5.000000
C00084=1721.472922,36.293372,-662.223289,-175.000000,-87.463994,-5.000000
C00085=1721.472922,36.293372,-662.223289,-175.000000,-87.463994,-5.000000
C00086=1806.703887,-137.582647,-664.522317,-175.000000,-88.102403,54.122245
C00087=1942.354858,-176.324396,-670.236748,-175.000000,-89.688371,94.083314
C00088=1940.850968,-176.702240,-720.047562,175.000000,-89.697354,94.282491
C00089=1940.850968,-176.702240,-720.047562,175.000000,-89.697354,94.282491
C00090=1793.942798,-129.839478,-713.901279,-175.000000,-87.991492,50.418276
C00091=1720.580022,53.569327,-712.213810,175.000000,-87.522898,-6.782199
C00092=1720.580022,53.569327,-712.213810,175.000000,-87.522898,-6.782199
C00093=1720.580022,53.569327,-712.213810,175.000000,-87.522898,-6.782199
C00094=1783.049283,178.669378,-716.079861,-175.000000,-88.596270,-46.389695
C00095=1906.462971,234.819941,-722.068113,-5.000000,-89.741987,95.270918
C00096=1906.554767,234.591522,-684.586309,-5.000000,-89.712910,94.627199
C00097=1906.554767,234.591522,-684.586309,-5.000000,-89.712910,94.627199
C00098=1774.086571,171.573457,-682.821813,-175.000000,-88.497201,-43.757926
C00099=1717.275749,43.096697,-681.826600,-175.000000,-87.487130,-5.000000
C00100=1717.275749,43.096697,-681.826600,-175.000000,-87.487130,-5.000000
C00101=1717.275749,43.096697,-681.826600,-175.000000,-87.487130,-5.000000
C00102=1792.118684,-130.714825,-682.328113,175.000000,-87.996208,50.581568
C00103=1938.796794,-177.121851,-684.006928,175.000000,-89.699425,94.328398
C00104=1936.627457,-177.522176,-728.880895,175.000000,-89.697314,94.281606
C00105=1936.627457,-177.522176,-728.880895,175.000000,-89.697314,94.281606
C00106=1786.077334,-127.692174,-727.162988,-175.000000,-87.954421,49.114231
C00107=1715.191420,41.455602,-726.698681,175.000000,-87.483102,-5.000000
C00108=1715.191420,41.455602,-726.698681,175.000000,-87.483102,-5.000000
C00109=1715.191420,41.455602,-726.698681,175.000000,-87.483102,-5.000000
C00110=1766.500794,165.112061,-727.615450,175.000000,-88.413581,-41.468103
C00111=1902.901268,234.063532,-729.441869,180.000000,-60.000000,-84.912667
///POSTYPE PULSE
///PULSE
EX00000=6144.0
EX00001=61440.0
EX00002=70656.0
EX00003=197632.0
EX00004=257024.0
EX00005=257024.0
///POSTYPE PULSE
///PULSE
EC00000=6144.0
EC00001=6144.0
EC00002=6144.0
EC00003=6144.0
EC00004=6144.0
EC00005=6144.0
EC00006=6144.0
EC00007=6144.0
EC00008=61440.0
EC00009=61440.0
EC00010=61440.0
EC00011=61440.0
EC00012=61440.0
EC00013=61440.0
EC00014=61440.0
EC00015=61440.0
EC00016=70656.0
EC00017=70656.0
EC00018=70656.0
EC00019=70656.0
EC00020=70656.0
EC00021=70656.0
EC00022=70656.0
EC00023=70656.0
EC00024=70656.0
EC00025=70656.0
EC00026=70656.0
EC00027=70656.0
EC00028=70656.0
EC00029=70656.0
EC00030=70656.0
EC00031=70656.0
EC00032=70656.0
EC00033=70656.0
EC00034=70656.0
EC00035=70656.0
EC00036=70656.0
EC00037=70656.0
EC00038=70656.0
EC00039=70656.0
EC00040=70656.0
EC00041=70656.0
EC00042=70656.0
EC00043=70656.0
EC00044=70656.0
EC00045=70656.0
EC00046=70656.0
EC00047=70656.0
EC00048=70656.0
EC00049=70656.0
EC00050=70656.0
EC00051=70656.0
EC00052=70656.0
EC00053=70656.0
EC00054=70656.0
EC00055=70656.0
EC00056=197632.0
EC00057=197632.0
EC00058=197632.0
EC00059=197632.0
EC00060=197632.0
EC00061=197632.0
EC00062=197632.0
EC00063=197632.0
EC00064=257024.0
EC00065=257024.0
EC00066=257024.0
EC00067=257024.0
EC00068=257024.0
EC00069=257024.0
EC00070=257024.0
EC00071=257024.0
EC00072=257024.0
EC00073=257024.0
EC00074=257024.0
EC00075=257024.0
EC00076=257024.0
EC00077=257024.0
EC00078=257024.0
EC00079=257024.0
EC00080=257024.0
EC00081=257024.0
EC00082=257024.0
EC00083=257024.0
EC00084=257024.0
EC00085=257024.0
EC00086=257024.0
EC00087=257024.0
EC00088=257024.0
EC00089=257024.0
EC00090=257024.0
EC00091=257024.0
EC00092=257024.0
EC00093=257024.0
EC00094=257024.0
EC00095=257024.0
EC00096=257024.0
EC00097=257024.0
EC00098=257024.0
EC00099=257024.0
EC00100=257024.0
EC00101=257024.0
EC00102=257024.0
EC00103=257024.0
EC00104=257024.0
EC00105=257024.0
EC00106=257024.0
EC00107=257024.0
EC00108=257024.0
EC00109=257024.0
EC00110=257024.0
EC00111=257024.0
//INST
///DATE 2023/08/13 14:44
///ATTR SC,RW,RJ
////FRAME BASE
///GROUP1 RB1,ST1
NOP
MOVJ P009 EX000 VJ=15.00
MOVJ C00000 EC00000 VJ=15.0
CALL JOB:SPYON
MOVC C00001 EC00001 V=150.0
MOVC C00002 EC00002 V=150.0
MOVC C00003 EC00003 V=150.0
MOVJ C00004 EC00004 VJ=15.0
MOVC C00005 EC00005 V=150.0
MOVC C00006 EC00006 V=150.0
MOVC C00007 EC00007 V=150.0
CALL JOB:SPYOF
MOVJ P009 VJ=15.00
MOVL P009 EX00000 V=150.0
MOVJ C00008 EC00008 VJ=15.0
CALL JOB:SPYON
MOVC C00009 EC00009 V=150.0
MOVC C00010 EC00010 V=150.0
MOVC C00011 EC00011 V=150.0
MOVJ C00012 EC00012 VJ=15.0
MOVC C00013 EC00013 V=150.0
MOVC C00014 EC00014 V=150.0
MOVC C00015 EC00015 V=150.0
CALL JOB:SPYOF
MOVJ P009 VJ=15.00
MOVL P009 EX00001 V=150.0
MOVJ C00016 EC00016 VJ=15.0
CALL JOB:SPYON
MOVC C00017 EC00017 V=150.0
MOVC C00018 EC00018 V=150.0
MOVC C00019 EC00019 V=150.0
MOVJ C00020 EC00020 VJ=15.0
MOVC C00021 EC00021 V=150.0
MOVC C00022 EC00022 V=150.0
MOVC C00023 EC00023 V=150.0
MOVJ C00024 EC00024 VJ=15.0
MOVC C00025 EC00025 V=150.0
MOVC C00026 EC00026 V=150.0
MOVC C00027 EC00027 V=150.0
MOVJ C00028 EC00028 VJ=15.0
MOVC C00029 EC00029 V=150.0
MOVC C00030 EC00030 V=150.0
MOVC C00031 EC00031 V=150.0
MOVJ C00032 EC00032 VJ=15.0
MOVC C00033 EC00033 V=150.0
MOVC C00034 EC00034 V=150.0
MOVC C00035 EC00035 V=150.0
MOVJ C00036 EC00036 VJ=15.0
MOVC C00037 EC00037 V=150.0
MOVC C00038 EC00038 V=150.0
MOVC C00039 EC00039 V=150.0
MOVJ C00040 EC00040 VJ=15.0
MOVC C00041 EC00041 V=150.0
MOVC C00042 EC00042 V=150.0
MOVC C00043 EC00043 V=150.0
MOVJ C00044 EC00044 VJ=15.0
MOVC C00045 EC00045 V=150.0
MOVC C00046 EC00046 V=150.0
MOVC C00047 EC00047 V=150.0
MOVJ C00048 EC00048 VJ=15.0
MOVC C00049 EC00049 V=150.0
MOVC C00050 EC00050 V=150.0
MOVC C00051 EC00051 V=150.0
MOVJ C00052 EC00052 VJ=15.0
MOVC C00053 EC00053 V=150.0
MOVC C00054 EC00054 V=150.0
MOVC C00055 EC00055 V=150.0
CALL JOB:SPYOF
MOVJ P009 VJ=15.00
MOVL P009 EX00002 V=150.0
MOVJ C00056 EC00056 VJ=15.0
CALL JOB:SPYON
MOVC C00057 EC00057 V=150.0
MOVC C00058 EC00058 V=150.0
MOVC C00059 EC00059 V=150.0
MOVJ C00060 EC00060 VJ=15.0
MOVC C00061 EC00061 V=150.0
MOVC C00062 EC00062 V=150.0
MOVC C00063 EC00063 V=150.0
CALL JOB:SPYOF
MOVJ P009 VJ=15.00
MOVL P009 EX00003 V=150.0
MOVJ C00064 EC00064 VJ=15.0
CALL JOB:SPYON
MOVC C00065 EC00065 V=150.0
MOVC C00066 EC00066 V=150.0
MOVC C00067 EC00067 V=150.0
MOVJ C00068 EC00068 VJ=15.0
MOVC C00069 EC00069 V=150.0
MOVC C00070 EC00070 V=150.0
MOVC C00071 EC00071 V=150.0
CALL JOB:SPYOF
MOVJ P009 VJ=15.00
MOVL P009 EX00004 V=150.0
MOVJ C00072 EC00072 VJ=15.0
CALL JOB:SPYON
MOVC C00073 EC00073 V=150.0
MOVC C00074 EC00074 V=150.0
MOVC C00075 EC00075 V=150.0
MOVJ C00076 EC00076 VJ=15.0
MOVC C00077 EC00077 V=150.0
MOVC C00078 EC00078 V=150.0
MOVC C00079 EC00079 V=150.0
MOVJ C00080 EC00080 VJ=15.0
MOVC C00081 EC00081 V=150.0
MOVC C00082 EC00082 V=150.0
MOVC C00083 EC00083 V=150.0
MOVJ C00084 EC00084 VJ=15.0
MOVC C00085 EC00085 V=150.0
MOVC C00086 EC00086 V=150.0
MOVC C00087 EC00087 V=150.0
MOVJ C00088 EC00088 VJ=15.0
MOVC C00089 EC00089 V=150.0
MOVC C00090 EC00090 V=150.0
MOVC C00091 EC00091 V=150.0
MOVJ C00092 EC00092 VJ=15.0
MOVC C00093 EC00093 V=150.0
MOVC C00094 EC00094 V=150.0
MOVC C00095 EC00095 V=150.0
MOVJ C00096 EC00096 VJ=15.0
MOVC C00097 EC00097 V=150.0
MOVC C00098 EC00098 V=150.0
MOVC C00099 EC00099 V=150.0
MOVJ C00100 EC00100 VJ=15.0
MOVC C00101 EC00101 V=150.0
MOVC C00102 EC00102 V=150.0
MOVC C00103 EC00103 V=150.0
MOVJ C00104 EC00104 VJ=15.0
MOVC C00105 EC00105 V=150.0
MOVC C00106 EC00106 V=150.0
MOVC C00107 EC00107 V=150.0
MOVJ C00108 EC00108 VJ=15.0
MOVC C00109 EC00109 V=150.0
MOVC C00110 EC00110 V=150.0
MOVC C00111 EC00111 V=150.0
CALL JOB:SPYOF
MOVJ P009 VJ=15.00
MOVL P009 EX00005 V=150.0
END
