/JOB
//NAME white_plate_planes_program
//POS
///NPOS 16,0,16,0,0,0
///TOOL 0
///POSTYPE BASE
///RECTAN
///RCONF 0,0,0,0,0,0,0,0,0,0,0,0,0,0,0,0,0,0,0,0,0,0,0,0
C00000=1842.832486,-257.035116,-661.895103,-175.000000,-89.099937,-5.000000
C00001=1866.914073,355.426363,-662.295260,-175.000000,-89.099937,-5.000000
C00002=1881.843330,356.567138,-708.150333,-175.000000,-89.099937,-5.000000
C00003=1833.855378,-256.245409,-707.374594,-175.000000,-89.099937,-5.000000
C00004=1829.058216,-251.498911,-670.703029,180.000000,-60.000000,0.000000
C00005=1831.372595,349.131253,-670.760800,180.000000,-60.000000,0.000000
C00006=1840.019373,354.981116,-720.903020,180.000000,-60.000000,0.000000
C00007=1851.740574,-257.871958,-721.065312,180.000000,-60.000000,0.000000
C00008=1760.918347,411.779236,-667.131049,-5.000000,-89.082612,175.000000
C00009=1760.124096,-308.436183,-667.150436,-5.000000,-89.082612,175.000000
C00010=1760.993269,-307.950438,-713.169602,-5.000000,-89.082612,175.000000
C00011=1761.099185,411.754237,-713.161241,-5.000000,-89.082612,175.000000
C00012=1821.346939,351.496142,-675.600942,180.000000,-60.000000,0.000000
C00013=1809.517917,-248.787314,-675.795915,180.000000,-60.000000,0.000000
C00014=1763.621651,-308.210073,-726.537796,180.000000,-60.000000,0.000000
C00015=1763.621517,412.579343,-726.531123,180.000000,-60.000000,0.000000
///POSTYPE PULSE
///PULSE
EC00000=0.0
EC00001=0.0
EC00002=0.0
EC00003=0.0
EC00004=0.0
EC00005=0.0
EC00006=0.0
EC00007=0.0
EC00008=184320.0
EC00009=184320.0
EC00010=184320.0
EC00011=184320.0
EC00012=184320.0
EC00013=184320.0
EC00014=184320.0
EC00015=184320.0
//INST
///DATE 2023/08/13 10:33
///ATTR SC,RW,RJ
////FRAME BASE
///GROUP1 RB1,ST1
NOP
MOVJ P009 EX000 VJ=15.00
MOVJ C00000 EC00000 VJ=15.0
CALL JOB:SPYON
MOVL C00001 EC00001 V=150.0
MOVL C00002 EC00002 V=150.0
MOVL C00003 EC00003 V=150.0
MOVL C00004 EC00004 V=150.0
MOVL C00005 EC00005 V=150.0
MOVL C00006 EC00006 V=150.0
MOVL C00007 EC00007 V=150.0
CALL JOB:SPYOF
MOVJ P009 VJ=15.00
MOVJ C00008 EC00008 VJ=15.0
CALL JOB:SPYON
MOVL C00009 EC00009 V=150.0
MOVL C00010 EC00010 V=150.0
MOVL C00011 EC00011 V=150.0
MOVL C00012 EC00012 V=150.0
MOVL C00013 EC00013 V=150.0
MOVL C00014 EC00014 V=150.0
MOVL C00015 EC00015 V=150.0
CALL JOB:SPYOF
MOVJ P009 VJ=15.00
END
